(** This GCode was generated by ReplicatorG 0039 **)
(*  using Skeinforge (35) - Legacy  *)
(*  for a Single headed Thing-O-Matic  *)
(*  on 2015/09/18 04:38:06 (-0300) *)
(**** beginning of start.gcode ****)
(This file is for a MakerBot Thing-O-Matic)
(**** begin initialization commands ****)
G21 (set units to mm)
G90 (set positioning to absolute)
M108 R5.0 (set extruder speed)
M103 (Make sure extruder is off)
M104 S220 T0 (set extruder temperature) (temp updated by printOMatic)
M109 S100 T0 (set heated-build-platform temperature)
(**** end initialization commands ****)
(**** begin homing ****)
G162 Z F1000 (home Z axis maximum)
G92 Z10 (set Z to 0)
G1 Z0 (move z down 10)
G162 Z F150 (home Z axis maximum)
G161 X Y F2500 (home XY axes minimum)
M132 X Y Z A B (Recall stored home offsets for XYZAB axis)
(**** end homing ****)
(**** begin pre-wipe commands ****)
( Some people have had problems with the nozzle hitting )
( bolts or wipers during this pre-extrusion warmup.     )
( If this happens to you, you can change the values for )
( the X and Y positions in the following code.          )
( The goal is to have the toolhead wipe its initial     )
( extrusion near the edge of the platform, [anchor it]  )
( so as not to have it interfere with the print.        )
( This file can be found in:                            )
( replicatorg/skein_engines/skeinforge-##/skeinforge_application/ )
( prefs/<profile name [e.g. Thingomatic-ABP-Mk7]>/alterations )
G1 X25 Y-60 Z10 F3300.0 (move to waiting position)
M6 T0 (wait for toolhead parts, nozzle, HBP, etc., to reach temperature)
G0 X25 Y-57 (Position Nozzle)
G0 Z0.6     (Position Height)
M108 R4.0   (Set Extruder Speed)
M101        (Start Extruder)
G4 P1500    (Create Anchor)
(**** end pre-wipe commands ****)
(**** end of start.gcode ****)
(<creation> skeinforge </creation>)
(<version> 10.11.05 </version>)
(<extruderInitialization>)
(<craftTypeName> extrusion </craftTypeName>)
M105
(<bridgeWidthMultiplier> 1.0 </bridgeWidthMultiplier>)
(<decimalPlacesCarried> 3 </decimalPlacesCarried>)
(<layerThickness> 0.3 </layerThickness>)
(<threadSequenceString> perimeter loops infill </threadSequenceString>)
(<operatingFeedRatePerSecond> 30.0 </operatingFeedRatePerSecond>)
(<operatingFlowRate> 1.17935176361 </operatingFlowRate>)
(<orbitalFeedRatePerSecond> 15.0 </orbitalFeedRatePerSecond>)
(<travelFeedRatePerSecond> 40.0 </travelFeedRatePerSecond>)
(<perimeterWidth> 0.419 </perimeterWidth>)
(<profileName> ABS </profileName>)
(<procedureDone> carve,bottom </procedureDone>)
(<procedureDone> preface </procedureDone>)
(<procedureDone> inset </procedureDone>)
(<procedureDone> fill </procedureDone>)
(<procedureDone> speed </procedureDone>)
(<procedureDone> raft </procedureDone>)
(<procedureDone> comb </procedureDone>)
(<procedureDone> cool </procedureDone>)
(<procedureDone> outline </procedureDone>)
(<procedureDone> reversal </procedureDone>)
(<procedureDone> export </procedureDone>)
(</extruderInitialization>)
(<extrusion>)
;M113 S1.0
M108 R1.179
(<layer> 0.45 )
(<surroundingLoop>)
(<boundaryPerimeter>)
(<boundaryPoint> X9.0 Y-31.0 Z0.45 </boundaryPoint>)
(<boundaryPoint> X9.0 Y-15.5 Z0.45 </boundaryPoint>)
(<boundaryPoint> X-3.7 Y-15.5 Z0.45 </boundaryPoint>)
(<boundaryPoint> X-3.7 Y15.5 Z0.45 </boundaryPoint>)
(<boundaryPoint> X9.0 Y15.5 Z0.45 </boundaryPoint>)
(<boundaryPoint> X9.0 Y31.0 Z0.45 </boundaryPoint>)
(<boundaryPoint> X-9.0 Y31.0 Z0.45 </boundaryPoint>)
(<boundaryPoint> X-9.0 Y-31.0 Z0.45 </boundaryPoint>)
(<perimeter> outer )
G1 X-11.79 Y-33.79 Z0.45 F1080.0
M101
G1 X-11.79 Y33.79 Z0.45 F1080.0
G1 X11.79 Y33.79 Z0.45 F1080.0
G1 X11.79 Y-33.79 Z0.45 F1080.0
G1 X-10.44 Y-33.79 Z0.45 F1080.0
M108 R35.0
M102
G1 X-11.79 Y-33.79 Z0.45 F1080.0
M108 R1.179
M103
G1 X-4.33 Y-1.82 Z0.45 F1440.0
M108 R35.0
M101
G1 X-3.91 Y0.0 Z0.45 F1440.0
M108 R1.179
G1 X-3.91 Y15.71 Z0.45 F1080.0
G1 X8.79 Y15.71 Z0.45 F1080.0
G1 X8.79 Y30.79 Z0.45 F1080.0
G1 X-8.79 Y30.79 Z0.45 F1080.0
G1 X-8.79 Y-30.79 Z0.45 F1080.0
G1 X8.79 Y-30.79 Z0.45 F1080.0
G1 X8.79 Y-15.71 Z0.45 F1080.0
G1 X-3.91 Y-15.71 Z0.45 F1080.0
G1 X-3.91 Y-1.35 Z0.45 F1080.0
M108 R35.0
M102
G1 X-3.91 Y0.0 Z0.45 F1080.0
M108 R1.179
M103
(</perimeter>)
(</boundaryPerimeter>)
(<surroundingLoop>)
(<boundaryPerimeter>)
(<boundaryPoint> X-5.626 Y-27.58 Z0.45 </boundaryPoint>)
(<boundaryPoint> X-5.998 Y-27.374 Z0.45 </boundaryPoint>)
(<boundaryPoint> X-6.309 Y-27.083 Z0.45 </boundaryPoint>)
(<boundaryPoint> X-6.537 Y-26.723 Z0.45 </boundaryPoint>)
(<boundaryPoint> X-6.669 Y-26.319 Z0.45 </boundaryPoint>)
(<boundaryPoint> X-6.696 Y-25.894 Z0.45 </boundaryPoint>)
(<boundaryPoint> X-6.616 Y-25.475 Z0.45 </boundaryPoint>)
(<boundaryPoint> X-6.435 Y-25.091 Z0.45 </boundaryPoint>)
(<boundaryPoint> X-6.163 Y-24.762 Z0.45 </boundaryPoint>)
(<boundaryPoint> X-5.819 Y-24.511 Z0.45 </boundaryPoint>)
(<boundaryPoint> X-5.422 Y-24.354 Z0.45 </boundaryPoint>)
(<boundaryPoint> X-5.0 Y-24.301 Z0.45 </boundaryPoint>)
(<boundaryPoint> X-4.578 Y-24.354 Z0.45 </boundaryPoint>)
(<boundaryPoint> X-4.181 Y-24.511 Z0.45 </boundaryPoint>)
(<boundaryPoint> X-3.837 Y-24.762 Z0.45 </boundaryPoint>)
(<boundaryPoint> X-3.565 Y-25.091 Z0.45 </boundaryPoint>)
(<boundaryPoint> X-3.384 Y-25.475 Z0.45 </boundaryPoint>)
(<boundaryPoint> X-3.304 Y-25.894 Z0.45 </boundaryPoint>)
(<boundaryPoint> X-3.331 Y-26.319 Z0.45 </boundaryPoint>)
(<boundaryPoint> X-3.463 Y-26.723 Z0.45 </boundaryPoint>)
(<boundaryPoint> X-3.691 Y-27.083 Z0.45 </boundaryPoint>)
(<boundaryPoint> X-4.002 Y-27.374 Z0.45 </boundaryPoint>)
(<boundaryPoint> X-4.374 Y-27.58 Z0.45 </boundaryPoint>)
(<boundaryPoint> X-4.785 Y-27.685 Z0.45 </boundaryPoint>)
(<boundaryPoint> X-5.215 Y-27.685 Z0.45 </boundaryPoint>)
(<perimeter> inner )
G1 X-4.92 Y-22.22 Z0.45 F1440.0
M108 R35.0
M101
G1 X-5.0 Y-24.09 Z0.45 F1440.0
M108 R1.179
G1 X-4.53 Y-24.15 Z0.45 F1080.0
G1 X-4.08 Y-24.33 Z0.45 F1080.0
G1 X-3.69 Y-24.61 Z0.45 F1080.0
G1 X-3.39 Y-24.98 Z0.45 F1080.0
G1 X-3.18 Y-25.41 Z0.45 F1080.0
G1 X-3.09 Y-25.88 Z0.45 F1080.0
G1 X-3.12 Y-26.36 Z0.45 F1080.0
G1 X-3.27 Y-26.81 Z0.45 F1080.0
G1 X-3.53 Y-27.22 Z0.45 F1080.0
G1 X-3.88 Y-27.55 Z0.45 F1080.0
G1 X-4.3 Y-27.78 Z0.45 F1080.0
G1 X-4.76 Y-27.89 Z0.45 F1080.0
G1 X-5.24 Y-27.89 Z0.45 F1080.0
G1 X-5.7 Y-27.78 Z0.45 F1080.0
G1 X-6.12 Y-27.55 Z0.45 F1080.0
G1 X-6.47 Y-27.22 Z0.45 F1080.0
G1 X-6.73 Y-26.81 Z0.45 F1080.0
G1 X-6.88 Y-26.36 Z0.45 F1080.0
G1 X-6.91 Y-25.88 Z0.45 F1080.0
G1 X-6.82 Y-25.41 Z0.45 F1080.0
G1 X-6.61 Y-24.98 Z0.45 F1080.0
G1 X-6.31 Y-24.61 Z0.45 F1080.0
G1 X-6.24 Y-24.56 Z0.45 F1080.0
M108 R35.0
M102
G1 X-5.92 Y-24.33 Z0.45 F1080.0
G1 X-5.47 Y-24.15 Z0.45 F1080.0
G1 X-5.0 Y-24.09 Z0.45 F1080.0
M108 R1.179
M103
(</perimeter>)
(</boundaryPerimeter>)
(</surroundingLoop>)
(<surroundingLoop>)
(<boundaryPerimeter>)
(<boundaryPoint> X-3.304 Y25.894 Z0.45 </boundaryPoint>)
(<boundaryPoint> X-3.384 Y25.475 Z0.45 </boundaryPoint>)
(<boundaryPoint> X-3.565 Y25.091 Z0.45 </boundaryPoint>)
(<boundaryPoint> X-3.837 Y24.762 Z0.45 </boundaryPoint>)
(<boundaryPoint> X-4.181 Y24.511 Z0.45 </boundaryPoint>)
(<boundaryPoint> X-4.578 Y24.354 Z0.45 </boundaryPoint>)
(<boundaryPoint> X-5.0 Y24.301 Z0.45 </boundaryPoint>)
(<boundaryPoint> X-5.422 Y24.354 Z0.45 </boundaryPoint>)
(<boundaryPoint> X-5.819 Y24.511 Z0.45 </boundaryPoint>)
(<boundaryPoint> X-6.163 Y24.762 Z0.45 </boundaryPoint>)
(<boundaryPoint> X-6.435 Y25.091 Z0.45 </boundaryPoint>)
(<boundaryPoint> X-6.616 Y25.475 Z0.45 </boundaryPoint>)
(<boundaryPoint> X-6.696 Y25.894 Z0.45 </boundaryPoint>)
(<boundaryPoint> X-6.669 Y26.319 Z0.45 </boundaryPoint>)
(<boundaryPoint> X-6.537 Y26.723 Z0.45 </boundaryPoint>)
(<boundaryPoint> X-6.309 Y27.083 Z0.45 </boundaryPoint>)
(<boundaryPoint> X-5.998 Y27.374 Z0.45 </boundaryPoint>)
(<boundaryPoint> X-5.626 Y27.58 Z0.45 </boundaryPoint>)
(<boundaryPoint> X-5.215 Y27.685 Z0.45 </boundaryPoint>)
(<boundaryPoint> X-4.785 Y27.685 Z0.45 </boundaryPoint>)
(<boundaryPoint> X-4.374 Y27.58 Z0.45 </boundaryPoint>)
(<boundaryPoint> X-4.002 Y27.374 Z0.45 </boundaryPoint>)
(<boundaryPoint> X-3.691 Y27.083 Z0.45 </boundaryPoint>)
(<boundaryPoint> X-3.463 Y26.723 Z0.45 </boundaryPoint>)
(<boundaryPoint> X-3.331 Y26.319 Z0.45 </boundaryPoint>)
(<perimeter> inner )
G1 X-5.0 Y22.22 Z0.45 F1440.0
M108 R35.0
M101
G1 X-5.0 Y24.09 Z0.45 F1440.0
M108 R1.179
G1 X-5.47 Y24.15 Z0.45 F1080.0
G1 X-5.92 Y24.33 Z0.45 F1080.0
G1 X-6.31 Y24.61 Z0.45 F1080.0
G1 X-6.61 Y24.98 Z0.45 F1080.0
G1 X-6.82 Y25.41 Z0.45 F1080.0
G1 X-6.91 Y25.88 Z0.45 F1080.0
G1 X-6.88 Y26.36 Z0.45 F1080.0
G1 X-6.73 Y26.81 Z0.45 F1080.0
G1 X-6.47 Y27.22 Z0.45 F1080.0
G1 X-6.12 Y27.55 Z0.45 F1080.0
G1 X-5.7 Y27.78 Z0.45 F1080.0
G1 X-5.24 Y27.89 Z0.45 F1080.0
G1 X-4.76 Y27.89 Z0.45 F1080.0
G1 X-4.3 Y27.78 Z0.45 F1080.0
G1 X-3.88 Y27.55 Z0.45 F1080.0
G1 X-3.53 Y27.22 Z0.45 F1080.0
G1 X-3.27 Y26.81 Z0.45 F1080.0
G1 X-3.12 Y26.36 Z0.45 F1080.0
G1 X-3.09 Y25.88 Z0.45 F1080.0
G1 X-3.18 Y25.41 Z0.45 F1080.0
G1 X-3.39 Y24.98 Z0.45 F1080.0
G1 X-3.69 Y24.61 Z0.45 F1080.0
G1 X-4.08 Y24.33 Z0.45 F1080.0
G1 X-4.53 Y24.15 Z0.45 F1080.0
G1 X-5.0 Y24.09 Z0.45 F1080.0
M103
(</perimeter>)
(</boundaryPerimeter>)
(</surroundingLoop>)
(<loop> inner )
G1 X-5.0 Y23.67 Z0.45 F1800.0
M101
G1 X-5.58 Y23.74 Z0.45 F1350.0
G1 X-6.13 Y23.96 Z0.45 F1350.0
G1 X-6.6 Y24.3 Z0.45 F1350.0
G1 X-6.97 Y24.75 Z0.45 F1350.0
G1 X-7.22 Y25.28 Z0.45 F1350.0
G1 X-7.33 Y25.85 Z0.45 F1350.0
G1 X-7.29 Y26.44 Z0.45 F1350.0
G1 X-7.11 Y26.99 Z0.45 F1350.0
G1 X-6.8 Y27.49 Z0.45 F1350.0
G1 X-6.37 Y27.89 Z0.45 F1350.0
G1 X-5.86 Y28.17 Z0.45 F1350.0
G1 X-5.29 Y28.31 Z0.45 F1350.0
G1 X-4.71 Y28.31 Z0.45 F1350.0
G1 X-4.14 Y28.17 Z0.45 F1350.0
G1 X-3.63 Y27.89 Z0.45 F1350.0
G1 X-3.2 Y27.49 Z0.45 F1350.0
G1 X-2.89 Y26.99 Z0.45 F1350.0
G1 X-2.71 Y26.44 Z0.45 F1350.0
G1 X-2.67 Y25.85 Z0.45 F1350.0
G1 X-2.78 Y25.28 Z0.45 F1350.0
G1 X-3.03 Y24.75 Z0.45 F1350.0
G1 X-3.4 Y24.3 Z0.45 F1350.0
G1 X-3.88 Y23.96 Z0.45 F1350.0
G1 X-4.42 Y23.74 Z0.45 F1350.0
G1 X-5.0 Y23.67 Z0.45 F1350.0
M103
(</loop>)
(<loop> outer )
G1 X-5.0 Y23.25 Z0.45 F1800.0
M101
G1 X-5.68 Y23.33 Z0.45 F1350.0
G1 X-6.33 Y23.59 Z0.45 F1350.0
G1 X-6.89 Y23.99 Z0.45 F1350.0
G1 X-7.33 Y24.52 Z0.45 F1350.0
G1 X-7.47 Y24.82 Z0.45 F1350.0
G1 X-7.95 Y24.76 Z0.45 F1350.0
G1 X-7.95 Y-24.76 Z0.45 F1350.0
G1 X-7.47 Y-24.82 Z0.45 F1350.0
G1 X-7.33 Y-24.52 Z0.45 F1350.0
G1 X-6.89 Y-23.99 Z0.45 F1350.0
G1 X-6.33 Y-23.59 Z0.45 F1350.0
G1 X-5.68 Y-23.33 Z0.45 F1350.0
G1 X-5.0 Y-23.25 Z0.45 F1350.0
G1 X-4.32 Y-23.33 Z0.45 F1350.0
G1 X-3.67 Y-23.59 Z0.45 F1350.0
G1 X-3.11 Y-23.99 Z0.45 F1350.0
G1 X-2.67 Y-24.52 Z0.45 F1350.0
G1 X-2.38 Y-25.15 Z0.45 F1350.0
G1 X-2.25 Y-25.83 Z0.45 F1350.0
G1 X-2.29 Y-26.52 Z0.45 F1350.0
G1 X-2.51 Y-27.17 Z0.45 F1350.0
G1 X-2.88 Y-27.76 Z0.45 F1350.0
G1 X-3.38 Y-28.23 Z0.45 F1350.0
G1 X-3.98 Y-28.56 Z0.45 F1350.0
G1 X-4.65 Y-28.73 Z0.45 F1350.0
G1 X-5.35 Y-28.73 Z0.45 F1350.0
G1 X-6.02 Y-28.56 Z0.45 F1350.0
G1 X-6.62 Y-28.23 Z0.45 F1350.0
G1 X-7.12 Y-27.76 Z0.45 F1350.0
G1 X-7.49 Y-27.17 Z0.45 F1350.0
G1 X-7.62 Y-26.79 Z0.45 F1350.0
G1 X-8.05 Y-26.58 Z0.45 F1350.0
G1 X-7.95 Y-27.22 Z0.45 F1350.0
G1 X-7.95 Y-29.95 Z0.45 F1350.0
G1 X7.95 Y-29.95 Z0.45 F1350.0
G1 X7.95 Y-16.55 Z0.45 F1350.0
G1 X-4.75 Y-16.55 Z0.45 F1350.0
G1 X-4.75 Y16.55 Z0.45 F1350.0
G1 X7.95 Y16.55 Z0.45 F1350.0
G1 X7.95 Y29.95 Z0.45 F1350.0
G1 X-7.95 Y29.95 Z0.45 F1350.0
G1 X-7.95 Y27.22 Z0.45 F1350.0
G1 X-8.05 Y26.58 Z0.45 F1350.0
G1 X-7.62 Y26.79 Z0.45 F1350.0
G1 X-7.49 Y27.17 Z0.45 F1350.0
G1 X-7.12 Y27.76 Z0.45 F1350.0
G1 X-6.62 Y28.23 Z0.45 F1350.0
G1 X-6.02 Y28.56 Z0.45 F1350.0
G1 X-5.35 Y28.73 Z0.45 F1350.0
G1 X-4.65 Y28.73 Z0.45 F1350.0
G1 X-3.98 Y28.56 Z0.45 F1350.0
G1 X-3.38 Y28.23 Z0.45 F1350.0
G1 X-2.88 Y27.76 Z0.45 F1350.0
G1 X-2.51 Y27.17 Z0.45 F1350.0
G1 X-2.29 Y26.52 Z0.45 F1350.0
G1 X-2.25 Y25.83 Z0.45 F1350.0
G1 X-2.38 Y25.15 Z0.45 F1350.0
G1 X-2.67 Y24.52 Z0.45 F1350.0
G1 X-3.11 Y23.99 Z0.45 F1350.0
G1 X-3.42 Y23.77 Z0.45 F1350.0
M108 R35.0
M102
G1 X-3.67 Y23.59 Z0.45 F1350.0
G1 X-4.32 Y23.33 Z0.45 F1350.0
G1 X-5.0 Y23.25 Z0.45 F1350.0
M108 R1.179
M103
(</loop>)
(<loop> inner )
G1 X-5.0 Y-21.33 Z0.45 F1800.0
M108 R35.0
M101
G1 X-5.0 Y-23.67 Z0.45 F1800.0
M108 R1.179
G1 X-4.42 Y-23.74 Z0.45 F1350.0
G1 X-3.88 Y-23.96 Z0.45 F1350.0
G1 X-3.4 Y-24.3 Z0.45 F1350.0
G1 X-3.03 Y-24.75 Z0.45 F1350.0
G1 X-2.78 Y-25.28 Z0.45 F1350.0
G1 X-2.67 Y-25.85 Z0.45 F1350.0
G1 X-2.71 Y-26.44 Z0.45 F1350.0
G1 X-2.89 Y-26.99 Z0.45 F1350.0
G1 X-3.2 Y-27.49 Z0.45 F1350.0
G1 X-3.63 Y-27.89 Z0.45 F1350.0
G1 X-4.14 Y-28.17 Z0.45 F1350.0
G1 X-4.71 Y-28.31 Z0.45 F1350.0
G1 X-5.29 Y-28.31 Z0.45 F1350.0
G1 X-5.86 Y-28.17 Z0.45 F1350.0
G1 X-6.37 Y-27.89 Z0.45 F1350.0
G1 X-6.8 Y-27.49 Z0.45 F1350.0
G1 X-7.11 Y-26.99 Z0.45 F1350.0
G1 X-7.29 Y-26.44 Z0.45 F1350.0
G1 X-7.33 Y-25.85 Z0.45 F1350.0
G1 X-7.22 Y-25.28 Z0.45 F1350.0
G1 X-6.97 Y-24.75 Z0.45 F1350.0
G1 X-6.6 Y-24.3 Z0.45 F1350.0
G1 X-6.54 Y-24.26 Z0.45 F1350.0
M108 R35.0
M102
G1 X-6.13 Y-23.96 Z0.45 F1350.0
G1 X-5.58 Y-23.74 Z0.45 F1350.0
G1 X-5.0 Y-23.67 Z0.45 F1350.0
M108 R1.179
M103
(</loop>)
(<loop> outer )
G1 X-6.03 Y-23.67 Z0.45 F1800.0
M108 R35.0
M101
G1 X-8.37 Y-23.67 Z0.45 F1800.0
M108 R1.179
G1 X-8.37 Y-30.37 Z0.45 F1350.0
G1 X8.37 Y-30.37 Z0.45 F1350.0
G1 X8.37 Y-16.13 Z0.45 F1350.0
G1 X-4.33 Y-16.13 Z0.45 F1350.0
G1 X-4.33 Y16.13 Z0.45 F1350.0
G1 X8.37 Y16.13 Z0.45 F1350.0
G1 X8.37 Y30.37 Z0.45 F1350.0
G1 X-8.37 Y30.37 Z0.45 F1350.0
G1 X-8.37 Y-21.98 Z0.45 F1350.0
M108 R35.0
M102
G1 X-8.37 Y-23.67 Z0.45 F1350.0
M108 R1.179
M103
(</loop>)
G1 X-7.58 Y22.02 Z0.45 F1800.0
M108 R35.0
M101
G1 X-7.54 Y24.36 Z0.45 F1800.0
M108 R1.179
G1 X-7.54 Y-24.36 Z0.45 F1350.0
G1 X-7.12 Y-23.85 Z0.45 F1350.0
G1 X-7.12 Y23.85 Z0.45 F1350.0
G1 X-6.7 Y23.52 Z0.45 F1350.0
G1 X-6.7 Y-23.52 Z0.45 F1350.0
M103
G1 X-6.28 Y-23.28 Z0.45 F1800.0
M101
G1 X-6.28 Y23.28 Z0.45 F1350.0
M103
G1 X-5.86 Y23.11 Z0.45 F1800.0
M101
G1 X-5.86 Y-23.11 Z0.45 F1350.0
M103
G1 X-5.45 Y-23.03 Z0.45 F1800.0
M101
G1 X-5.45 Y21.34 Z0.45 F1350.0
M108 R35.0
M102
G1 X-5.45 Y23.03 Z0.45 F1350.0
M108 R1.179
M103
G1 X-4.65 Y19.11 Z0.45 F1800.0
M108 R35.0
M101
G1 X-4.19 Y16.82 Z0.45 F1800.0
M108 R1.179
G1 X-4.19 Y23.09 Z0.45 F1350.0
M103
G1 X-3.77 Y23.25 Z0.45 F1800.0
M101
G1 X-3.77 Y16.82 Z0.45 F1350.0
M103
G1 X-3.35 Y16.82 Z0.45 F1800.0
M101
G1 X-3.35 Y23.48 Z0.45 F1350.0
G1 X-2.93 Y23.79 Z0.45 F1350.0
G1 X-2.93 Y16.82 Z0.45 F1350.0
M103
G1 X-2.51 Y16.82 Z0.45 F1800.0
M101
G1 X-2.51 Y24.29 Z0.45 F1350.0
M103
G1 X-2.09 Y25.19 Z0.45 F1800.0
M101
G1 X-2.09 Y16.82 Z0.45 F1350.0
M103
G1 X-1.68 Y16.82 Z0.45 F1800.0
M101
G1 X-1.68 Y29.68 Z0.45 F1350.0
G1 X-1.26 Y29.68 Z0.45 F1350.0
G1 X-1.26 Y16.82 Z0.45 F1350.0
M103
G1 X-0.84 Y16.82 Z0.45 F1800.0
M101
G1 X-0.84 Y29.68 Z0.45 F1350.0
G1 X-0.42 Y29.68 Z0.45 F1350.0
G1 X-0.42 Y16.82 Z0.45 F1350.0
M103
G1 X0.0 Y16.82 Z0.45 F1800.0
M101
G1 X0.0 Y29.68 Z0.45 F1350.0
G1 X0.42 Y29.68 Z0.45 F1350.0
G1 X0.42 Y16.82 Z0.45 F1350.0
M103
G1 X0.84 Y16.82 Z0.45 F1800.0
M101
G1 X0.84 Y29.68 Z0.45 F1350.0
G1 X1.26 Y29.68 Z0.45 F1350.0
G1 X1.26 Y16.82 Z0.45 F1350.0
M103
G1 X1.68 Y16.82 Z0.45 F1800.0
M101
G1 X1.68 Y29.68 Z0.45 F1350.0
G1 X2.09 Y29.68 Z0.45 F1350.0
G1 X2.09 Y16.82 Z0.45 F1350.0
M103
G1 X2.51 Y16.82 Z0.45 F1800.0
M101
G1 X2.51 Y29.68 Z0.45 F1350.0
G1 X2.93 Y29.68 Z0.45 F1350.0
G1 X2.93 Y16.82 Z0.45 F1350.0
M103
G1 X3.35 Y16.82 Z0.45 F1800.0
M101
G1 X3.35 Y29.68 Z0.45 F1350.0
G1 X3.77 Y29.68 Z0.45 F1350.0
G1 X3.77 Y16.82 Z0.45 F1350.0
M103
G1 X4.19 Y16.82 Z0.45 F1800.0
M101
G1 X4.19 Y29.68 Z0.45 F1350.0
G1 X4.61 Y29.68 Z0.45 F1350.0
G1 X4.61 Y16.82 Z0.45 F1350.0
M103
G1 X5.03 Y16.82 Z0.45 F1800.0
M101
G1 X5.03 Y29.68 Z0.45 F1350.0
G1 X5.45 Y29.68 Z0.45 F1350.0
G1 X5.45 Y16.82 Z0.45 F1350.0
M103
G1 X5.86 Y16.82 Z0.45 F1800.0
M101
G1 X5.86 Y29.68 Z0.45 F1350.0
G1 X6.28 Y29.68 Z0.45 F1350.0
G1 X6.28 Y16.82 Z0.45 F1350.0
M103
G1 X6.7 Y16.82 Z0.45 F1800.0
M101
G1 X6.7 Y29.68 Z0.45 F1350.0
G1 X7.12 Y29.68 Z0.45 F1350.0
G1 X7.12 Y16.82 Z0.45 F1350.0
M103
G1 X7.54 Y16.82 Z0.45 F1800.0
M101
G1 X7.54 Y27.99 Z0.45 F1350.0
M108 R35.0
M102
G1 X7.54 Y29.68 Z0.45 F1350.0
M108 R1.179
M103
G1 X0.25 Y29.68 Z0.45 F1800.0
M108 R35.0
M101
G1 X-2.09 Y29.68 Z0.45 F1800.0
M108 R1.179
G1 X-2.09 Y26.78 Z0.45 F1350.0
M103
G1 X-2.51 Y27.69 Z0.45 F1800.0
M101
G1 X-2.51 Y29.68 Z0.45 F1350.0
G1 X-2.93 Y29.68 Z0.45 F1350.0
G1 X-2.93 Y28.18 Z0.45 F1350.0
G1 X-3.35 Y28.52 Z0.45 F1350.0
G1 X-3.35 Y29.68 Z0.45 F1350.0
G1 X-3.77 Y29.68 Z0.45 F1350.0
G1 X-3.77 Y28.75 Z0.45 F1350.0
M103
G1 X-4.19 Y28.89 Z0.45 F1800.0
M101
G1 X-4.19 Y29.68 Z0.45 F1350.0
G1 X-4.61 Y29.68 Z0.45 F1350.0
G1 X-4.61 Y29.0 Z0.45 F1350.0
G1 X-5.03 Y29.68 Z0.45 F1350.0
G1 X-5.03 Y29.0 Z0.45 F1350.0
G1 X-5.45 Y29.68 Z0.45 F1350.0
G1 X-5.45 Y28.99 Z0.45 F1350.0
G1 X-5.86 Y28.88 Z0.45 F1350.0
G1 X-5.86 Y29.68 Z0.45 F1350.0
G1 X-6.28 Y29.68 Z0.45 F1350.0
G1 X-6.28 Y28.72 Z0.45 F1350.0
G1 X-6.7 Y28.49 Z0.45 F1350.0
G1 X-6.7 Y29.68 Z0.45 F1350.0
G1 X-7.12 Y29.68 Z0.45 F1350.0
G1 X-7.12 Y28.13 Z0.45 F1350.0
M103
G1 X-7.54 Y27.61 Z0.45 F1800.0
M101
G1 X-7.54 Y27.99 Z0.45 F1350.0
M108 R35.0
M102
G1 X-7.54 Y29.68 Z0.45 F1350.0
M108 R1.179
M103
G1 X-4.75 Y-14.48 Z0.45 F1800.0
M108 R35.0
M101
G1 X-4.61 Y-16.82 Z0.45 F1800.0
M108 R1.179
G1 X-4.61 Y-23.02 Z0.45 F1350.0
G1 X-5.03 Y-22.97 Z0.45 F1350.0
G1 X-5.03 Y22.97 Z0.45 F1350.0
G1 X-4.61 Y23.02 Z0.45 F1350.0
G1 X-4.61 Y18.51 Z0.45 F1350.0
M108 R35.0
M102
G1 X-4.61 Y16.82 Z0.45 F1350.0
M108 R1.179
M103
G1 X-4.21 Y-20.75 Z0.45 F1800.0
M108 R35.0
M101
G1 X-4.19 Y-23.09 Z0.45 F1800.0
M108 R1.179
G1 X-4.19 Y-16.82 Z0.45 F1350.0
M103
G1 X-3.77 Y-16.82 Z0.45 F1800.0
M101
G1 X-3.77 Y-21.57 Z0.45 F1350.0
M108 R35.0
M102
G1 X-3.77 Y-23.25 Z0.45 F1350.0
M108 R1.179
M103
M108 R35.0
M101
G1 X-2.51 Y-24.29 Z0.45 F1253.496
M108 R1.179
G1 X-2.51 Y-16.82 Z0.45 F1350.0
M103
G1 X-2.09 Y-16.82 Z0.45 F1800.0
M101
G1 X-2.09 Y-23.51 Z0.45 F1350.0
M108 R35.0
M102
G1 X-2.09 Y-25.19 Z0.45 F1350.0
M108 R1.179
M103
M108 R35.0
M101
G1 X-2.09 Y-26.78 Z0.45 F1223.077
M108 R1.179
G1 X-2.09 Y-29.68 Z0.45 F1350.0
G1 X-2.51 Y-29.68 Z0.45 F1350.0
G1 X-2.51 Y-27.69 Z0.45 F1350.0
G1 X-2.93 Y-28.18 Z0.45 F1350.0
G1 X-2.93 Y-29.68 Z0.45 F1350.0
G1 X-3.35 Y-29.68 Z0.45 F1350.0
G1 X-3.35 Y-28.52 Z0.45 F1350.0
M103
G1 X-3.77 Y-28.75 Z0.45 F1800.0
M101
G1 X-3.77 Y-29.68 Z0.45 F1350.0
G1 X-4.19 Y-29.68 Z0.45 F1350.0
G1 X-4.19 Y-28.89 Z0.45 F1350.0
G1 X-4.61 Y-29.68 Z0.45 F1350.0
G1 X-4.61 Y-29.0 Z0.45 F1350.0
G1 X-5.03 Y-29.68 Z0.45 F1350.0
G1 X-5.03 Y-29.0 Z0.45 F1350.0
G1 X-5.45 Y-29.68 Z0.45 F1350.0
G1 X-5.45 Y-28.99 Z0.45 F1350.0
G1 X-5.86 Y-28.88 Z0.45 F1350.0
G1 X-5.86 Y-29.68 Z0.45 F1350.0
G1 X-6.28 Y-29.68 Z0.45 F1350.0
G1 X-6.28 Y-28.72 Z0.45 F1350.0
G1 X-6.7 Y-28.49 Z0.45 F1350.0
G1 X-6.7 Y-29.68 Z0.45 F1350.0
G1 X-7.12 Y-29.68 Z0.45 F1350.0
G1 X-7.12 Y-28.13 Z0.45 F1350.0
M103
G1 X-7.54 Y-27.61 Z0.45 F1800.0
M101
G1 X-7.54 Y-27.99 Z0.45 F1350.0
M108 R35.0
M102
G1 X-7.54 Y-29.68 Z0.45 F1350.0
M108 R1.179
M103
G1 X-6.89 Y-25.39 Z0.45 F2400.0
G1 X-3.91 Y-18.94 Z0.45 F1800.0
M108 R35.0
M101
G1 X-2.93 Y-16.82 Z0.45 F1800.0
M108 R1.179
G1 X-2.93 Y-23.79 Z0.45 F1350.0
G1 X-3.35 Y-23.48 Z0.45 F1350.0
G1 X-3.35 Y-18.51 Z0.45 F1350.0
M108 R35.0
M102
G1 X-3.35 Y-16.82 Z0.45 F1350.0
M108 R1.179
M103
M108 R35.0
M101
G1 X-1.26 Y-16.82 Z0.45 F1610.769
M108 R1.179
G1 X-1.26 Y-29.68 Z0.45 F1350.0
G1 X-1.68 Y-29.68 Z0.45 F1350.0
G1 X-1.68 Y-18.51 Z0.45 F1350.0
M108 R35.0
M102
G1 X-1.68 Y-16.82 Z0.45 F1350.0
M108 R1.179
M103
M108 R35.0
M101
G1 X-0.42 Y-16.82 Z0.45 F966.923
M108 R1.179
G1 X-0.42 Y-29.68 Z0.45 F1350.0
G1 X-0.84 Y-29.68 Z0.45 F1350.0
G1 X-0.84 Y-18.51 Z0.45 F1350.0
M108 R35.0
M102
G1 X-0.84 Y-16.82 Z0.45 F1350.0
M108 R1.179
M103
M108 R35.0
M101
G1 X0.42 Y-16.82 Z0.45 F966.923
M108 R1.179
G1 X0.42 Y-29.68 Z0.45 F1350.0
G1 X-0.0 Y-29.68 Z0.45 F1350.0
G1 X0.0 Y-18.51 Z0.45 F1350.0
M108 R35.0
M102
G1 X-0.0 Y-16.82 Z0.45 F1350.0
M108 R1.179
M103
M108 R35.0
M101
G1 X1.26 Y-16.82 Z0.45 F966.923
M108 R1.179
G1 X1.26 Y-29.68 Z0.45 F1350.0
G1 X0.84 Y-29.68 Z0.45 F1350.0
G1 X0.84 Y-18.51 Z0.45 F1350.0
M108 R35.0
M102
G1 X0.84 Y-16.82 Z0.45 F1350.0
M108 R1.179
M103
M108 R35.0
M101
G1 X2.09 Y-16.82 Z0.45 F966.154
M108 R1.179
G1 X2.09 Y-29.68 Z0.45 F1350.0
G1 X1.68 Y-29.68 Z0.45 F1350.0
G1 X1.68 Y-18.51 Z0.45 F1350.0
M108 R35.0
M102
G1 X1.68 Y-16.82 Z0.45 F1350.0
M108 R1.179
M103
M108 R35.0
M101
G1 X2.93 Y-16.82 Z0.45 F966.154
M108 R1.179
G1 X2.93 Y-29.68 Z0.45 F1350.0
G1 X2.51 Y-29.68 Z0.45 F1350.0
G1 X2.51 Y-18.51 Z0.45 F1350.0
M108 R35.0
M102
G1 X2.51 Y-16.82 Z0.45 F1350.0
M108 R1.179
M103
M108 R35.0
M101
G1 X3.77 Y-16.82 Z0.45 F966.923
M108 R1.179
G1 X3.77 Y-29.68 Z0.45 F1350.0
G1 X3.35 Y-29.68 Z0.45 F1350.0
G1 X3.35 Y-18.51 Z0.45 F1350.0
M108 R35.0
M102
G1 X3.35 Y-16.82 Z0.45 F1350.0
M108 R1.179
M103
M108 R35.0
M101
G1 X4.61 Y-16.82 Z0.45 F966.923
M108 R1.179
G1 X4.61 Y-29.68 Z0.45 F1350.0
G1 X4.19 Y-29.68 Z0.45 F1350.0
G1 X4.19 Y-18.51 Z0.45 F1350.0
M108 R35.0
M102
G1 X4.19 Y-16.82 Z0.45 F1350.0
M108 R1.179
M103
M108 R35.0
M101
G1 X5.45 Y-16.82 Z0.45 F966.154
M108 R1.179
G1 X5.45 Y-29.68 Z0.45 F1350.0
G1 X5.03 Y-29.68 Z0.45 F1350.0
G1 X5.03 Y-18.51 Z0.45 F1350.0
M108 R35.0
M102
G1 X5.03 Y-16.82 Z0.45 F1350.0
M108 R1.179
M103
M108 R35.0
M101
G1 X6.28 Y-16.82 Z0.45 F966.154
M108 R1.179
G1 X6.28 Y-29.68 Z0.45 F1350.0
G1 X5.86 Y-29.68 Z0.45 F1350.0
G1 X5.86 Y-18.51 Z0.45 F1350.0
M108 R35.0
M102
G1 X5.86 Y-16.82 Z0.45 F1350.0
M108 R1.179
M103
M108 R35.0
M101
G1 X7.12 Y-16.82 Z0.45 F966.923
M108 R1.179
G1 X7.12 Y-29.68 Z0.45 F1350.0
G1 X6.7 Y-29.68 Z0.45 F1350.0
G1 X6.7 Y-18.51 Z0.45 F1350.0
M108 R35.0
M102
G1 X6.7 Y-16.82 Z0.45 F1350.0
M108 R1.179
M103
G1 X7.39 Y-27.34 Z0.45 F1800.0
M108 R35.0
M101
G1 X7.54 Y-29.68 Z0.45 F1800.0
M108 R1.179
G1 X7.54 Y-18.51 Z0.45 F1350.0
M108 R35.0
M102
G1 X7.54 Y-16.82 Z0.45 F1350.0
M108 R1.179
M103
(</surroundingLoop>)
(</layer>)
(<layer> 0.75 )
(<surroundingLoop>)
(<boundaryPerimeter>)
(<boundaryPoint> X9.0 Y-31.0 Z0.75 </boundaryPoint>)
(<boundaryPoint> X9.0 Y-15.5 Z0.75 </boundaryPoint>)
(<boundaryPoint> X-3.7 Y-15.5 Z0.75 </boundaryPoint>)
(<boundaryPoint> X-3.7 Y15.5 Z0.75 </boundaryPoint>)
(<boundaryPoint> X9.0 Y15.5 Z0.75 </boundaryPoint>)
(<boundaryPoint> X9.0 Y31.0 Z0.75 </boundaryPoint>)
(<boundaryPoint> X-9.0 Y31.0 Z0.75 </boundaryPoint>)
(<boundaryPoint> X-9.0 Y-31.0 Z0.75 </boundaryPoint>)
(<perimeter> outer )
M108 R35.0
M101
G1 X7.54 Y-15.71 Z0.75 F884.482
M108 R1.179
G1 X-3.91 Y-15.71 Z0.75 F1800.0
G1 X-3.91 Y15.71 Z0.75 F1800.0
G1 X8.79 Y15.71 Z0.75 F1800.0
G1 X8.79 Y30.79 Z0.75 F1800.0
G1 X-8.79 Y30.79 Z0.75 F1800.0
G1 X-8.79 Y-30.79 Z0.75 F1800.0
G1 X8.79 Y-30.79 Z0.75 F1800.0
G1 X8.79 Y-16.71 Z0.75 F1800.0
M108 R35.0
M102
G1 X8.79 Y-15.71 Z0.75 F1800.0
G1 X7.54 Y-15.71 Z0.75 F1800.0
M108 R1.179
M103
(</perimeter>)
(</boundaryPerimeter>)
(<surroundingLoop>)
(<boundaryPerimeter>)
(<boundaryPoint> X-5.626 Y-27.58 Z0.75 </boundaryPoint>)
(<boundaryPoint> X-5.998 Y-27.374 Z0.75 </boundaryPoint>)
(<boundaryPoint> X-6.309 Y-27.083 Z0.75 </boundaryPoint>)
(<boundaryPoint> X-6.537 Y-26.723 Z0.75 </boundaryPoint>)
(<boundaryPoint> X-6.669 Y-26.319 Z0.75 </boundaryPoint>)
(<boundaryPoint> X-6.696 Y-25.894 Z0.75 </boundaryPoint>)
(<boundaryPoint> X-6.616 Y-25.475 Z0.75 </boundaryPoint>)
(<boundaryPoint> X-6.435 Y-25.09 Z0.75 </boundaryPoint>)
(<boundaryPoint> X-6.163 Y-24.762 Z0.75 </boundaryPoint>)
(<boundaryPoint> X-5.819 Y-24.511 Z0.75 </boundaryPoint>)
(<boundaryPoint> X-5.422 Y-24.354 Z0.75 </boundaryPoint>)
(<boundaryPoint> X-5.0 Y-24.301 Z0.75 </boundaryPoint>)
(<boundaryPoint> X-4.578 Y-24.354 Z0.75 </boundaryPoint>)
(<boundaryPoint> X-4.181 Y-24.511 Z0.75 </boundaryPoint>)
(<boundaryPoint> X-3.837 Y-24.762 Z0.75 </boundaryPoint>)
(<boundaryPoint> X-3.565 Y-25.091 Z0.75 </boundaryPoint>)
(<boundaryPoint> X-3.384 Y-25.475 Z0.75 </boundaryPoint>)
(<boundaryPoint> X-3.304 Y-25.894 Z0.75 </boundaryPoint>)
(<boundaryPoint> X-3.331 Y-26.319 Z0.75 </boundaryPoint>)
(<boundaryPoint> X-3.463 Y-26.723 Z0.75 </boundaryPoint>)
(<boundaryPoint> X-3.691 Y-27.083 Z0.75 </boundaryPoint>)
(<boundaryPoint> X-4.002 Y-27.374 Z0.75 </boundaryPoint>)
(<boundaryPoint> X-4.374 Y-27.58 Z0.75 </boundaryPoint>)
(<boundaryPoint> X-4.785 Y-27.685 Z0.75 </boundaryPoint>)
(<boundaryPoint> X-5.215 Y-27.685 Z0.75 </boundaryPoint>)
(<perimeter> inner )
G1 X-1.01 Y-22.96 Z0.75 F2400.0
M108 R35.0
M101
G1 X-3.39 Y-24.98 Z0.75 F2400.0
M108 R1.179
G1 X-3.18 Y-25.41 Z0.75 F1800.0
G1 X-3.09 Y-25.88 Z0.75 F1800.0
G1 X-3.12 Y-26.36 Z0.75 F1800.0
G1 X-3.27 Y-26.81 Z0.75 F1800.0
G1 X-3.53 Y-27.22 Z0.75 F1800.0
G1 X-3.88 Y-27.55 Z0.75 F1800.0
G1 X-4.3 Y-27.78 Z0.75 F1800.0
G1 X-4.76 Y-27.89 Z0.75 F1800.0
G1 X-5.24 Y-27.89 Z0.75 F1800.0
G1 X-5.7 Y-27.78 Z0.75 F1800.0
G1 X-6.12 Y-27.55 Z0.75 F1800.0
G1 X-6.47 Y-27.22 Z0.75 F1800.0
G1 X-6.73 Y-26.81 Z0.75 F1800.0
G1 X-6.88 Y-26.36 Z0.75 F1800.0
G1 X-6.91 Y-25.88 Z0.75 F1800.0
G1 X-6.82 Y-25.41 Z0.75 F1800.0
G1 X-6.61 Y-24.98 Z0.75 F1800.0
G1 X-6.31 Y-24.61 Z0.75 F1800.0
G1 X-5.92 Y-24.33 Z0.75 F1800.0
G1 X-5.47 Y-24.15 Z0.75 F1800.0
G1 X-5.33 Y-24.13 Z0.75 F1800.0
M108 R35.0
M102
G1 X-5.0 Y-24.09 Z0.75 F1800.0
G1 X-4.53 Y-24.15 Z0.75 F1800.0
G1 X-4.08 Y-24.33 Z0.75 F1800.0
G1 X-3.69 Y-24.61 Z0.75 F1800.0
G1 X-3.39 Y-24.98 Z0.75 F1800.0
M108 R1.179
M103
(</perimeter>)
(</boundaryPerimeter>)
(</surroundingLoop>)
(<surroundingLoop>)
(<boundaryPerimeter>)
(<boundaryPoint> X-3.304 Y25.894 Z0.75 </boundaryPoint>)
(<boundaryPoint> X-3.384 Y25.475 Z0.75 </boundaryPoint>)
(<boundaryPoint> X-3.565 Y25.091 Z0.75 </boundaryPoint>)
(<boundaryPoint> X-3.837 Y24.762 Z0.75 </boundaryPoint>)
(<boundaryPoint> X-4.181 Y24.511 Z0.75 </boundaryPoint>)
(<boundaryPoint> X-4.578 Y24.354 Z0.75 </boundaryPoint>)
(<boundaryPoint> X-5.0 Y24.301 Z0.75 </boundaryPoint>)
(<boundaryPoint> X-5.422 Y24.354 Z0.75 </boundaryPoint>)
(<boundaryPoint> X-5.819 Y24.511 Z0.75 </boundaryPoint>)
(<boundaryPoint> X-6.163 Y24.762 Z0.75 </boundaryPoint>)
(<boundaryPoint> X-6.435 Y25.091 Z0.75 </boundaryPoint>)
(<boundaryPoint> X-6.616 Y25.475 Z0.75 </boundaryPoint>)
(<boundaryPoint> X-6.696 Y25.894 Z0.75 </boundaryPoint>)
(<boundaryPoint> X-6.669 Y26.319 Z0.75 </boundaryPoint>)
(<boundaryPoint> X-6.537 Y26.723 Z0.75 </boundaryPoint>)
(<boundaryPoint> X-6.309 Y27.083 Z0.75 </boundaryPoint>)
(<boundaryPoint> X-5.998 Y27.374 Z0.75 </boundaryPoint>)
(<boundaryPoint> X-5.626 Y27.58 Z0.75 </boundaryPoint>)
(<boundaryPoint> X-5.215 Y27.685 Z0.75 </boundaryPoint>)
(<boundaryPoint> X-4.785 Y27.685 Z0.75 </boundaryPoint>)
(<boundaryPoint> X-4.374 Y27.58 Z0.75 </boundaryPoint>)
(<boundaryPoint> X-4.002 Y27.374 Z0.75 </boundaryPoint>)
(<boundaryPoint> X-3.691 Y27.083 Z0.75 </boundaryPoint>)
(<boundaryPoint> X-3.463 Y26.723 Z0.75 </boundaryPoint>)
(<boundaryPoint> X-3.331 Y26.319 Z0.75 </boundaryPoint>)
(<perimeter> inner )
G1 X-3.7 Y-15.79 Z0.75 F2400.0
G1 X-3.85 Y-15.65 Z0.75 F2400.0
G1 X-3.99 Y-15.46 Z0.75 F2400.0
G1 X-4.92 Y20.97 Z0.75 F2400.0
M108 R35.0
M101
G1 X-5.0 Y24.09 Z0.75 F2400.0
M108 R1.179
G1 X-5.47 Y24.15 Z0.75 F1800.0
G1 X-5.92 Y24.33 Z0.75 F1800.0
G1 X-6.31 Y24.61 Z0.75 F1800.0
G1 X-6.61 Y24.98 Z0.75 F1800.0
G1 X-6.82 Y25.41 Z0.75 F1800.0
G1 X-6.91 Y25.88 Z0.75 F1800.0
G1 X-6.88 Y26.36 Z0.75 F1800.0
G1 X-6.73 Y26.81 Z0.75 F1800.0
G1 X-6.47 Y27.22 Z0.75 F1800.0
G1 X-6.12 Y27.55 Z0.75 F1800.0
G1 X-5.7 Y27.78 Z0.75 F1800.0
G1 X-5.24 Y27.89 Z0.75 F1800.0
G1 X-4.76 Y27.89 Z0.75 F1800.0
G1 X-4.3 Y27.78 Z0.75 F1800.0
G1 X-3.88 Y27.55 Z0.75 F1800.0
G1 X-3.53 Y27.22 Z0.75 F1800.0
G1 X-3.27 Y26.81 Z0.75 F1800.0
G1 X-3.12 Y26.36 Z0.75 F1800.0
G1 X-3.09 Y25.88 Z0.75 F1800.0
G1 X-3.18 Y25.41 Z0.75 F1800.0
G1 X-3.39 Y24.98 Z0.75 F1800.0
G1 X-3.69 Y24.61 Z0.75 F1800.0
G1 X-4.08 Y24.33 Z0.75 F1800.0
G1 X-4.53 Y24.15 Z0.75 F1800.0
G1 X-5.0 Y24.09 Z0.75 F1800.0
M103
(</perimeter>)
(</boundaryPerimeter>)
(</surroundingLoop>)
(<loop> inner )
G1 X-5.0 Y23.67 Z0.75 F2400.0
M101
G1 X-5.58 Y23.74 Z0.75 F1800.0
G1 X-6.13 Y23.96 Z0.75 F1800.0
G1 X-6.6 Y24.3 Z0.75 F1800.0
G1 X-6.97 Y24.75 Z0.75 F1800.0
G1 X-7.22 Y25.28 Z0.75 F1800.0
G1 X-7.33 Y25.85 Z0.75 F1800.0
G1 X-7.29 Y26.44 Z0.75 F1800.0
G1 X-7.11 Y26.99 Z0.75 F1800.0
G1 X-6.8 Y27.49 Z0.75 F1800.0
G1 X-6.37 Y27.89 Z0.75 F1800.0
G1 X-5.86 Y28.17 Z0.75 F1800.0
G1 X-5.29 Y28.31 Z0.75 F1800.0
G1 X-4.71 Y28.31 Z0.75 F1800.0
G1 X-4.14 Y28.17 Z0.75 F1800.0
G1 X-3.63 Y27.89 Z0.75 F1800.0
G1 X-3.2 Y27.49 Z0.75 F1800.0
G1 X-2.89 Y26.99 Z0.75 F1800.0
G1 X-2.71 Y26.44 Z0.75 F1800.0
G1 X-2.67 Y25.85 Z0.75 F1800.0
G1 X-2.78 Y25.28 Z0.75 F1800.0
G1 X-3.03 Y24.75 Z0.75 F1800.0
G1 X-3.4 Y24.3 Z0.75 F1800.0
G1 X-3.88 Y23.96 Z0.75 F1800.0
G1 X-4.42 Y23.74 Z0.75 F1800.0
G1 X-5.0 Y23.67 Z0.75 F1800.0
M103
(</loop>)
(<loop> outer )
G1 X-5.0 Y23.25 Z0.75 F2400.0
M101
G1 X-5.68 Y23.33 Z0.75 F1800.0
G1 X-6.33 Y23.59 Z0.75 F1800.0
G1 X-6.89 Y23.99 Z0.75 F1800.0
G1 X-7.33 Y24.52 Z0.75 F1800.0
G1 X-7.47 Y24.82 Z0.75 F1800.0
G1 X-7.95 Y24.76 Z0.75 F1800.0
G1 X-7.95 Y-24.76 Z0.75 F1800.0
G1 X-7.47 Y-24.82 Z0.75 F1800.0
G1 X-7.33 Y-24.52 Z0.75 F1800.0
G1 X-6.89 Y-23.99 Z0.75 F1800.0
G1 X-6.33 Y-23.59 Z0.75 F1800.0
G1 X-5.68 Y-23.33 Z0.75 F1800.0
G1 X-5.0 Y-23.25 Z0.75 F1800.0
G1 X-4.32 Y-23.33 Z0.75 F1800.0
G1 X-3.67 Y-23.59 Z0.75 F1800.0
G1 X-3.11 Y-23.99 Z0.75 F1800.0
G1 X-2.67 Y-24.52 Z0.75 F1800.0
G1 X-2.38 Y-25.15 Z0.75 F1800.0
G1 X-2.25 Y-25.83 Z0.75 F1800.0
G1 X-2.29 Y-26.52 Z0.75 F1800.0
G1 X-2.51 Y-27.17 Z0.75 F1800.0
G1 X-2.88 Y-27.76 Z0.75 F1800.0
G1 X-3.38 Y-28.23 Z0.75 F1800.0
G1 X-3.98 Y-28.56 Z0.75 F1800.0
G1 X-4.65 Y-28.73 Z0.75 F1800.0
G1 X-5.35 Y-28.73 Z0.75 F1800.0
G1 X-6.02 Y-28.56 Z0.75 F1800.0
G1 X-6.62 Y-28.23 Z0.75 F1800.0
G1 X-7.12 Y-27.76 Z0.75 F1800.0
G1 X-7.49 Y-27.17 Z0.75 F1800.0
G1 X-7.62 Y-26.79 Z0.75 F1800.0
G1 X-8.05 Y-26.58 Z0.75 F1800.0
G1 X-7.95 Y-27.22 Z0.75 F1800.0
G1 X-7.95 Y-29.95 Z0.75 F1800.0
G1 X7.95 Y-29.95 Z0.75 F1800.0
G1 X7.95 Y-16.55 Z0.75 F1800.0
G1 X-4.75 Y-16.55 Z0.75 F1800.0
G1 X-4.75 Y16.55 Z0.75 F1800.0
G1 X7.95 Y16.55 Z0.75 F1800.0
G1 X7.95 Y29.95 Z0.75 F1800.0
G1 X-7.95 Y29.95 Z0.75 F1800.0
G1 X-7.95 Y27.22 Z0.75 F1800.0
G1 X-8.05 Y26.58 Z0.75 F1800.0
G1 X-7.62 Y26.79 Z0.75 F1800.0
G1 X-7.49 Y27.17 Z0.75 F1800.0
G1 X-7.12 Y27.76 Z0.75 F1800.0
G1 X-6.62 Y28.23 Z0.75 F1800.0
G1 X-6.02 Y28.56 Z0.75 F1800.0
G1 X-5.35 Y28.73 Z0.75 F1800.0
G1 X-4.65 Y28.73 Z0.75 F1800.0
G1 X-3.98 Y28.56 Z0.75 F1800.0
G1 X-3.38 Y28.23 Z0.75 F1800.0
G1 X-2.88 Y27.76 Z0.75 F1800.0
G1 X-2.51 Y27.17 Z0.75 F1800.0
G1 X-2.29 Y26.52 Z0.75 F1800.0
G1 X-2.25 Y25.83 Z0.75 F1800.0
G1 X-2.38 Y25.15 Z0.75 F1800.0
G1 X-2.67 Y24.52 Z0.75 F1800.0
G1 X-3.0 Y24.13 Z0.75 F1800.0
M108 R35.0
M102
G1 X-3.11 Y23.99 Z0.75 F1800.0
G1 X-3.67 Y23.59 Z0.75 F1800.0
G1 X-4.32 Y23.33 Z0.75 F1800.0
G1 X-5.0 Y23.25 Z0.75 F1800.0
M108 R1.179
M103
(</loop>)
(<loop> inner )
G1 X-5.0 Y-20.55 Z0.75 F2400.0
M108 R35.0
M101
G1 X-5.0 Y-23.67 Z0.75 F2400.0
M108 R1.179
G1 X-4.42 Y-23.74 Z0.75 F1800.0
G1 X-3.88 Y-23.96 Z0.75 F1800.0
G1 X-3.4 Y-24.3 Z0.75 F1800.0
G1 X-3.03 Y-24.75 Z0.75 F1800.0
G1 X-2.78 Y-25.28 Z0.75 F1800.0
G1 X-2.67 Y-25.85 Z0.75 F1800.0
G1 X-2.71 Y-26.44 Z0.75 F1800.0
G1 X-2.89 Y-26.99 Z0.75 F1800.0
G1 X-3.2 Y-27.49 Z0.75 F1800.0
G1 X-3.63 Y-27.89 Z0.75 F1800.0
G1 X-4.14 Y-28.17 Z0.75 F1800.0
G1 X-4.71 Y-28.31 Z0.75 F1800.0
G1 X-5.29 Y-28.31 Z0.75 F1800.0
G1 X-5.86 Y-28.17 Z0.75 F1800.0
G1 X-6.37 Y-27.89 Z0.75 F1800.0
G1 X-6.8 Y-27.49 Z0.75 F1800.0
G1 X-7.11 Y-26.99 Z0.75 F1800.0
G1 X-7.29 Y-26.44 Z0.75 F1800.0
G1 X-7.33 Y-25.85 Z0.75 F1800.0
G1 X-7.22 Y-25.28 Z0.75 F1800.0
G1 X-6.97 Y-24.75 Z0.75 F1800.0
G1 X-6.91 Y-24.68 Z0.75 F1800.0
M108 R35.0
M102
G1 X-6.6 Y-24.3 Z0.75 F1800.0
G1 X-6.13 Y-23.96 Z0.75 F1800.0
G1 X-5.58 Y-23.74 Z0.75 F1800.0
G1 X-5.0 Y-23.67 Z0.75 F1800.0
M108 R1.179
M103
(</loop>)
(<loop> outer )
G1 X-5.25 Y-23.67 Z0.75 F2400.0
M108 R35.0
M101
G1 X-8.37 Y-23.67 Z0.75 F2400.0
M108 R1.179
G1 X-8.37 Y-30.37 Z0.75 F1800.0
G1 X8.37 Y-30.37 Z0.75 F1800.0
G1 X8.37 Y-16.13 Z0.75 F1800.0
G1 X-4.33 Y-16.13 Z0.75 F1800.0
G1 X-4.33 Y16.13 Z0.75 F1800.0
G1 X8.37 Y16.13 Z0.75 F1800.0
G1 X8.37 Y30.37 Z0.75 F1800.0
G1 X-8.37 Y30.37 Z0.75 F1800.0
G1 X-8.37 Y-23.67 Z0.75 F1800.0
M103
(</loop>)
G1 X-7.68 Y-24.3 Z0.75 F2400.0
M101
G1 X-7.49 Y-24.3 Z0.75 F1800.0
G1 X-7.68 Y-23.88 Z0.75 F1800.0
G1 X-7.14 Y-23.88 Z0.75 F1800.0
G1 X-6.61 Y-23.46 Z0.75 F1800.0
G1 X-7.68 Y-23.46 Z0.75 F1800.0
M103
G1 X-7.68 Y-23.04 Z0.75 F2400.0
M101
M108 R35.0
M102
G1 X-5.54 Y-23.04 Z0.75 F1715.2
M108 R1.179
M103
M108 R35.0
M101
G1 X-4.46 Y-23.04 Z0.75 F824.615
M108 R1.179
G1 X7.68 Y-23.04 Z0.75 F1800.0
M103
G1 X7.68 Y-23.46 Z0.75 F2400.0
M101
G1 X-3.39 Y-23.46 Z0.75 F1800.0
M103
G1 X-2.86 Y-23.88 Z0.75 F2400.0
M101
G1 X7.68 Y-23.88 Z0.75 F1800.0
M103
G1 X7.68 Y-24.3 Z0.75 F2400.0
M101
G1 X-2.51 Y-24.3 Z0.75 F1800.0
G1 X-2.28 Y-24.71 Z0.75 F1800.0
G1 X7.68 Y-24.71 Z0.75 F1800.0
M103
G1 X7.68 Y-25.13 Z0.75 F2400.0
M101
G1 X-2.11 Y-25.13 Z0.75 F1800.0
G1 X-2.03 Y-25.55 Z0.75 F1800.0
G1 X7.68 Y-25.55 Z0.75 F1800.0
M103
G1 X7.68 Y-25.97 Z0.75 F2400.0
M101
G1 X0.26 Y-25.97 Z0.75 F1800.0
M108 R35.0
M102
G1 X-1.99 Y-25.97 Z0.75 F1800.0
M108 R1.179
M103
M108 R35.0
M101
G1 X-2.24 Y-27.23 Z0.75 F986.163
M108 R1.179
G1 X7.68 Y-27.23 Z0.75 F1800.0
M103
G1 X7.68 Y-26.39 Z0.75 F2400.0
M101
G1 X-2.01 Y-26.39 Z0.75 F1800.0
G1 X-2.1 Y-26.81 Z0.75 F1800.0
G1 X7.68 Y-26.81 Z0.75 F1800.0
M103
G1 X7.68 Y-27.65 Z0.75 F2400.0
M101
G1 X-2.49 Y-27.65 Z0.75 F1800.0
G1 X-2.81 Y-28.07 Z0.75 F1800.0
G1 X7.68 Y-28.07 Z0.75 F1800.0
M103
G1 X7.68 Y-28.48 Z0.75 F2400.0
M101
G1 X-1.03 Y-28.48 Z0.75 F1800.0
M108 R35.0
M102
G1 X-3.28 Y-28.48 Z0.75 F1800.0
M108 R1.179
M103
M108 R35.0
M101
G1 X-4.22 Y-28.9 Z0.75 F790.253
M108 R1.179
G1 X7.68 Y-28.9 Z0.75 F1800.0
M103
G1 X7.68 Y-29.32 Z0.75 F2400.0
M101
G1 X-7.68 Y-29.32 Z0.75 F1800.0
M103
G1 X-7.68 Y-28.9 Z0.75 F2400.0
M101
M108 R35.0
M102
G1 X-5.78 Y-28.9 Z0.75 F1520.0
M108 R1.179
M103
M108 R35.0
M101
G1 X-6.72 Y-28.48 Z0.75 F790.253
M108 R1.179
G1 X-7.18 Y-28.48 Z0.75 F1800.0
M108 R35.0
M102
G1 X-7.68 Y-28.48 Z0.75 F1800.0
G1 X-7.19 Y-28.07 Z0.75 F1800.0
G1 X-7.68 Y-28.07 Z0.75 F1800.0
G1 X-7.51 Y-27.65 Z0.75 F1800.0
G1 X-7.68 Y-27.65 Z0.75 F1800.0
M108 R1.179
M103
G1 X-4.75 Y-27.97 Z0.75 F2400.0
G1 X4.82 Y-23.85 Z0.75 F2400.0
M108 R35.0
M101
G1 X7.68 Y-22.62 Z0.75 F2400.0
M108 R1.179
G1 X-7.68 Y-22.62 Z0.75 F1800.0
M103
G1 X-7.68 Y-22.2 Z0.75 F2400.0
M101
G1 X7.68 Y-22.2 Z0.75 F1800.0
M103
G1 X7.68 Y-21.78 Z0.75 F2400.0
M101
G1 X-7.68 Y-21.78 Z0.75 F1800.0
M103
G1 X-7.68 Y-21.36 Z0.75 F2400.0
M101
G1 X7.68 Y-21.36 Z0.75 F1800.0
M103
G1 X7.68 Y-20.94 Z0.75 F2400.0
M101
G1 X-7.68 Y-20.94 Z0.75 F1800.0
M103
G1 X-7.68 Y-20.52 Z0.75 F2400.0
M101
G1 X7.68 Y-20.52 Z0.75 F1800.0
M103
G1 X7.68 Y-20.11 Z0.75 F2400.0
M101
G1 X-7.68 Y-20.11 Z0.75 F1800.0
M103
G1 X-7.68 Y-19.69 Z0.75 F2400.0
M101
G1 X7.68 Y-19.69 Z0.75 F1800.0
M103
G1 X7.68 Y-19.27 Z0.75 F2400.0
M101
G1 X-7.68 Y-19.27 Z0.75 F1800.0
M103
G1 X-7.68 Y-18.85 Z0.75 F2400.0
M101
G1 X7.68 Y-18.85 Z0.75 F1800.0
M103
G1 X7.68 Y-18.43 Z0.75 F2400.0
M101
G1 X-7.68 Y-18.43 Z0.75 F1800.0
M103
G1 X-7.68 Y-18.01 Z0.75 F2400.0
M101
G1 X7.68 Y-18.01 Z0.75 F1800.0
M103
G1 X7.68 Y-17.59 Z0.75 F2400.0
M101
G1 X-7.68 Y-17.59 Z0.75 F1800.0
M103
G1 X-7.68 Y-17.17 Z0.75 F2400.0
M101
G1 X5.43 Y-17.17 Z0.75 F1800.0
M108 R35.0
M102
G1 X7.68 Y-17.17 Z0.75 F1800.0
M108 R1.179
M103
G1 X-1.9 Y-16.86 Z0.75 F2400.0
M108 R35.0
M101
G1 X-5.02 Y-16.75 Z0.75 F2400.0
M108 R1.179
G1 X-7.68 Y-16.75 Z0.75 F1800.0
M103
G1 X-7.68 Y-16.34 Z0.75 F2400.0
M101
G1 X-5.02 Y-16.34 Z0.75 F1800.0
M103
G1 X-5.02 Y-15.92 Z0.75 F2400.0
M101
G1 X-7.68 Y-15.92 Z0.75 F1800.0
M103
G1 X-7.68 Y-15.5 Z0.75 F2400.0
M101
G1 X-5.02 Y-15.5 Z0.75 F1800.0
M103
G1 X-5.02 Y-15.08 Z0.75 F2400.0
M101
G1 X-7.68 Y-15.08 Z0.75 F1800.0
M103
G1 X-7.68 Y-14.66 Z0.75 F2400.0
M101
G1 X-5.02 Y-14.66 Z0.75 F1800.0
M103
G1 X-5.02 Y-14.24 Z0.75 F2400.0
M101
G1 X-7.68 Y-14.24 Z0.75 F1800.0
M103
G1 X-7.68 Y-13.82 Z0.75 F2400.0
M101
G1 X-5.02 Y-13.82 Z0.75 F1800.0
M103
G1 X-5.02 Y-13.4 Z0.75 F2400.0
M101
G1 X-7.68 Y-13.4 Z0.75 F1800.0
M103
G1 X-7.68 Y-12.98 Z0.75 F2400.0
M101
G1 X-5.02 Y-12.98 Z0.75 F1800.0
M103
G1 X-5.02 Y-12.57 Z0.75 F2400.0
M101
G1 X-7.68 Y-12.57 Z0.75 F1800.0
M103
G1 X-7.68 Y-12.15 Z0.75 F2400.0
M101
G1 X-5.02 Y-12.15 Z0.75 F1800.0
M103
G1 X-5.02 Y-11.73 Z0.75 F2400.0
M101
G1 X-7.68 Y-11.73 Z0.75 F1800.0
M103
G1 X-7.68 Y-11.31 Z0.75 F2400.0
M101
G1 X-5.02 Y-11.31 Z0.75 F1800.0
M103
G1 X-5.02 Y-10.89 Z0.75 F2400.0
M101
G1 X-7.68 Y-10.89 Z0.75 F1800.0
M103
G1 X-7.68 Y-10.47 Z0.75 F2400.0
M101
G1 X-5.02 Y-10.47 Z0.75 F1800.0
M103
G1 X-5.02 Y-10.05 Z0.75 F2400.0
M101
G1 X-7.68 Y-10.05 Z0.75 F1800.0
M103
G1 X-7.68 Y-9.63 Z0.75 F2400.0
M101
G1 X-5.02 Y-9.63 Z0.75 F1800.0
M103
G1 X-5.02 Y-9.21 Z0.75 F2400.0
M101
G1 X-7.68 Y-9.21 Z0.75 F1800.0
M103
G1 X-7.68 Y-8.8 Z0.75 F2400.0
M101
G1 X-5.02 Y-8.8 Z0.75 F1800.0
M103
G1 X-5.02 Y-8.38 Z0.75 F2400.0
M101
G1 X-7.68 Y-8.38 Z0.75 F1800.0
M103
G1 X-7.68 Y-7.96 Z0.75 F2400.0
M101
G1 X-5.02 Y-7.96 Z0.75 F1800.0
M103
G1 X-5.02 Y-7.54 Z0.75 F2400.0
M101
G1 X-7.68 Y-7.54 Z0.75 F1800.0
M103
G1 X-7.68 Y-7.12 Z0.75 F2400.0
M101
G1 X-5.02 Y-7.12 Z0.75 F1800.0
M103
G1 X-5.02 Y-6.7 Z0.75 F2400.0
M101
G1 X-7.68 Y-6.7 Z0.75 F1800.0
M103
G1 X-7.68 Y-6.28 Z0.75 F2400.0
M101
G1 X-5.02 Y-6.28 Z0.75 F1800.0
M103
G1 X-5.02 Y-5.86 Z0.75 F2400.0
M101
G1 X-7.68 Y-5.86 Z0.75 F1800.0
M103
G1 X-7.68 Y-5.45 Z0.75 F2400.0
M101
G1 X-5.02 Y-5.45 Z0.75 F1800.0
M103
G1 X-5.02 Y-5.03 Z0.75 F2400.0
M101
G1 X-7.68 Y-5.03 Z0.75 F1800.0
M103
G1 X-7.68 Y-4.61 Z0.75 F2400.0
M101
G1 X-5.02 Y-4.61 Z0.75 F1800.0
M103
G1 X-5.02 Y-4.19 Z0.75 F2400.0
M101
G1 X-7.68 Y-4.19 Z0.75 F1800.0
M103
G1 X-7.68 Y-3.77 Z0.75 F2400.0
M101
G1 X-5.02 Y-3.77 Z0.75 F1800.0
M103
G1 X-5.02 Y-3.35 Z0.75 F2400.0
M101
G1 X-7.68 Y-3.35 Z0.75 F1800.0
M103
G1 X-7.68 Y-2.93 Z0.75 F2400.0
M101
G1 X-5.02 Y-2.93 Z0.75 F1800.0
M103
G1 X-5.02 Y-2.51 Z0.75 F2400.0
M101
G1 X-7.68 Y-2.51 Z0.75 F1800.0
M103
G1 X-7.68 Y-2.09 Z0.75 F2400.0
M101
G1 X-5.02 Y-2.09 Z0.75 F1800.0
M103
G1 X-5.02 Y-1.68 Z0.75 F2400.0
M101
G1 X-7.68 Y-1.68 Z0.75 F1800.0
M103
G1 X-7.68 Y-1.26 Z0.75 F2400.0
M101
G1 X-5.02 Y-1.26 Z0.75 F1800.0
M103
G1 X-5.02 Y-0.84 Z0.75 F2400.0
M101
G1 X-7.68 Y-0.84 Z0.75 F1800.0
M103
G1 X-7.68 Y-0.42 Z0.75 F2400.0
M101
G1 X-5.02 Y-0.42 Z0.75 F1800.0
M103
G1 X-5.02 Y0.0 Z0.75 F2400.0
M101
G1 X-7.68 Y0.0 Z0.75 F1800.0
M103
G1 X-7.68 Y0.42 Z0.75 F2400.0
M101
G1 X-5.02 Y0.42 Z0.75 F1800.0
M103
G1 X-5.02 Y0.84 Z0.75 F2400.0
M101
G1 X-7.68 Y0.84 Z0.75 F1800.0
M103
G1 X-7.68 Y1.26 Z0.75 F2400.0
M101
G1 X-5.02 Y1.26 Z0.75 F1800.0
M103
G1 X-5.02 Y1.68 Z0.75 F2400.0
M101
G1 X-7.68 Y1.68 Z0.75 F1800.0
M103
G1 X-7.68 Y2.09 Z0.75 F2400.0
M101
G1 X-5.02 Y2.09 Z0.75 F1800.0
M103
G1 X-5.02 Y2.51 Z0.75 F2400.0
M101
G1 X-7.68 Y2.51 Z0.75 F1800.0
M103
G1 X-7.68 Y2.93 Z0.75 F2400.0
M101
G1 X-5.02 Y2.93 Z0.75 F1800.0
M103
G1 X-5.02 Y3.35 Z0.75 F2400.0
M101
G1 X-7.68 Y3.35 Z0.75 F1800.0
M103
G1 X-7.68 Y3.77 Z0.75 F2400.0
M101
G1 X-5.02 Y3.77 Z0.75 F1800.0
M103
G1 X-5.02 Y4.19 Z0.75 F2400.0
M101
G1 X-7.68 Y4.19 Z0.75 F1800.0
M103
G1 X-7.68 Y4.61 Z0.75 F2400.0
M101
G1 X-5.02 Y4.61 Z0.75 F1800.0
M103
G1 X-5.02 Y5.03 Z0.75 F2400.0
M101
G1 X-7.68 Y5.03 Z0.75 F1800.0
M103
G1 X-7.68 Y5.45 Z0.75 F2400.0
M101
G1 X-5.02 Y5.45 Z0.75 F1800.0
M103
G1 X-5.02 Y5.86 Z0.75 F2400.0
M101
G1 X-7.68 Y5.86 Z0.75 F1800.0
M103
G1 X-7.68 Y6.28 Z0.75 F2400.0
M101
G1 X-5.02 Y6.28 Z0.75 F1800.0
M103
G1 X-5.02 Y6.7 Z0.75 F2400.0
M101
G1 X-7.68 Y6.7 Z0.75 F1800.0
M103
G1 X-7.68 Y7.12 Z0.75 F2400.0
M101
G1 X-5.02 Y7.12 Z0.75 F1800.0
M103
G1 X-5.02 Y7.54 Z0.75 F2400.0
M101
G1 X-7.68 Y7.54 Z0.75 F1800.0
M103
G1 X-7.68 Y7.96 Z0.75 F2400.0
M101
G1 X-5.02 Y7.96 Z0.75 F1800.0
M103
G1 X-5.02 Y8.38 Z0.75 F2400.0
M101
G1 X-7.68 Y8.38 Z0.75 F1800.0
M103
G1 X-7.68 Y8.8 Z0.75 F2400.0
M101
G1 X-5.02 Y8.8 Z0.75 F1800.0
M103
G1 X-5.02 Y9.21 Z0.75 F2400.0
M101
G1 X-7.68 Y9.21 Z0.75 F1800.0
M103
G1 X-7.68 Y9.63 Z0.75 F2400.0
M101
G1 X-5.02 Y9.63 Z0.75 F1800.0
M103
G1 X-5.02 Y10.05 Z0.75 F2400.0
M101
G1 X-7.68 Y10.05 Z0.75 F1800.0
M103
G1 X-7.68 Y10.47 Z0.75 F2400.0
M101
G1 X-5.02 Y10.47 Z0.75 F1800.0
M103
G1 X-5.02 Y10.89 Z0.75 F2400.0
M101
G1 X-7.68 Y10.89 Z0.75 F1800.0
M103
G1 X-7.68 Y11.31 Z0.75 F2400.0
M101
G1 X-5.02 Y11.31 Z0.75 F1800.0
M103
G1 X-5.02 Y11.73 Z0.75 F2400.0
M101
G1 X-7.68 Y11.73 Z0.75 F1800.0
M103
G1 X-7.68 Y12.15 Z0.75 F2400.0
M101
G1 X-5.02 Y12.15 Z0.75 F1800.0
M103
G1 X-5.02 Y12.57 Z0.75 F2400.0
M101
G1 X-7.68 Y12.57 Z0.75 F1800.0
M103
G1 X-7.68 Y12.98 Z0.75 F2400.0
M101
G1 X-5.02 Y12.98 Z0.75 F1800.0
M103
G1 X-5.02 Y13.4 Z0.75 F2400.0
M101
G1 X-7.68 Y13.4 Z0.75 F1800.0
M103
G1 X-7.68 Y13.82 Z0.75 F2400.0
M101
G1 X-5.02 Y13.82 Z0.75 F1800.0
M103
G1 X-5.02 Y14.24 Z0.75 F2400.0
M101
G1 X-7.68 Y14.24 Z0.75 F1800.0
M103
G1 X-7.68 Y14.66 Z0.75 F2400.0
M101
G1 X-5.02 Y14.66 Z0.75 F1800.0
M103
G1 X-5.02 Y15.08 Z0.75 F2400.0
M101
G1 X-7.68 Y15.08 Z0.75 F1800.0
M103
G1 X-7.68 Y15.5 Z0.75 F2400.0
M101
G1 X-5.02 Y15.5 Z0.75 F1800.0
M103
G1 X-5.02 Y15.92 Z0.75 F2400.0
M101
G1 X-7.68 Y15.92 Z0.75 F1800.0
M103
G1 X-7.68 Y16.34 Z0.75 F2400.0
M101
G1 X-5.02 Y16.34 Z0.75 F1800.0
M103
G1 X-5.02 Y16.75 Z0.75 F2400.0
M101
G1 X-7.68 Y16.75 Z0.75 F1800.0
M103
G1 X-7.68 Y17.17 Z0.75 F2400.0
M101
G1 X7.68 Y17.17 Z0.75 F1800.0
M103
G1 X7.68 Y17.59 Z0.75 F2400.0
M101
G1 X-7.68 Y17.59 Z0.75 F1800.0
M103
G1 X-7.68 Y18.01 Z0.75 F2400.0
M101
G1 X7.68 Y18.01 Z0.75 F1800.0
M103
G1 X7.68 Y18.43 Z0.75 F2400.0
M101
G1 X-7.68 Y18.43 Z0.75 F1800.0
M103
G1 X-7.68 Y18.85 Z0.75 F2400.0
M101
G1 X7.68 Y18.85 Z0.75 F1800.0
M103
G1 X7.68 Y19.27 Z0.75 F2400.0
M101
G1 X-7.68 Y19.27 Z0.75 F1800.0
M103
G1 X-7.68 Y19.69 Z0.75 F2400.0
M101
G1 X7.68 Y19.69 Z0.75 F1800.0
M103
G1 X7.68 Y20.11 Z0.75 F2400.0
M101
G1 X-7.68 Y20.11 Z0.75 F1800.0
M103
G1 X-7.68 Y20.52 Z0.75 F2400.0
M101
G1 X7.68 Y20.52 Z0.75 F1800.0
M103
G1 X7.68 Y20.94 Z0.75 F2400.0
M101
G1 X-7.68 Y20.94 Z0.75 F1800.0
M103
G1 X-7.68 Y21.36 Z0.75 F2400.0
M101
G1 X7.68 Y21.36 Z0.75 F1800.0
M103
G1 X7.68 Y21.78 Z0.75 F2400.0
M101
G1 X-7.68 Y21.78 Z0.75 F1800.0
M103
G1 X-7.68 Y22.2 Z0.75 F2400.0
M101
G1 X7.68 Y22.2 Z0.75 F1800.0
M103
G1 X7.68 Y22.62 Z0.75 F2400.0
M101
G1 X-7.68 Y22.62 Z0.75 F1800.0
M103
G1 X-7.68 Y23.04 Z0.75 F2400.0
M101
G1 X7.68 Y23.04 Z0.75 F1800.0
M103
G1 X7.68 Y23.46 Z0.75 F2400.0
M101
G1 X-3.39 Y23.46 Z0.75 F1800.0
M103
G1 X-2.86 Y23.88 Z0.75 F2400.0
M101
G1 X7.68 Y23.88 Z0.75 F1800.0
M103
G1 X7.68 Y24.3 Z0.75 F2400.0
M101
G1 X-2.51 Y24.3 Z0.75 F1800.0
G1 X-2.28 Y24.71 Z0.75 F1800.0
G1 X7.68 Y24.71 Z0.75 F1800.0
M103
G1 X7.68 Y25.13 Z0.75 F2400.0
M101
G1 X-2.11 Y25.13 Z0.75 F1800.0
G1 X-2.03 Y25.55 Z0.75 F1800.0
G1 X7.68 Y25.55 Z0.75 F1800.0
M103
G1 X7.68 Y25.97 Z0.75 F2400.0
M101
G1 X0.26 Y25.97 Z0.75 F1800.0
M108 R35.0
M102
G1 X-1.99 Y25.97 Z0.75 F1800.0
M108 R1.179
M103
M108 R35.0
M101
G1 X-2.24 Y27.23 Z0.75 F986.163
M108 R1.179
G1 X7.68 Y27.23 Z0.75 F1800.0
M103
G1 X7.68 Y27.65 Z0.75 F2400.0
M101
G1 X-2.49 Y27.65 Z0.75 F1800.0
G1 X-2.81 Y28.07 Z0.75 F1800.0
G1 X7.68 Y28.07 Z0.75 F1800.0
M103
G1 X7.68 Y28.48 Z0.75 F2400.0
M101
G1 X-1.03 Y28.48 Z0.75 F1800.0
M108 R35.0
M102
G1 X-3.28 Y28.48 Z0.75 F1800.0
M108 R1.179
M103
M108 R35.0
M101
G1 X-4.22 Y28.9 Z0.75 F790.253
M108 R1.179
G1 X7.68 Y28.9 Z0.75 F1800.0
M103
G1 X7.68 Y29.32 Z0.75 F2400.0
M101
G1 X-7.68 Y29.32 Z0.75 F1800.0
M103
G1 X-7.68 Y28.9 Z0.75 F2400.0
M101
M108 R35.0
M102
G1 X-5.78 Y28.9 Z0.75 F1520.0
M108 R1.179
M103
M108 R35.0
M101
G1 X-6.72 Y28.48 Z0.75 F790.253
M108 R1.179
G1 X-7.18 Y28.48 Z0.75 F1800.0
M108 R35.0
M102
G1 X-7.68 Y28.48 Z0.75 F1800.0
G1 X-7.19 Y28.07 Z0.75 F1800.0
G1 X-7.68 Y28.07 Z0.75 F1800.0
G1 X-7.51 Y27.65 Z0.75 F1800.0
G1 X-7.68 Y27.65 Z0.75 F1800.0
M108 R1.179
M103
G1 X-7.68 Y27.41 Z0.75 F2400.0
M108 R35.0
M101
G1 X-7.68 Y24.3 Z0.75 F2400.0
M108 R1.179
G1 X-7.49 Y24.3 Z0.75 F1800.0
G1 X-7.68 Y23.88 Z0.75 F1800.0
G1 X-7.65 Y23.88 Z0.75 F1800.0
M108 R35.0
M102
G1 X-7.14 Y23.88 Z0.75 F1800.0
G1 X-6.61 Y23.46 Z0.75 F1800.0
G1 X-7.68 Y23.46 Z0.75 F1800.0
M108 R1.179
M103
G1 X4.62 Y25.8 Z0.75 F2400.0
M108 R35.0
M101
G1 X7.68 Y26.39 Z0.75 F2400.0
M108 R1.179
G1 X-2.01 Y26.39 Z0.75 F1800.0
G1 X-2.1 Y26.81 Z0.75 F1800.0
G1 X5.43 Y26.81 Z0.75 F1800.0
M108 R35.0
M102
G1 X7.68 Y26.81 Z0.75 F1800.0
M108 R1.179
M103
(</surroundingLoop>)
(</layer>)
(<operatingLayerEnd> </operatingLayerEnd>)
(<layer> 1.05 )
(<surroundingLoop>)
(<boundaryPerimeter>)
(<boundaryPoint> X9.0 Y-31.0 Z1.05 </boundaryPoint>)
(<boundaryPoint> X9.0 Y-15.5 Z1.05 </boundaryPoint>)
(<boundaryPoint> X-3.7 Y-15.5 Z1.05 </boundaryPoint>)
(<boundaryPoint> X-3.7 Y15.5 Z1.05 </boundaryPoint>)
(<boundaryPoint> X9.0 Y15.5 Z1.05 </boundaryPoint>)
(<boundaryPoint> X9.0 Y31.0 Z1.05 </boundaryPoint>)
(<boundaryPoint> X-9.0 Y31.0 Z1.05 </boundaryPoint>)
(<boundaryPoint> X-9.0 Y-31.0 Z1.05 </boundaryPoint>)
(<perimeter> outer )
M108 R35.0
M101
G1 X8.79 Y26.81 Z1.05 F884.482
M108 R1.179
G1 X8.79 Y30.79 Z1.05 F1800.0
G1 X-8.79 Y30.79 Z1.05 F1800.0
G1 X-8.79 Y-30.79 Z1.05 F1800.0
G1 X8.79 Y-30.79 Z1.05 F1800.0
G1 X8.79 Y-15.71 Z1.05 F1800.0
G1 X-3.91 Y-15.71 Z1.05 F1800.0
G1 X-3.91 Y15.71 Z1.05 F1800.0
G1 X8.79 Y15.71 Z1.05 F1800.0
G1 X8.79 Y24.56 Z1.05 F1800.0
M108 R35.0
M102
G1 X8.79 Y26.81 Z1.05 F1800.0
M108 R1.179
M103
(</perimeter>)
(</boundaryPerimeter>)
(<surroundingLoop>)
(<boundaryPerimeter>)
(<boundaryPoint> X-3.304 Y25.894 Z1.05 </boundaryPoint>)
(<boundaryPoint> X-3.384 Y25.475 Z1.05 </boundaryPoint>)
(<boundaryPoint> X-3.565 Y25.09 Z1.05 </boundaryPoint>)
(<boundaryPoint> X-3.837 Y24.762 Z1.05 </boundaryPoint>)
(<boundaryPoint> X-4.181 Y24.511 Z1.05 </boundaryPoint>)
(<boundaryPoint> X-4.578 Y24.354 Z1.05 </boundaryPoint>)
(<boundaryPoint> X-5.0 Y24.301 Z1.05 </boundaryPoint>)
(<boundaryPoint> X-5.422 Y24.354 Z1.05 </boundaryPoint>)
(<boundaryPoint> X-5.819 Y24.511 Z1.05 </boundaryPoint>)
(<boundaryPoint> X-6.163 Y24.762 Z1.05 </boundaryPoint>)
(<boundaryPoint> X-6.435 Y25.091 Z1.05 </boundaryPoint>)
(<boundaryPoint> X-6.616 Y25.475 Z1.05 </boundaryPoint>)
(<boundaryPoint> X-6.696 Y25.894 Z1.05 </boundaryPoint>)
(<boundaryPoint> X-6.669 Y26.319 Z1.05 </boundaryPoint>)
(<boundaryPoint> X-6.537 Y26.723 Z1.05 </boundaryPoint>)
(<boundaryPoint> X-6.309 Y27.083 Z1.05 </boundaryPoint>)
(<boundaryPoint> X-5.998 Y27.374 Z1.05 </boundaryPoint>)
(<boundaryPoint> X-5.626 Y27.58 Z1.05 </boundaryPoint>)
(<boundaryPoint> X-5.215 Y27.685 Z1.05 </boundaryPoint>)
(<boundaryPoint> X-4.785 Y27.685 Z1.05 </boundaryPoint>)
(<boundaryPoint> X-4.374 Y27.58 Z1.05 </boundaryPoint>)
(<boundaryPoint> X-4.002 Y27.374 Z1.05 </boundaryPoint>)
(<boundaryPoint> X-3.691 Y27.083 Z1.05 </boundaryPoint>)
(<boundaryPoint> X-3.463 Y26.723 Z1.05 </boundaryPoint>)
(<boundaryPoint> X-3.331 Y26.319 Z1.05 </boundaryPoint>)
(<perimeter> inner )
G1 X0.02 Y26.12 Z1.05 F2400.0
M108 R35.0
M101
G1 X-3.09 Y25.88 Z1.05 F2400.0
M108 R1.179
G1 X-3.18 Y25.41 Z1.05 F1800.0
G1 X-3.39 Y24.98 Z1.05 F1800.0
G1 X-3.69 Y24.61 Z1.05 F1800.0
G1 X-4.08 Y24.33 Z1.05 F1800.0
G1 X-4.53 Y24.15 Z1.05 F1800.0
G1 X-5.0 Y24.09 Z1.05 F1800.0
G1 X-5.47 Y24.15 Z1.05 F1800.0
G1 X-5.92 Y24.33 Z1.05 F1800.0
G1 X-6.31 Y24.61 Z1.05 F1800.0
G1 X-6.61 Y24.98 Z1.05 F1800.0
G1 X-6.82 Y25.41 Z1.05 F1800.0
G1 X-6.91 Y25.88 Z1.05 F1800.0
G1 X-6.88 Y26.36 Z1.05 F1800.0
G1 X-6.73 Y26.81 Z1.05 F1800.0
G1 X-6.47 Y27.22 Z1.05 F1800.0
G1 X-6.12 Y27.55 Z1.05 F1800.0
G1 X-5.7 Y27.78 Z1.05 F1800.0
G1 X-5.24 Y27.89 Z1.05 F1800.0
G1 X-4.76 Y27.89 Z1.05 F1800.0
G1 X-4.3 Y27.78 Z1.05 F1800.0
G1 X-4.17 Y27.71 Z1.05 F1800.0
M108 R35.0
M102
G1 X-3.88 Y27.55 Z1.05 F1800.0
G1 X-3.53 Y27.22 Z1.05 F1800.0
G1 X-3.27 Y26.81 Z1.05 F1800.0
G1 X-3.12 Y26.36 Z1.05 F1800.0
G1 X-3.09 Y25.88 Z1.05 F1800.0
M108 R1.179
M103
(</perimeter>)
(</boundaryPerimeter>)
(</surroundingLoop>)
(<surroundingLoop>)
(<boundaryPerimeter>)
(<boundaryPoint> X-5.626 Y-27.58 Z1.05 </boundaryPoint>)
(<boundaryPoint> X-5.998 Y-27.374 Z1.05 </boundaryPoint>)
(<boundaryPoint> X-6.309 Y-27.083 Z1.05 </boundaryPoint>)
(<boundaryPoint> X-6.537 Y-26.723 Z1.05 </boundaryPoint>)
(<boundaryPoint> X-6.669 Y-26.319 Z1.05 </boundaryPoint>)
(<boundaryPoint> X-6.696 Y-25.894 Z1.05 </boundaryPoint>)
(<boundaryPoint> X-6.616 Y-25.475 Z1.05 </boundaryPoint>)
(<boundaryPoint> X-6.435 Y-25.09 Z1.05 </boundaryPoint>)
(<boundaryPoint> X-6.163 Y-24.762 Z1.05 </boundaryPoint>)
(<boundaryPoint> X-5.819 Y-24.511 Z1.05 </boundaryPoint>)
(<boundaryPoint> X-5.422 Y-24.354 Z1.05 </boundaryPoint>)
(<boundaryPoint> X-5.0 Y-24.301 Z1.05 </boundaryPoint>)
(<boundaryPoint> X-4.578 Y-24.354 Z1.05 </boundaryPoint>)
(<boundaryPoint> X-4.181 Y-24.511 Z1.05 </boundaryPoint>)
(<boundaryPoint> X-3.837 Y-24.762 Z1.05 </boundaryPoint>)
(<boundaryPoint> X-3.565 Y-25.09 Z1.05 </boundaryPoint>)
(<boundaryPoint> X-3.384 Y-25.475 Z1.05 </boundaryPoint>)
(<boundaryPoint> X-3.304 Y-25.894 Z1.05 </boundaryPoint>)
(<boundaryPoint> X-3.331 Y-26.319 Z1.05 </boundaryPoint>)
(<boundaryPoint> X-3.463 Y-26.723 Z1.05 </boundaryPoint>)
(<boundaryPoint> X-3.691 Y-27.083 Z1.05 </boundaryPoint>)
(<boundaryPoint> X-4.002 Y-27.374 Z1.05 </boundaryPoint>)
(<boundaryPoint> X-4.374 Y-27.58 Z1.05 </boundaryPoint>)
(<boundaryPoint> X-4.785 Y-27.685 Z1.05 </boundaryPoint>)
(<boundaryPoint> X-5.215 Y-27.685 Z1.05 </boundaryPoint>)
(<perimeter> inner )
G1 X-3.49 Y15.79 Z1.05 F2400.0
G1 X-3.85 Y15.65 Z1.05 F2400.0
G1 X-3.99 Y9.99 Z1.05 F2400.0
G1 X-4.91 Y-20.97 Z1.05 F2400.0
M108 R35.0
M101
G1 X-5.0 Y-24.09 Z1.05 F2400.0
M108 R1.179
G1 X-4.53 Y-24.15 Z1.05 F1800.0
G1 X-4.08 Y-24.33 Z1.05 F1800.0
G1 X-3.69 Y-24.61 Z1.05 F1800.0
G1 X-3.39 Y-24.98 Z1.05 F1800.0
G1 X-3.18 Y-25.41 Z1.05 F1800.0
G1 X-3.09 Y-25.88 Z1.05 F1800.0
G1 X-3.12 Y-26.36 Z1.05 F1800.0
G1 X-3.27 Y-26.81 Z1.05 F1800.0
G1 X-3.53 Y-27.22 Z1.05 F1800.0
G1 X-3.88 Y-27.55 Z1.05 F1800.0
G1 X-4.3 Y-27.78 Z1.05 F1800.0
G1 X-4.76 Y-27.89 Z1.05 F1800.0
G1 X-5.24 Y-27.89 Z1.05 F1800.0
G1 X-5.7 Y-27.78 Z1.05 F1800.0
G1 X-6.12 Y-27.55 Z1.05 F1800.0
G1 X-6.47 Y-27.22 Z1.05 F1800.0
G1 X-6.73 Y-26.81 Z1.05 F1800.0
G1 X-6.88 Y-26.36 Z1.05 F1800.0
G1 X-6.91 Y-25.88 Z1.05 F1800.0
G1 X-6.82 Y-25.41 Z1.05 F1800.0
G1 X-6.61 Y-24.98 Z1.05 F1800.0
G1 X-6.31 Y-24.61 Z1.05 F1800.0
G1 X-5.92 Y-24.33 Z1.05 F1800.0
G1 X-5.47 Y-24.15 Z1.05 F1800.0
G1 X-5.0 Y-24.09 Z1.05 F1800.0
M103
(</perimeter>)
(</boundaryPerimeter>)
(</surroundingLoop>)
(<loop> inner )
G1 X-5.0 Y-23.67 Z1.05 F2400.0
M101
G1 X-4.42 Y-23.74 Z1.05 F1800.0
G1 X-3.88 Y-23.96 Z1.05 F1800.0
G1 X-3.4 Y-24.3 Z1.05 F1800.0
G1 X-3.03 Y-24.75 Z1.05 F1800.0
G1 X-2.78 Y-25.28 Z1.05 F1800.0
G1 X-2.67 Y-25.85 Z1.05 F1800.0
G1 X-2.71 Y-26.44 Z1.05 F1800.0
G1 X-2.89 Y-26.99 Z1.05 F1800.0
G1 X-3.2 Y-27.49 Z1.05 F1800.0
G1 X-3.63 Y-27.89 Z1.05 F1800.0
G1 X-4.14 Y-28.17 Z1.05 F1800.0
G1 X-4.71 Y-28.31 Z1.05 F1800.0
G1 X-5.29 Y-28.31 Z1.05 F1800.0
G1 X-5.86 Y-28.17 Z1.05 F1800.0
G1 X-6.37 Y-27.89 Z1.05 F1800.0
G1 X-6.8 Y-27.49 Z1.05 F1800.0
G1 X-7.11 Y-26.99 Z1.05 F1800.0
G1 X-7.29 Y-26.44 Z1.05 F1800.0
G1 X-7.33 Y-25.85 Z1.05 F1800.0
G1 X-7.22 Y-25.28 Z1.05 F1800.0
G1 X-6.97 Y-24.75 Z1.05 F1800.0
G1 X-6.6 Y-24.3 Z1.05 F1800.0
G1 X-6.13 Y-23.96 Z1.05 F1800.0
G1 X-5.58 Y-23.74 Z1.05 F1800.0
G1 X-5.0 Y-23.67 Z1.05 F1800.0
M103
(</loop>)
(<loop> outer )
G1 X-5.0 Y-23.25 Z1.05 F2400.0
M101
G1 X-4.32 Y-23.33 Z1.05 F1800.0
G1 X-3.67 Y-23.59 Z1.05 F1800.0
G1 X-3.11 Y-23.99 Z1.05 F1800.0
G1 X-2.67 Y-24.52 Z1.05 F1800.0
G1 X-2.38 Y-25.15 Z1.05 F1800.0
G1 X-2.25 Y-25.83 Z1.05 F1800.0
G1 X-2.29 Y-26.52 Z1.05 F1800.0
G1 X-2.51 Y-27.17 Z1.05 F1800.0
G1 X-2.88 Y-27.76 Z1.05 F1800.0
G1 X-3.38 Y-28.23 Z1.05 F1800.0
G1 X-3.98 Y-28.56 Z1.05 F1800.0
G1 X-4.65 Y-28.73 Z1.05 F1800.0
G1 X-5.35 Y-28.73 Z1.05 F1800.0
G1 X-6.02 Y-28.56 Z1.05 F1800.0
G1 X-6.62 Y-28.23 Z1.05 F1800.0
G1 X-7.12 Y-27.76 Z1.05 F1800.0
G1 X-7.49 Y-27.17 Z1.05 F1800.0
G1 X-7.62 Y-26.79 Z1.05 F1800.0
G1 X-8.05 Y-26.58 Z1.05 F1800.0
G1 X-7.95 Y-27.22 Z1.05 F1800.0
G1 X-7.95 Y-29.95 Z1.05 F1800.0
G1 X7.95 Y-29.95 Z1.05 F1800.0
G1 X7.95 Y-16.55 Z1.05 F1800.0
G1 X-4.75 Y-16.55 Z1.05 F1800.0
G1 X-4.75 Y16.55 Z1.05 F1800.0
G1 X7.95 Y16.55 Z1.05 F1800.0
G1 X7.95 Y29.95 Z1.05 F1800.0
G1 X-7.95 Y29.95 Z1.05 F1800.0
G1 X-7.95 Y27.22 Z1.05 F1800.0
G1 X-8.05 Y26.58 Z1.05 F1800.0
G1 X-7.62 Y26.79 Z1.05 F1800.0
G1 X-7.49 Y27.17 Z1.05 F1800.0
G1 X-7.12 Y27.76 Z1.05 F1800.0
G1 X-6.62 Y28.23 Z1.05 F1800.0
G1 X-6.02 Y28.56 Z1.05 F1800.0
G1 X-5.35 Y28.73 Z1.05 F1800.0
G1 X-4.65 Y28.73 Z1.05 F1800.0
G1 X-3.98 Y28.56 Z1.05 F1800.0
G1 X-3.38 Y28.23 Z1.05 F1800.0
G1 X-2.88 Y27.76 Z1.05 F1800.0
G1 X-2.51 Y27.17 Z1.05 F1800.0
G1 X-2.29 Y26.52 Z1.05 F1800.0
G1 X-2.25 Y25.83 Z1.05 F1800.0
G1 X-2.38 Y25.15 Z1.05 F1800.0
G1 X-2.67 Y24.52 Z1.05 F1800.0
G1 X-3.11 Y23.99 Z1.05 F1800.0
G1 X-3.67 Y23.59 Z1.05 F1800.0
G1 X-4.32 Y23.33 Z1.05 F1800.0
G1 X-5.0 Y23.25 Z1.05 F1800.0
G1 X-5.68 Y23.33 Z1.05 F1800.0
G1 X-6.33 Y23.59 Z1.05 F1800.0
G1 X-6.89 Y23.99 Z1.05 F1800.0
G1 X-7.33 Y24.52 Z1.05 F1800.0
G1 X-7.47 Y24.82 Z1.05 F1800.0
G1 X-7.95 Y24.76 Z1.05 F1800.0
G1 X-7.95 Y-24.76 Z1.05 F1800.0
G1 X-7.47 Y-24.82 Z1.05 F1800.0
G1 X-7.33 Y-24.52 Z1.05 F1800.0
G1 X-7.0 Y-24.13 Z1.05 F1800.0
M108 R35.0
M102
G1 X-6.89 Y-23.99 Z1.05 F1800.0
G1 X-6.33 Y-23.59 Z1.05 F1800.0
G1 X-5.68 Y-23.33 Z1.05 F1800.0
G1 X-5.0 Y-23.25 Z1.05 F1800.0
M108 R1.179
M103
(</loop>)
(<loop> inner )
G1 X-5.0 Y20.55 Z1.05 F2400.0
M108 R35.0
M101
G1 X-5.0 Y23.67 Z1.05 F2400.0
M108 R1.179
G1 X-5.58 Y23.74 Z1.05 F1800.0
G1 X-6.13 Y23.96 Z1.05 F1800.0
G1 X-6.6 Y24.3 Z1.05 F1800.0
G1 X-6.97 Y24.75 Z1.05 F1800.0
G1 X-7.22 Y25.28 Z1.05 F1800.0
G1 X-7.33 Y25.85 Z1.05 F1800.0
G1 X-7.29 Y26.44 Z1.05 F1800.0
G1 X-7.11 Y26.99 Z1.05 F1800.0
G1 X-6.8 Y27.49 Z1.05 F1800.0
G1 X-6.37 Y27.89 Z1.05 F1800.0
G1 X-5.86 Y28.17 Z1.05 F1800.0
G1 X-5.29 Y28.31 Z1.05 F1800.0
G1 X-4.71 Y28.31 Z1.05 F1800.0
G1 X-4.14 Y28.17 Z1.05 F1800.0
G1 X-3.63 Y27.89 Z1.05 F1800.0
G1 X-3.2 Y27.49 Z1.05 F1800.0
G1 X-2.89 Y26.99 Z1.05 F1800.0
G1 X-2.71 Y26.44 Z1.05 F1800.0
G1 X-2.67 Y25.85 Z1.05 F1800.0
G1 X-2.78 Y25.28 Z1.05 F1800.0
G1 X-3.03 Y24.75 Z1.05 F1800.0
G1 X-3.09 Y24.68 Z1.05 F1800.0
M108 R35.0
M102
G1 X-3.4 Y24.3 Z1.05 F1800.0
G1 X-3.88 Y23.96 Z1.05 F1800.0
G1 X-4.42 Y23.74 Z1.05 F1800.0
G1 X-5.0 Y23.67 Z1.05 F1800.0
M108 R1.179
M103
(</loop>)
(<loop> outer )
G1 X-5.25 Y23.67 Z1.05 F2400.0
M108 R35.0
M101
G1 X-8.37 Y23.67 Z1.05 F2400.0
M108 R1.179
G1 X-8.37 Y-30.37 Z1.05 F1800.0
G1 X8.37 Y-30.37 Z1.05 F1800.0
G1 X8.37 Y-16.13 Z1.05 F1800.0
G1 X-4.33 Y-16.13 Z1.05 F1800.0
G1 X-4.33 Y16.13 Z1.05 F1800.0
G1 X8.37 Y16.13 Z1.05 F1800.0
G1 X8.37 Y30.37 Z1.05 F1800.0
G1 X-8.37 Y30.37 Z1.05 F1800.0
G1 X-8.37 Y25.92 Z1.05 F1800.0
M108 R35.0
M102
G1 X-8.37 Y23.67 Z1.05 F1800.0
M108 R1.179
M103
(</loop>)
M108 R35.0
M101
G1 X-7.45 Y24.24 Z1.05 F838.215
M108 R1.179
G1 X-7.45 Y-24.24 Z1.05 F1800.0
G1 X-6.98 Y-23.73 Z1.05 F1800.0
G1 X-6.98 Y23.73 Z1.05 F1800.0
G1 X-6.52 Y23.39 Z1.05 F1800.0
G1 X-6.52 Y-23.39 Z1.05 F1800.0
M103
G1 X-6.05 Y-23.18 Z1.05 F2400.0
M101
G1 X-6.05 Y23.18 Z1.05 F1800.0
M103
G1 X-5.58 Y23.05 Z1.05 F2400.0
M101
G1 X-5.58 Y-20.8 Z1.05 F1800.0
M108 R35.0
M102
G1 X-5.58 Y-23.05 Z1.05 F1800.0
M108 R1.179
M103
M108 R35.0
M101
G1 X-3.72 Y-23.27 Z1.05 F1443.006
M108 R1.179
G1 X-3.72 Y-16.82 Z1.05 F1800.0
M103
G1 X-2.79 Y-16.82 Z1.05 F2400.0
M101
G1 X-2.79 Y-23.95 Z1.05 F1800.0
G1 X-3.26 Y-23.55 Z1.05 F1800.0
G1 X-3.26 Y-16.82 Z1.05 F1800.0
M103
G1 X-2.33 Y-16.82 Z1.05 F2400.0
M101
G1 X-2.33 Y-22.37 Z1.05 F1800.0
M108 R35.0
M102
G1 X-2.33 Y-24.62 Z1.05 F1800.0
M108 R1.179
M103
G1 X-3.47 Y-27.27 Z1.05 F2400.0
G1 X-3.83 Y-27.61 Z1.05 F2400.0
G1 X-4.27 Y-27.85 Z1.05 F2400.0
G1 X-4.35 Y-27.87 Z1.05 F2400.0
M108 R35.0
M101
G1 X-4.75 Y-27.97 Z1.05 F2400.0
G1 X-7.45 Y-27.75 Z1.05 F2400.0
M108 R1.179
G1 X-7.45 Y-29.68 Z1.05 F1800.0
G1 X-6.98 Y-29.68 Z1.05 F1800.0
G1 X-6.98 Y-28.26 Z1.05 F1800.0
G1 X-6.52 Y-28.6 Z1.05 F1800.0
G1 X-6.52 Y-29.68 Z1.05 F1800.0
G1 X-6.05 Y-29.68 Z1.05 F1800.0
G1 X-6.05 Y-28.83 Z1.05 F1800.0
G1 X-5.58 Y-29.68 Z1.05 F1800.0
G1 X-5.58 Y-28.95 Z1.05 F1800.0
G1 X-5.12 Y-29.68 Z1.05 F1800.0
G1 X-5.12 Y-29.0 Z1.05 F1800.0
G1 X-4.65 Y-29.68 Z1.05 F1800.0
G1 X-4.65 Y-29.0 Z1.05 F1800.0
G1 X-4.19 Y-29.68 Z1.05 F1800.0
G1 X-4.19 Y-28.89 Z1.05 F1800.0
G1 X-3.72 Y-29.68 Z1.05 F1800.0
G1 X-3.72 Y-28.73 Z1.05 F1800.0
G1 X-3.26 Y-29.68 Z1.05 F1800.0
G1 X-3.26 Y-28.47 Z1.05 F1800.0
G1 X-2.79 Y-28.05 Z1.05 F1800.0
G1 X-2.79 Y-29.68 Z1.05 F1800.0
G1 X-2.33 Y-29.68 Z1.05 F1800.0
G1 X-2.33 Y-29.65 Z1.05 F1800.0
M108 R35.0
M102
G1 X-2.33 Y-27.4 Z1.05 F1800.0
M108 R1.179
M103
G1 X4.41 Y-28.97 Z1.05 F2400.0
M108 R35.0
M101
G1 X7.45 Y-29.68 Z1.05 F2400.0
M108 R1.179
G1 X7.45 Y-16.82 Z1.05 F1800.0
M103
G1 X6.98 Y-16.82 Z1.05 F2400.0
M101
G1 X6.98 Y-29.68 Z1.05 F1800.0
G1 X6.52 Y-29.68 Z1.05 F1800.0
G1 X6.52 Y-16.82 Z1.05 F1800.0
M103
G1 X6.05 Y-16.82 Z1.05 F2400.0
M101
G1 X6.05 Y-29.68 Z1.05 F1800.0
G1 X5.12 Y-29.68 Z1.05 F1800.0
G1 X5.12 Y-17.29 Z1.05 F1800.0
G1 X5.58 Y-16.82 Z1.05 F1800.0
M103
G1 X4.65 Y-16.82 Z1.05 F2400.0
M101
G1 X4.65 Y-29.68 Z1.05 F1800.0
G1 X4.19 Y-29.68 Z1.05 F1800.0
G1 X4.19 Y-16.82 Z1.05 F1800.0
M103
G1 X3.72 Y-16.82 Z1.05 F2400.0
M101
G1 X3.72 Y-29.68 Z1.05 F1800.0
G1 X3.26 Y-29.68 Z1.05 F1800.0
G1 X3.26 Y-16.82 Z1.05 F1800.0
M103
G1 X2.79 Y-16.82 Z1.05 F2400.0
M101
G1 X2.79 Y-29.68 Z1.05 F1800.0
G1 X2.33 Y-29.68 Z1.05 F1800.0
G1 X2.33 Y-16.82 Z1.05 F1800.0
M103
G1 X1.86 Y-16.82 Z1.05 F2400.0
M101
G1 X1.86 Y-29.68 Z1.05 F1800.0
G1 X1.4 Y-29.68 Z1.05 F1800.0
G1 X1.4 Y-16.82 Z1.05 F1800.0
M103
G1 X0.93 Y-16.82 Z1.05 F2400.0
M101
G1 X0.93 Y-29.68 Z1.05 F1800.0
G1 X-0.0 Y-29.68 Z1.05 F1800.0
G1 X-0.0 Y-16.82 Z1.05 F1800.0
M103
G1 X-0.47 Y-16.82 Z1.05 F2400.0
M101
G1 X-0.47 Y-29.68 Z1.05 F1800.0
G1 X-0.93 Y-29.68 Z1.05 F1800.0
G1 X-0.93 Y-16.82 Z1.05 F1800.0
M103
G1 X-1.4 Y-16.82 Z1.05 F2400.0
M101
G1 X-1.4 Y-29.68 Z1.05 F1800.0
G1 X-1.86 Y-29.68 Z1.05 F1800.0
G1 X-1.86 Y-19.07 Z1.05 F1800.0
M108 R35.0
M102
G1 X-1.86 Y-16.82 Z1.05 F1800.0
M108 R1.179
M103
M108 R35.0
M101
G1 X-4.65 Y-16.82 Z1.05 F2147.692
M108 R1.179
G1 X-4.19 Y-23.09 Z1.05 F1800.0
G1 X-5.12 Y-22.99 Z1.05 F1800.0
G1 X-5.12 Y22.99 Z1.05 F1800.0
G1 X-4.19 Y23.09 Z1.05 F1800.0
G1 X-4.65 Y16.82 Z1.05 F1800.0
M103
G1 X-3.72 Y16.82 Z1.05 F2400.0
M101
G1 X-3.72 Y21.02 Z1.05 F1800.0
M108 R35.0
M102
G1 X-3.72 Y23.27 Z1.05 F1800.0
M108 R1.179
M103
M108 R35.0
M101
G1 X-2.33 Y24.62 Z1.05 F1493.302
M108 R1.179
G1 X-2.33 Y16.82 Z1.05 F1800.0
M103
G1 X-3.26 Y16.82 Z1.05 F2400.0
M101
G1 X-3.26 Y23.55 Z1.05 F1800.0
G1 X-2.79 Y23.95 Z1.05 F1800.0
G1 X-2.79 Y16.82 Z1.05 F1800.0
M103
G1 X-1.86 Y16.82 Z1.05 F2400.0
M101
G1 X-1.86 Y29.68 Z1.05 F1800.0
G1 X-1.4 Y29.68 Z1.05 F1800.0
G1 X-1.4 Y16.82 Z1.05 F1800.0
M103
G1 X-0.93 Y16.82 Z1.05 F2400.0
M101
G1 X-0.93 Y29.68 Z1.05 F1800.0
G1 X-0.47 Y29.68 Z1.05 F1800.0
G1 X-0.47 Y16.82 Z1.05 F1800.0
M103
G1 X0.0 Y16.82 Z1.05 F2400.0
M101
G1 X0.0 Y29.68 Z1.05 F1800.0
G1 X0.93 Y29.68 Z1.05 F1800.0
G1 X0.93 Y16.82 Z1.05 F1800.0
M103
G1 X1.4 Y16.82 Z1.05 F2400.0
M101
G1 X1.4 Y29.68 Z1.05 F1800.0
G1 X1.86 Y29.68 Z1.05 F1800.0
G1 X1.86 Y16.82 Z1.05 F1800.0
M103
G1 X2.33 Y16.82 Z1.05 F2400.0
M101
G1 X2.33 Y29.68 Z1.05 F1800.0
G1 X2.79 Y29.68 Z1.05 F1800.0
G1 X2.79 Y16.82 Z1.05 F1800.0
M103
G1 X3.26 Y16.82 Z1.05 F2400.0
M101
G1 X3.26 Y29.68 Z1.05 F1800.0
G1 X3.72 Y29.68 Z1.05 F1800.0
G1 X3.72 Y16.82 Z1.05 F1800.0
M103
G1 X4.19 Y16.82 Z1.05 F2400.0
M101
G1 X4.19 Y29.68 Z1.05 F1800.0
G1 X4.65 Y29.68 Z1.05 F1800.0
G1 X4.65 Y16.82 Z1.05 F1800.0
M103
G1 X5.58 Y16.82 Z1.05 F2400.0
M101
G1 X5.12 Y17.29 Z1.05 F1800.0
G1 X5.12 Y29.68 Z1.05 F1800.0
G1 X6.05 Y29.68 Z1.05 F1800.0
G1 X6.05 Y16.82 Z1.05 F1800.0
M103
G1 X6.52 Y16.82 Z1.05 F2400.0
M101
G1 X6.52 Y29.68 Z1.05 F1800.0
G1 X6.98 Y29.68 Z1.05 F1800.0
G1 X6.98 Y16.82 Z1.05 F1800.0
M103
G1 X7.45 Y16.82 Z1.05 F2400.0
M101
G1 X7.45 Y27.43 Z1.05 F1800.0
M108 R35.0
M102
G1 X7.45 Y29.68 Z1.05 F1800.0
M108 R1.179
M103
G1 X0.79 Y29.68 Z1.05 F2400.0
M108 R35.0
M101
G1 X-2.33 Y29.68 Z1.05 F2400.0
M108 R1.179
G1 X-2.33 Y27.4 Z1.05 F1800.0
M103
G1 X-2.79 Y28.05 Z1.05 F2400.0
M101
G1 X-2.79 Y29.68 Z1.05 F1800.0
G1 X-3.26 Y29.68 Z1.05 F1800.0
G1 X-3.26 Y28.47 Z1.05 F1800.0
M103
G1 X-3.72 Y28.73 Z1.05 F2400.0
M101
G1 X-3.72 Y29.68 Z1.05 F1800.0
G1 X-4.19 Y29.68 Z1.05 F1800.0
G1 X-4.19 Y28.89 Z1.05 F1800.0
G1 X-4.65 Y29.68 Z1.05 F1800.0
G1 X-4.65 Y29.0 Z1.05 F1800.0
G1 X-5.12 Y29.68 Z1.05 F1800.0
G1 X-5.12 Y29.0 Z1.05 F1800.0
G1 X-5.58 Y29.68 Z1.05 F1800.0
G1 X-5.58 Y28.95 Z1.05 F1800.0
G1 X-6.05 Y29.68 Z1.05 F1800.0
G1 X-6.05 Y28.83 Z1.05 F1800.0
G1 X-6.52 Y29.68 Z1.05 F1800.0
G1 X-6.52 Y28.6 Z1.05 F1800.0
G1 X-6.98 Y28.26 Z1.05 F1800.0
G1 X-6.98 Y29.68 Z1.05 F1800.0
G1 X-7.12 Y29.68 Z1.05 F1800.0
M108 R35.0
M102
G1 X-7.45 Y29.68 Z1.05 F1800.0
G1 X-7.45 Y27.75 Z1.05 F1800.0
M108 R1.179
M103
(</surroundingLoop>)
(</layer>)
(<layer> 1.35 )
(<surroundingLoop>)
(<boundaryPerimeter>)
(<boundaryPoint> X9.0 Y-31.0 Z1.35 </boundaryPoint>)
(<boundaryPoint> X9.0 Y-15.5 Z1.35 </boundaryPoint>)
(<boundaryPoint> X-3.7 Y-15.5 Z1.35 </boundaryPoint>)
(<boundaryPoint> X-3.7 Y15.5 Z1.35 </boundaryPoint>)
(<boundaryPoint> X9.0 Y15.5 Z1.35 </boundaryPoint>)
(<boundaryPoint> X9.0 Y31.0 Z1.35 </boundaryPoint>)
(<boundaryPoint> X-9.0 Y31.0 Z1.35 </boundaryPoint>)
(<boundaryPoint> X-9.0 Y-31.0 Z1.35 </boundaryPoint>)
(<perimeter> outer )
M108 R35.0
M101
G1 X-8.79 Y27.75 Z1.35 F1058.538
M108 R1.179
G1 X-8.79 Y-30.79 Z1.35 F1800.0
G1 X8.79 Y-30.79 Z1.35 F1800.0
G1 X8.79 Y-15.71 Z1.35 F1800.0
G1 X-3.91 Y-15.71 Z1.35 F1800.0
G1 X-3.91 Y15.71 Z1.35 F1800.0
G1 X8.79 Y15.71 Z1.35 F1800.0
G1 X8.79 Y30.79 Z1.35 F1800.0
G1 X-8.79 Y30.79 Z1.35 F1800.0
G1 X-8.79 Y30.0 Z1.35 F1800.0
M108 R35.0
M102
G1 X-8.79 Y27.75 Z1.35 F1800.0
M108 R1.179
M103
(</perimeter>)
(</boundaryPerimeter>)
(<surroundingLoop>)
(<boundaryPerimeter>)
(<boundaryPoint> X-3.304 Y25.894 Z1.35 </boundaryPoint>)
(<boundaryPoint> X-3.384 Y25.475 Z1.35 </boundaryPoint>)
(<boundaryPoint> X-3.565 Y25.09 Z1.35 </boundaryPoint>)
(<boundaryPoint> X-3.837 Y24.762 Z1.35 </boundaryPoint>)
(<boundaryPoint> X-4.181 Y24.511 Z1.35 </boundaryPoint>)
(<boundaryPoint> X-4.578 Y24.354 Z1.35 </boundaryPoint>)
(<boundaryPoint> X-5.0 Y24.301 Z1.35 </boundaryPoint>)
(<boundaryPoint> X-5.422 Y24.354 Z1.35 </boundaryPoint>)
(<boundaryPoint> X-5.819 Y24.511 Z1.35 </boundaryPoint>)
(<boundaryPoint> X-6.163 Y24.762 Z1.35 </boundaryPoint>)
(<boundaryPoint> X-6.435 Y25.091 Z1.35 </boundaryPoint>)
(<boundaryPoint> X-6.616 Y25.475 Z1.35 </boundaryPoint>)
(<boundaryPoint> X-6.696 Y25.894 Z1.35 </boundaryPoint>)
(<boundaryPoint> X-6.669 Y26.319 Z1.35 </boundaryPoint>)
(<boundaryPoint> X-6.535 Y26.73 Z1.35 </boundaryPoint>)
(<boundaryPoint> X-6.439 Y26.906 Z1.35 </boundaryPoint>)
(<boundaryPoint> X-6.159 Y27.243 Z1.35 </boundaryPoint>)
(<boundaryPoint> X-6.004 Y27.371 Z1.35 </boundaryPoint>)
(<boundaryPoint> X-5.626 Y27.58 Z1.35 </boundaryPoint>)
(<boundaryPoint> X-5.215 Y27.685 Z1.35 </boundaryPoint>)
(<boundaryPoint> X-4.785 Y27.685 Z1.35 </boundaryPoint>)
(<boundaryPoint> X-4.374 Y27.58 Z1.35 </boundaryPoint>)
(<boundaryPoint> X-4.002 Y27.374 Z1.35 </boundaryPoint>)
(<boundaryPoint> X-3.691 Y27.083 Z1.35 </boundaryPoint>)
(<boundaryPoint> X-3.463 Y26.723 Z1.35 </boundaryPoint>)
(<boundaryPoint> X-3.331 Y26.319 Z1.35 </boundaryPoint>)
(<perimeter> inner )
M108 R35.0
M101
G1 X-6.73 Y26.81 Z1.35 F1743.194
M108 R1.179
G1 X-6.61 Y27.02 Z1.35 F1800.0
G1 X-6.31 Y27.39 Z1.35 F1800.0
G1 X-6.12 Y27.55 Z1.35 F1800.0
G1 X-5.7 Y27.78 Z1.35 F1800.0
G1 X-5.24 Y27.89 Z1.35 F1800.0
G1 X-4.76 Y27.89 Z1.35 F1800.0
G1 X-4.3 Y27.78 Z1.35 F1800.0
G1 X-3.88 Y27.55 Z1.35 F1800.0
G1 X-3.53 Y27.22 Z1.35 F1800.0
G1 X-3.27 Y26.81 Z1.35 F1800.0
G1 X-3.12 Y26.36 Z1.35 F1800.0
G1 X-3.09 Y25.88 Z1.35 F1800.0
G1 X-3.18 Y25.41 Z1.35 F1800.0
G1 X-3.39 Y24.98 Z1.35 F1800.0
G1 X-3.69 Y24.61 Z1.35 F1800.0
G1 X-4.08 Y24.33 Z1.35 F1800.0
G1 X-4.53 Y24.15 Z1.35 F1800.0
G1 X-5.0 Y24.09 Z1.35 F1800.0
G1 X-5.47 Y24.15 Z1.35 F1800.0
G1 X-5.92 Y24.33 Z1.35 F1800.0
G1 X-6.31 Y24.61 Z1.35 F1800.0
G1 X-6.4 Y24.72 Z1.35 F1800.0
M108 R35.0
M102
G1 X-6.61 Y24.98 Z1.35 F1800.0
G1 X-6.82 Y25.41 Z1.35 F1800.0
G1 X-6.91 Y25.88 Z1.35 F1800.0
G1 X-6.88 Y26.36 Z1.35 F1800.0
G1 X-6.73 Y26.81 Z1.35 F1800.0
M108 R1.179
M103
(</perimeter>)
(</boundaryPerimeter>)
(</surroundingLoop>)
(<surroundingLoop>)
(<boundaryPerimeter>)
(<boundaryPoint> X-5.626 Y-27.58 Z1.35 </boundaryPoint>)
(<boundaryPoint> X-5.998 Y-27.374 Z1.35 </boundaryPoint>)
(<boundaryPoint> X-6.309 Y-27.083 Z1.35 </boundaryPoint>)
(<boundaryPoint> X-6.537 Y-26.723 Z1.35 </boundaryPoint>)
(<boundaryPoint> X-6.669 Y-26.319 Z1.35 </boundaryPoint>)
(<boundaryPoint> X-6.696 Y-25.894 Z1.35 </boundaryPoint>)
(<boundaryPoint> X-6.616 Y-25.475 Z1.35 </boundaryPoint>)
(<boundaryPoint> X-6.435 Y-25.09 Z1.35 </boundaryPoint>)
(<boundaryPoint> X-6.163 Y-24.762 Z1.35 </boundaryPoint>)
(<boundaryPoint> X-5.819 Y-24.511 Z1.35 </boundaryPoint>)
(<boundaryPoint> X-5.422 Y-24.354 Z1.35 </boundaryPoint>)
(<boundaryPoint> X-5.0 Y-24.301 Z1.35 </boundaryPoint>)
(<boundaryPoint> X-4.578 Y-24.354 Z1.35 </boundaryPoint>)
(<boundaryPoint> X-4.181 Y-24.511 Z1.35 </boundaryPoint>)
(<boundaryPoint> X-3.837 Y-24.762 Z1.35 </boundaryPoint>)
(<boundaryPoint> X-3.565 Y-25.09 Z1.35 </boundaryPoint>)
(<boundaryPoint> X-3.384 Y-25.475 Z1.35 </boundaryPoint>)
(<boundaryPoint> X-3.304 Y-25.894 Z1.35 </boundaryPoint>)
(<boundaryPoint> X-3.331 Y-26.319 Z1.35 </boundaryPoint>)
(<boundaryPoint> X-3.463 Y-26.723 Z1.35 </boundaryPoint>)
(<boundaryPoint> X-3.691 Y-27.083 Z1.35 </boundaryPoint>)
(<boundaryPoint> X-4.002 Y-27.374 Z1.35 </boundaryPoint>)
(<boundaryPoint> X-4.374 Y-27.58 Z1.35 </boundaryPoint>)
(<boundaryPoint> X-4.785 Y-27.685 Z1.35 </boundaryPoint>)
(<boundaryPoint> X-5.215 Y-27.685 Z1.35 </boundaryPoint>)
(<perimeter> inner )
G1 X-5.11 Y-20.97 Z1.35 F2400.0
M108 R35.0
M101
G1 X-5.0 Y-24.09 Z1.35 F2400.0
M108 R1.179
G1 X-4.53 Y-24.15 Z1.35 F1800.0
G1 X-4.08 Y-24.33 Z1.35 F1800.0
G1 X-3.69 Y-24.61 Z1.35 F1800.0
G1 X-3.39 Y-24.98 Z1.35 F1800.0
G1 X-3.18 Y-25.41 Z1.35 F1800.0
G1 X-3.09 Y-25.88 Z1.35 F1800.0
G1 X-3.12 Y-26.36 Z1.35 F1800.0
G1 X-3.27 Y-26.81 Z1.35 F1800.0
G1 X-3.53 Y-27.22 Z1.35 F1800.0
G1 X-3.88 Y-27.55 Z1.35 F1800.0
G1 X-4.3 Y-27.78 Z1.35 F1800.0
G1 X-4.76 Y-27.89 Z1.35 F1800.0
G1 X-5.24 Y-27.89 Z1.35 F1800.0
G1 X-5.7 Y-27.78 Z1.35 F1800.0
G1 X-6.12 Y-27.55 Z1.35 F1800.0
G1 X-6.47 Y-27.22 Z1.35 F1800.0
G1 X-6.73 Y-26.81 Z1.35 F1800.0
G1 X-6.88 Y-26.36 Z1.35 F1800.0
G1 X-6.91 Y-25.88 Z1.35 F1800.0
G1 X-6.82 Y-25.41 Z1.35 F1800.0
G1 X-6.61 Y-24.98 Z1.35 F1800.0
G1 X-6.31 Y-24.61 Z1.35 F1800.0
G1 X-5.92 Y-24.33 Z1.35 F1800.0
G1 X-5.47 Y-24.15 Z1.35 F1800.0
G1 X-5.0 Y-24.09 Z1.35 F1800.0
M103
(</perimeter>)
(</boundaryPerimeter>)
(</surroundingLoop>)
(<loop> inner )
G1 X-5.0 Y-23.67 Z1.35 F2400.0
M101
G1 X-4.42 Y-23.74 Z1.35 F1800.0
G1 X-3.88 Y-23.96 Z1.35 F1800.0
G1 X-3.4 Y-24.3 Z1.35 F1800.0
G1 X-3.03 Y-24.75 Z1.35 F1800.0
G1 X-2.78 Y-25.28 Z1.35 F1800.0
G1 X-2.67 Y-25.85 Z1.35 F1800.0
G1 X-2.71 Y-26.44 Z1.35 F1800.0
G1 X-2.89 Y-26.99 Z1.35 F1800.0
G1 X-3.2 Y-27.49 Z1.35 F1800.0
G1 X-3.63 Y-27.89 Z1.35 F1800.0
G1 X-4.14 Y-28.17 Z1.35 F1800.0
G1 X-4.71 Y-28.31 Z1.35 F1800.0
G1 X-5.29 Y-28.31 Z1.35 F1800.0
G1 X-5.86 Y-28.17 Z1.35 F1800.0
G1 X-6.37 Y-27.89 Z1.35 F1800.0
G1 X-6.8 Y-27.49 Z1.35 F1800.0
G1 X-7.11 Y-26.99 Z1.35 F1800.0
G1 X-7.29 Y-26.44 Z1.35 F1800.0
G1 X-7.33 Y-25.85 Z1.35 F1800.0
G1 X-7.22 Y-25.28 Z1.35 F1800.0
G1 X-6.97 Y-24.75 Z1.35 F1800.0
G1 X-6.6 Y-24.3 Z1.35 F1800.0
G1 X-6.13 Y-23.96 Z1.35 F1800.0
G1 X-5.58 Y-23.74 Z1.35 F1800.0
G1 X-5.0 Y-23.67 Z1.35 F1800.0
M103
(</loop>)
(<loop> outer )
G1 X-5.0 Y-23.25 Z1.35 F2400.0
M101
G1 X-4.32 Y-23.33 Z1.35 F1800.0
G1 X-3.67 Y-23.59 Z1.35 F1800.0
G1 X-3.11 Y-23.99 Z1.35 F1800.0
G1 X-2.67 Y-24.52 Z1.35 F1800.0
G1 X-2.38 Y-25.15 Z1.35 F1800.0
G1 X-2.25 Y-25.83 Z1.35 F1800.0
G1 X-2.29 Y-26.52 Z1.35 F1800.0
G1 X-2.51 Y-27.17 Z1.35 F1800.0
G1 X-2.88 Y-27.76 Z1.35 F1800.0
G1 X-3.38 Y-28.23 Z1.35 F1800.0
G1 X-3.98 Y-28.56 Z1.35 F1800.0
G1 X-4.65 Y-28.73 Z1.35 F1800.0
G1 X-5.35 Y-28.73 Z1.35 F1800.0
G1 X-6.02 Y-28.56 Z1.35 F1800.0
G1 X-6.62 Y-28.23 Z1.35 F1800.0
G1 X-7.12 Y-27.76 Z1.35 F1800.0
G1 X-7.49 Y-27.17 Z1.35 F1800.0
G1 X-7.62 Y-26.79 Z1.35 F1800.0
G1 X-8.05 Y-26.58 Z1.35 F1800.0
G1 X-7.95 Y-27.22 Z1.35 F1800.0
G1 X-7.95 Y-29.95 Z1.35 F1800.0
G1 X7.95 Y-29.95 Z1.35 F1800.0
G1 X7.95 Y-16.55 Z1.35 F1800.0
G1 X-4.75 Y-16.55 Z1.35 F1800.0
G1 X-4.75 Y16.55 Z1.35 F1800.0
G1 X7.95 Y16.55 Z1.35 F1800.0
G1 X7.95 Y29.95 Z1.35 F1800.0
G1 X-7.95 Y29.95 Z1.35 F1800.0
G1 X-7.95 Y27.22 Z1.35 F1800.0
G1 X-8.05 Y26.58 Z1.35 F1800.0
G1 X-7.62 Y26.79 Z1.35 F1800.0
G1 X-7.5 Y27.15 Z1.35 F1800.0
G1 X-7.31 Y27.5 Z1.35 F1800.0
G1 X-6.9 Y27.99 Z1.35 F1800.0
G1 X-6.6 Y28.24 Z1.35 F1800.0
G1 X-6.01 Y28.56 Z1.35 F1800.0
G1 X-5.35 Y28.73 Z1.35 F1800.0
G1 X-4.65 Y28.73 Z1.35 F1800.0
G1 X-3.98 Y28.56 Z1.35 F1800.0
G1 X-3.38 Y28.23 Z1.35 F1800.0
G1 X-2.88 Y27.76 Z1.35 F1800.0
G1 X-2.51 Y27.17 Z1.35 F1800.0
G1 X-2.29 Y26.52 Z1.35 F1800.0
G1 X-2.25 Y25.83 Z1.35 F1800.0
G1 X-2.38 Y25.15 Z1.35 F1800.0
G1 X-2.67 Y24.52 Z1.35 F1800.0
G1 X-3.11 Y23.99 Z1.35 F1800.0
G1 X-3.67 Y23.59 Z1.35 F1800.0
G1 X-4.32 Y23.33 Z1.35 F1800.0
G1 X-5.0 Y23.25 Z1.35 F1800.0
G1 X-5.68 Y23.33 Z1.35 F1800.0
G1 X-6.33 Y23.59 Z1.35 F1800.0
G1 X-6.89 Y23.99 Z1.35 F1800.0
G1 X-7.33 Y24.52 Z1.35 F1800.0
G1 X-7.47 Y24.82 Z1.35 F1800.0
G1 X-7.95 Y24.76 Z1.35 F1800.0
G1 X-7.95 Y-24.76 Z1.35 F1800.0
G1 X-7.47 Y-24.82 Z1.35 F1800.0
G1 X-7.33 Y-24.52 Z1.35 F1800.0
G1 X-7.0 Y-24.13 Z1.35 F1800.0
M108 R35.0
M102
G1 X-6.89 Y-23.99 Z1.35 F1800.0
G1 X-6.33 Y-23.59 Z1.35 F1800.0
G1 X-5.68 Y-23.33 Z1.35 F1800.0
G1 X-5.0 Y-23.25 Z1.35 F1800.0
M108 R1.179
M103
(</loop>)
(<loop> inner )
G1 X-5.0 Y20.55 Z1.35 F2400.0
M108 R35.0
M101
G1 X-5.0 Y23.67 Z1.35 F2400.0
M108 R1.179
G1 X-5.58 Y23.74 Z1.35 F1800.0
G1 X-6.13 Y23.96 Z1.35 F1800.0
G1 X-6.6 Y24.3 Z1.35 F1800.0
G1 X-6.97 Y24.75 Z1.35 F1800.0
G1 X-7.22 Y25.28 Z1.35 F1800.0
G1 X-7.33 Y25.85 Z1.35 F1800.0
G1 X-7.29 Y26.44 Z1.35 F1800.0
G1 X-7.11 Y26.98 Z1.35 F1800.0
G1 X-6.96 Y27.26 Z1.35 F1800.0
G1 X-6.61 Y27.69 Z1.35 F1800.0
G1 X-6.36 Y27.89 Z1.35 F1800.0
G1 X-5.86 Y28.17 Z1.35 F1800.0
G1 X-5.29 Y28.31 Z1.35 F1800.0
G1 X-4.71 Y28.31 Z1.35 F1800.0
G1 X-4.14 Y28.17 Z1.35 F1800.0
G1 X-3.63 Y27.89 Z1.35 F1800.0
G1 X-3.2 Y27.49 Z1.35 F1800.0
G1 X-2.89 Y26.99 Z1.35 F1800.0
G1 X-2.71 Y26.44 Z1.35 F1800.0
G1 X-2.67 Y25.85 Z1.35 F1800.0
G1 X-2.78 Y25.28 Z1.35 F1800.0
G1 X-3.03 Y24.75 Z1.35 F1800.0
G1 X-3.09 Y24.68 Z1.35 F1800.0
M108 R35.0
M102
G1 X-3.4 Y24.3 Z1.35 F1800.0
G1 X-3.88 Y23.96 Z1.35 F1800.0
G1 X-4.42 Y23.74 Z1.35 F1800.0
G1 X-5.0 Y23.67 Z1.35 F1800.0
M108 R1.179
M103
(</loop>)
(<loop> outer )
G1 X-5.25 Y23.67 Z1.35 F2400.0
M108 R35.0
M101
G1 X-8.37 Y23.67 Z1.35 F2400.0
M108 R1.179
G1 X-8.37 Y-30.37 Z1.35 F1800.0
G1 X8.37 Y-30.37 Z1.35 F1800.0
G1 X8.37 Y-16.13 Z1.35 F1800.0
G1 X-4.33 Y-16.13 Z1.35 F1800.0
G1 X-4.33 Y16.13 Z1.35 F1800.0
G1 X8.37 Y16.13 Z1.35 F1800.0
G1 X8.37 Y30.37 Z1.35 F1800.0
G1 X-8.37 Y30.37 Z1.35 F1800.0
G1 X-8.37 Y23.67 Z1.35 F1800.0
M103
(</loop>)
G1 X-7.68 Y24.2 Z1.35 F2400.0
M101
G1 X-7.41 Y24.2 Z1.35 F1800.0
G1 X-7.68 Y23.74 Z1.35 F1800.0
G1 X-7.0 Y23.74 Z1.35 F1800.0
G1 X-7.68 Y23.27 Z1.35 F1800.0
G1 X-6.27 Y23.27 Z1.35 F1800.0
G1 X-7.68 Y22.34 Z1.35 F1800.0
G1 X7.68 Y22.34 Z1.35 F1800.0
M103
G1 X7.68 Y21.88 Z1.35 F2400.0
M101
G1 X-7.68 Y21.88 Z1.35 F1800.0
M103
G1 X-7.68 Y21.41 Z1.35 F2400.0
M101
G1 X7.68 Y21.41 Z1.35 F1800.0
M103
G1 X7.68 Y20.94 Z1.35 F2400.0
M101
G1 X-7.68 Y20.94 Z1.35 F1800.0
M103
G1 X-7.68 Y20.48 Z1.35 F2400.0
M101
G1 X7.68 Y20.48 Z1.35 F1800.0
M103
G1 X7.68 Y20.01 Z1.35 F2400.0
M101
G1 X-7.68 Y20.01 Z1.35 F1800.0
M103
G1 X-7.68 Y19.55 Z1.35 F2400.0
M101
G1 X7.68 Y19.55 Z1.35 F1800.0
M103
G1 X7.68 Y19.08 Z1.35 F2400.0
M101
G1 X-7.68 Y19.08 Z1.35 F1800.0
M103
G1 X-7.68 Y18.62 Z1.35 F2400.0
M101
G1 X7.68 Y18.62 Z1.35 F1800.0
M103
G1 X7.68 Y17.69 Z1.35 F2400.0
M101
G1 X-7.68 Y17.69 Z1.35 F1800.0
M103
G1 X-7.68 Y17.22 Z1.35 F2400.0
M101
G1 X5.43 Y17.22 Z1.35 F1800.0
M108 R35.0
M102
G1 X7.68 Y17.22 Z1.35 F1800.0
M108 R1.179
M103
G1 X7.68 Y20.15 Z1.35 F2400.0
M108 R35.0
M101
G1 X7.68 Y23.27 Z1.35 F2400.0
M108 R1.179
G1 X-3.73 Y23.27 Z1.35 F1800.0
M103
G1 X-3.0 Y23.74 Z1.35 F2400.0
M101
G1 X7.68 Y23.74 Z1.35 F1800.0
M103
G1 X7.68 Y24.2 Z1.35 F2400.0
M101
G1 X-2.59 Y24.2 Z1.35 F1800.0
G1 X-2.31 Y24.67 Z1.35 F1800.0
G1 X7.68 Y24.67 Z1.35 F1800.0
M103
G1 X7.68 Y25.13 Z1.35 F2400.0
M101
G1 X-2.11 Y25.13 Z1.35 F1800.0
G1 X-2.02 Y25.6 Z1.35 F1800.0
G1 X7.68 Y25.6 Z1.35 F1800.0
M103
G1 X7.68 Y26.06 Z1.35 F2400.0
M101
G1 X-1.99 Y26.06 Z1.35 F1800.0
M103
G1 X-2.02 Y26.53 Z1.35 F2400.0
M101
G1 X7.68 Y26.53 Z1.35 F1800.0
M103
G1 X7.68 Y26.99 Z1.35 F2400.0
M101
G1 X0.09 Y26.99 Z1.35 F1800.0
M108 R35.0
M102
G1 X-2.16 Y26.99 Z1.35 F1800.0
M108 R1.179
M103
M108 R35.0
M101
G1 X-4.04 Y28.86 Z1.35 F2032.672
M108 R1.179
G1 X7.68 Y28.86 Z1.35 F1800.0
M103
G1 X7.68 Y27.93 Z1.35 F2400.0
M101
G1 X-2.66 Y27.93 Z1.35 F1800.0
G1 X-3.16 Y28.39 Z1.35 F1800.0
G1 X7.68 Y28.39 Z1.35 F1800.0
M103
G1 X7.68 Y29.32 Z1.35 F2400.0
M101
G1 X-7.68 Y29.32 Z1.35 F1800.0
M103
G1 X-7.68 Y28.86 Z1.35 F2400.0
M101
G1 X-5.96 Y28.86 Z1.35 F1800.0
M103
G1 X-6.84 Y28.39 Z1.35 F2400.0
M101
G1 X-7.68 Y28.39 Z1.35 F1800.0
G1 X-7.31 Y27.93 Z1.35 F1800.0
G1 X-7.68 Y27.93 Z1.35 F1800.0
M103
G1 X-7.68 Y27.46 Z1.35 F2400.0
M101
M108 R35.0
M102
G1 X-7.64 Y27.46 Z1.35 F32.0
M108 R1.179
M103
G1 X-5.76 Y19.79 Z1.35 F2400.0
M108 R35.0
M101
G1 X-5.02 Y16.75 Z1.35 F2400.0
M108 R1.179
G1 X-7.68 Y16.75 Z1.35 F1800.0
M103
G1 X-7.68 Y16.29 Z1.35 F2400.0
M101
G1 X-5.02 Y16.29 Z1.35 F1800.0
M103
G1 X-5.02 Y15.82 Z1.35 F2400.0
M101
G1 X-7.68 Y15.82 Z1.35 F1800.0
M103
G1 X-7.68 Y15.36 Z1.35 F2400.0
M101
G1 X-5.02 Y15.36 Z1.35 F1800.0
M103
G1 X-5.02 Y14.89 Z1.35 F2400.0
M101
G1 X-7.68 Y14.89 Z1.35 F1800.0
M103
G1 X-7.68 Y14.43 Z1.35 F2400.0
M101
G1 X-5.02 Y14.43 Z1.35 F1800.0
M103
G1 X-5.02 Y13.96 Z1.35 F2400.0
M101
G1 X-7.68 Y13.96 Z1.35 F1800.0
M103
G1 X-7.68 Y13.03 Z1.35 F2400.0
M101
G1 X-5.02 Y13.03 Z1.35 F1800.0
M103
G1 X-5.02 Y12.57 Z1.35 F2400.0
M101
G1 X-7.68 Y12.57 Z1.35 F1800.0
M103
G1 X-7.68 Y12.1 Z1.35 F2400.0
M101
G1 X-5.02 Y12.1 Z1.35 F1800.0
M103
G1 X-5.02 Y11.64 Z1.35 F2400.0
M101
G1 X-7.68 Y11.64 Z1.35 F1800.0
M103
G1 X-7.68 Y11.17 Z1.35 F2400.0
M101
G1 X-5.02 Y11.17 Z1.35 F1800.0
M103
G1 X-5.02 Y10.71 Z1.35 F2400.0
M101
G1 X-7.68 Y10.71 Z1.35 F1800.0
M103
G1 X-7.68 Y10.24 Z1.35 F2400.0
M101
G1 X-5.02 Y10.24 Z1.35 F1800.0
M103
G1 X-5.02 Y9.77 Z1.35 F2400.0
M101
G1 X-7.68 Y9.77 Z1.35 F1800.0
M103
G1 X-7.68 Y9.31 Z1.35 F2400.0
M101
G1 X-5.02 Y9.31 Z1.35 F1800.0
M103
G1 X-5.02 Y8.38 Z1.35 F2400.0
M101
G1 X-7.68 Y8.38 Z1.35 F1800.0
M103
G1 X-7.68 Y7.91 Z1.35 F2400.0
M101
G1 X-5.02 Y7.91 Z1.35 F1800.0
M103
G1 X-5.02 Y7.45 Z1.35 F2400.0
M101
G1 X-7.68 Y7.45 Z1.35 F1800.0
M103
G1 X-7.68 Y6.98 Z1.35 F2400.0
M101
G1 X-5.02 Y6.98 Z1.35 F1800.0
M103
G1 X-5.02 Y6.52 Z1.35 F2400.0
M101
G1 X-7.68 Y6.52 Z1.35 F1800.0
M103
G1 X-7.68 Y6.05 Z1.35 F2400.0
M101
G1 X-5.02 Y6.05 Z1.35 F1800.0
M103
G1 X-5.02 Y5.58 Z1.35 F2400.0
M101
G1 X-7.68 Y5.58 Z1.35 F1800.0
M103
G1 X-7.68 Y5.12 Z1.35 F2400.0
M101
G1 X-5.02 Y5.12 Z1.35 F1800.0
M103
G1 X-5.02 Y4.65 Z1.35 F2400.0
M101
G1 X-7.68 Y4.65 Z1.35 F1800.0
M103
G1 X-7.68 Y3.72 Z1.35 F2400.0
M101
G1 X-5.02 Y3.72 Z1.35 F1800.0
M103
G1 X-5.02 Y3.26 Z1.35 F2400.0
M101
G1 X-7.68 Y3.26 Z1.35 F1800.0
M103
G1 X-7.68 Y2.79 Z1.35 F2400.0
M101
G1 X-5.02 Y2.79 Z1.35 F1800.0
M103
G1 X-5.02 Y2.33 Z1.35 F2400.0
M101
G1 X-7.68 Y2.33 Z1.35 F1800.0
M103
G1 X-7.68 Y1.86 Z1.35 F2400.0
M101
G1 X-5.02 Y1.86 Z1.35 F1800.0
M103
G1 X-5.02 Y1.4 Z1.35 F2400.0
M101
G1 X-7.68 Y1.4 Z1.35 F1800.0
M103
G1 X-7.68 Y0.93 Z1.35 F2400.0
M101
G1 X-5.02 Y0.93 Z1.35 F1800.0
M103
G1 X-5.02 Y0.47 Z1.35 F2400.0
M101
G1 X-7.68 Y0.47 Z1.35 F1800.0
M103
G1 X-7.68 Y0.0 Z1.35 F2400.0
M101
G1 X-5.02 Y0.0 Z1.35 F1800.0
M103
G1 X-5.02 Y-0.93 Z1.35 F2400.0
M101
G1 X-7.68 Y-0.93 Z1.35 F1800.0
M103
G1 X-7.68 Y-1.4 Z1.35 F2400.0
M101
G1 X-5.02 Y-1.4 Z1.35 F1800.0
M103
G1 X-5.02 Y-1.86 Z1.35 F2400.0
M101
G1 X-7.68 Y-1.86 Z1.35 F1800.0
M103
G1 X-7.68 Y-2.33 Z1.35 F2400.0
M101
G1 X-5.02 Y-2.33 Z1.35 F1800.0
M103
G1 X-5.02 Y-2.79 Z1.35 F2400.0
M101
G1 X-7.68 Y-2.79 Z1.35 F1800.0
M103
G1 X-7.68 Y-3.26 Z1.35 F2400.0
M101
G1 X-5.02 Y-3.26 Z1.35 F1800.0
M103
G1 X-5.02 Y-3.72 Z1.35 F2400.0
M101
G1 X-7.68 Y-3.72 Z1.35 F1800.0
M103
G1 X-7.68 Y-4.19 Z1.35 F2400.0
M101
G1 X-5.02 Y-4.19 Z1.35 F1800.0
M103
G1 X-5.02 Y-4.65 Z1.35 F2400.0
M101
G1 X-7.68 Y-4.65 Z1.35 F1800.0
M103
G1 X-7.68 Y-5.58 Z1.35 F2400.0
M101
G1 X-5.02 Y-5.58 Z1.35 F1800.0
M103
G1 X-5.02 Y-6.05 Z1.35 F2400.0
M101
G1 X-7.68 Y-6.05 Z1.35 F1800.0
M103
G1 X-7.68 Y-6.52 Z1.35 F2400.0
M101
G1 X-5.02 Y-6.52 Z1.35 F1800.0
M103
G1 X-5.02 Y-6.98 Z1.35 F2400.0
M101
G1 X-7.68 Y-6.98 Z1.35 F1800.0
M103
G1 X-7.68 Y-7.45 Z1.35 F2400.0
M101
G1 X-5.02 Y-7.45 Z1.35 F1800.0
M103
G1 X-5.02 Y-7.91 Z1.35 F2400.0
M101
G1 X-7.68 Y-7.91 Z1.35 F1800.0
M103
G1 X-7.68 Y-8.38 Z1.35 F2400.0
M101
G1 X-5.02 Y-8.38 Z1.35 F1800.0
M103
G1 X-5.02 Y-8.84 Z1.35 F2400.0
M101
G1 X-7.68 Y-8.84 Z1.35 F1800.0
M103
G1 X-7.68 Y-9.31 Z1.35 F2400.0
M101
G1 X-5.02 Y-9.31 Z1.35 F1800.0
M103
G1 X-5.02 Y-10.24 Z1.35 F2400.0
M101
G1 X-7.68 Y-10.24 Z1.35 F1800.0
M103
G1 X-7.68 Y-10.71 Z1.35 F2400.0
M101
G1 X-5.02 Y-10.71 Z1.35 F1800.0
M103
G1 X-5.02 Y-11.17 Z1.35 F2400.0
M101
G1 X-7.68 Y-11.17 Z1.35 F1800.0
M103
G1 X-7.68 Y-11.64 Z1.35 F2400.0
M101
G1 X-5.02 Y-11.64 Z1.35 F1800.0
M103
G1 X-5.02 Y-12.1 Z1.35 F2400.0
M101
G1 X-7.68 Y-12.1 Z1.35 F1800.0
M103
G1 X-7.68 Y-12.57 Z1.35 F2400.0
M101
G1 X-5.02 Y-12.57 Z1.35 F1800.0
M103
G1 X-5.02 Y-13.03 Z1.35 F2400.0
M101
G1 X-7.68 Y-13.03 Z1.35 F1800.0
M103
G1 X-7.68 Y-13.5 Z1.35 F2400.0
M101
G1 X-5.02 Y-13.5 Z1.35 F1800.0
M103
G1 X-5.02 Y-13.96 Z1.35 F2400.0
M101
G1 X-7.68 Y-13.96 Z1.35 F1800.0
M103
G1 X-7.68 Y-14.89 Z1.35 F2400.0
M101
G1 X-5.02 Y-14.89 Z1.35 F1800.0
M103
G1 X-5.02 Y-15.36 Z1.35 F2400.0
M101
G1 X-7.68 Y-15.36 Z1.35 F1800.0
M103
G1 X-7.68 Y-15.82 Z1.35 F2400.0
M101
G1 X-5.02 Y-15.82 Z1.35 F1800.0
M103
G1 X-5.02 Y-16.29 Z1.35 F2400.0
M101
G1 X-7.68 Y-16.29 Z1.35 F1800.0
M103
G1 X-7.68 Y-16.75 Z1.35 F2400.0
M101
G1 X-7.27 Y-16.75 Z1.35 F1800.0
M108 R35.0
M102
G1 X-5.02 Y-16.75 Z1.35 F1800.0
M108 R1.179
M103
M108 R35.0
M101
G1 X-7.68 Y-17.22 Z1.35 F2077.316
M108 R1.179
G1 X7.68 Y-17.22 Z1.35 F1800.0
M103
G1 X7.68 Y-17.69 Z1.35 F2400.0
M101
G1 X-7.68 Y-17.69 Z1.35 F1800.0
M103
G1 X-7.68 Y-18.15 Z1.35 F2400.0
M101
G1 X7.68 Y-18.15 Z1.35 F1800.0
M103
G1 X7.68 Y-18.62 Z1.35 F2400.0
M101
G1 X-7.68 Y-18.62 Z1.35 F1800.0
M103
G1 X-7.68 Y-19.55 Z1.35 F2400.0
M101
G1 X7.68 Y-19.55 Z1.35 F1800.0
M103
G1 X7.68 Y-20.01 Z1.35 F2400.0
M101
G1 X-7.68 Y-20.01 Z1.35 F1800.0
M103
G1 X-7.68 Y-20.48 Z1.35 F2400.0
M101
G1 X7.68 Y-20.48 Z1.35 F1800.0
M103
G1 X7.68 Y-20.94 Z1.35 F2400.0
M101
G1 X-7.68 Y-20.94 Z1.35 F1800.0
M103
G1 X-7.68 Y-21.41 Z1.35 F2400.0
M101
G1 X7.68 Y-21.41 Z1.35 F1800.0
M103
G1 X7.68 Y-21.88 Z1.35 F2400.0
M101
G1 X-7.68 Y-21.88 Z1.35 F1800.0
M103
G1 X-7.68 Y-22.34 Z1.35 F2400.0
M101
G1 X7.68 Y-22.34 Z1.35 F1800.0
M103
G1 X7.68 Y-22.81 Z1.35 F2400.0
M101
G1 X-7.68 Y-22.81 Z1.35 F1800.0
M103
G1 X-7.68 Y-23.27 Z1.35 F2400.0
M101
G1 X-6.27 Y-23.27 Z1.35 F1800.0
M103
G1 X-7.0 Y-23.74 Z1.35 F2400.0
M101
M108 R35.0
M102
G1 X-7.68 Y-23.74 Z1.35 F1190.457
G1 X-7.41 Y-24.2 Z1.35 F1190.457
G1 X-7.68 Y-24.2 Z1.35 F1190.457
M108 R1.179
M103
G1 X-7.68 Y-24.8 Z1.35 F2400.0
M108 R35.0
M101
G1 X-7.68 Y-27.93 Z1.35 F2400.0
M108 R1.179
G1 X-7.34 Y-27.93 Z1.35 F1800.0
G1 X-7.68 Y-28.39 Z1.35 F1800.0
G1 X-6.84 Y-28.39 Z1.35 F1800.0
G1 X-7.21 Y-28.6 Z1.35 F1800.0
M108 R35.0
M102
G1 X-7.68 Y-28.86 Z1.35 F1800.0
G1 X-5.96 Y-28.86 Z1.35 F1800.0
M108 R1.179
M103
M108 R35.0
M101
G1 X-7.68 Y-29.32 Z1.35 F1369.291
M108 R1.179
G1 X7.68 Y-29.32 Z1.35 F1800.0
M103
G1 X7.68 Y-28.86 Z1.35 F2400.0
M101
G1 X-4.04 Y-28.86 Z1.35 F1800.0
M103
G1 X-3.16 Y-28.39 Z1.35 F2400.0
M101
G1 X-2.66 Y-27.93 Z1.35 F1800.0
G1 X7.68 Y-27.93 Z1.35 F1800.0
M103
G1 X7.68 Y-27.46 Z1.35 F2400.0
M101
G1 X-2.37 Y-27.46 Z1.35 F1800.0
M103
G1 X-2.16 Y-26.99 Z1.35 F2400.0
M101
G1 X7.68 Y-26.99 Z1.35 F1800.0
M103
G1 X7.68 Y-26.53 Z1.35 F2400.0
M101
G1 X-2.02 Y-26.53 Z1.35 F1800.0
M103
G1 X-1.99 Y-26.06 Z1.35 F2400.0
M101
G1 X7.68 Y-26.06 Z1.35 F1800.0
M103
G1 X7.68 Y-25.6 Z1.35 F2400.0
M101
G1 X-2.02 Y-25.6 Z1.35 F1800.0
G1 X-2.11 Y-25.13 Z1.35 F1800.0
G1 X7.68 Y-25.13 Z1.35 F1800.0
M103
G1 X7.68 Y-24.67 Z1.35 F2400.0
M101
G1 X-2.31 Y-24.67 Z1.35 F1800.0
G1 X-2.59 Y-24.2 Z1.35 F1800.0
G1 X-3.0 Y-23.74 Z1.35 F1800.0
G1 X7.68 Y-24.2 Z1.35 F1800.0
M103
G1 X7.68 Y-23.27 Z1.35 F2400.0
M101
G1 X-1.48 Y-23.27 Z1.35 F1800.0
M108 R35.0
M102
G1 X-3.73 Y-23.27 Z1.35 F1800.0
M108 R1.179
M103
(</surroundingLoop>)
(</layer>)
(<layer> 1.65 )
(<surroundingLoop>)
(<boundaryPerimeter>)
(<boundaryPoint> X9.0 Y-31.0 Z1.65 </boundaryPoint>)
(<boundaryPoint> X9.0 Y-15.5 Z1.65 </boundaryPoint>)
(<boundaryPoint> X-3.7 Y-15.5 Z1.65 </boundaryPoint>)
(<boundaryPoint> X-3.7 Y15.5 Z1.65 </boundaryPoint>)
(<boundaryPoint> X9.0 Y15.5 Z1.65 </boundaryPoint>)
(<boundaryPoint> X9.0 Y31.0 Z1.65 </boundaryPoint>)
(<boundaryPoint> X-9.0 Y31.0 Z1.65 </boundaryPoint>)
(<boundaryPoint> X-9.0 Y-31.0 Z1.65 </boundaryPoint>)
(<perimeter> outer )
G1 X-5.67 Y-23.27 Z1.47 F2400.0
M108 R35.0
M101
G1 X-8.79 Y-23.27 Z1.65 F2400.0
M108 R1.179
G1 X-8.79 Y-30.79 Z1.65 F1800.0
G1 X8.79 Y-30.79 Z1.65 F1800.0
G1 X8.79 Y-15.71 Z1.65 F1800.0
G1 X-3.91 Y-15.71 Z1.65 F1800.0
G1 X-3.91 Y15.71 Z1.65 F1800.0
G1 X8.79 Y15.71 Z1.65 F1800.0
G1 X8.79 Y30.79 Z1.65 F1800.0
G1 X-8.79 Y30.79 Z1.65 F1800.0
G1 X-8.79 Y-21.02 Z1.65 F1800.0
M108 R35.0
M102
G1 X-8.79 Y-23.27 Z1.65 F1800.0
M108 R1.179
M103
(</perimeter>)
(</boundaryPerimeter>)
(<surroundingLoop>)
(<boundaryPerimeter>)
(<boundaryPoint> X-5.626 Y-27.58 Z1.65 </boundaryPoint>)
(<boundaryPoint> X-5.998 Y-27.374 Z1.65 </boundaryPoint>)
(<boundaryPoint> X-6.309 Y-27.083 Z1.65 </boundaryPoint>)
(<boundaryPoint> X-6.537 Y-26.723 Z1.65 </boundaryPoint>)
(<boundaryPoint> X-6.669 Y-26.319 Z1.65 </boundaryPoint>)
(<boundaryPoint> X-6.696 Y-25.894 Z1.65 </boundaryPoint>)
(<boundaryPoint> X-6.616 Y-25.475 Z1.65 </boundaryPoint>)
(<boundaryPoint> X-6.435 Y-25.09 Z1.65 </boundaryPoint>)
(<boundaryPoint> X-6.163 Y-24.762 Z1.65 </boundaryPoint>)
(<boundaryPoint> X-5.819 Y-24.511 Z1.65 </boundaryPoint>)
(<boundaryPoint> X-5.422 Y-24.354 Z1.65 </boundaryPoint>)
(<boundaryPoint> X-5.0 Y-24.301 Z1.65 </boundaryPoint>)
(<boundaryPoint> X-4.578 Y-24.354 Z1.65 </boundaryPoint>)
(<boundaryPoint> X-4.181 Y-24.511 Z1.65 </boundaryPoint>)
(<boundaryPoint> X-3.837 Y-24.762 Z1.65 </boundaryPoint>)
(<boundaryPoint> X-3.566 Y-25.09 Z1.65 </boundaryPoint>)
(<boundaryPoint> X-3.384 Y-25.475 Z1.65 </boundaryPoint>)
(<boundaryPoint> X-3.304 Y-25.894 Z1.65 </boundaryPoint>)
(<boundaryPoint> X-3.331 Y-26.319 Z1.65 </boundaryPoint>)
(<boundaryPoint> X-3.463 Y-26.724 Z1.65 </boundaryPoint>)
(<boundaryPoint> X-3.691 Y-27.083 Z1.65 </boundaryPoint>)
(<boundaryPoint> X-4.002 Y-27.374 Z1.65 </boundaryPoint>)
(<boundaryPoint> X-4.374 Y-27.58 Z1.65 </boundaryPoint>)
(<boundaryPoint> X-4.785 Y-27.685 Z1.65 </boundaryPoint>)
(<boundaryPoint> X-5.215 Y-27.685 Z1.65 </boundaryPoint>)
(<perimeter> inner )
M108 R35.0
M101
G1 X-6.61 Y-24.98 Z1.65 F2127.08
M108 R1.179
G1 X-6.31 Y-24.61 Z1.65 F1800.0
G1 X-5.92 Y-24.33 Z1.65 F1800.0
G1 X-5.47 Y-24.15 Z1.65 F1800.0
G1 X-5.0 Y-24.09 Z1.65 F1800.0
G1 X-4.53 Y-24.15 Z1.65 F1800.0
G1 X-4.08 Y-24.33 Z1.65 F1800.0
G1 X-3.69 Y-24.61 Z1.65 F1800.0
G1 X-3.39 Y-24.98 Z1.65 F1800.0
G1 X-3.18 Y-25.41 Z1.65 F1800.0
G1 X-3.09 Y-25.88 Z1.65 F1800.0
G1 X-3.12 Y-26.36 Z1.65 F1800.0
G1 X-3.27 Y-26.81 Z1.65 F1800.0
G1 X-3.53 Y-27.22 Z1.65 F1800.0
G1 X-3.88 Y-27.55 Z1.65 F1800.0
G1 X-4.3 Y-27.78 Z1.65 F1800.0
G1 X-4.76 Y-27.89 Z1.65 F1800.0
G1 X-5.24 Y-27.89 Z1.65 F1800.0
G1 X-5.7 Y-27.78 Z1.65 F1800.0
G1 X-6.12 Y-27.55 Z1.65 F1800.0
G1 X-6.47 Y-27.22 Z1.65 F1800.0
G1 X-6.55 Y-27.1 Z1.65 F1800.0
M108 R35.0
M102
G1 X-6.73 Y-26.81 Z1.65 F1800.0
G1 X-6.88 Y-26.36 Z1.65 F1800.0
G1 X-6.91 Y-25.88 Z1.65 F1800.0
G1 X-6.82 Y-25.41 Z1.65 F1800.0
G1 X-6.61 Y-24.98 Z1.65 F1800.0
M108 R1.179
M103
(</perimeter>)
(</boundaryPerimeter>)
(</surroundingLoop>)
(<surroundingLoop>)
(<boundaryPerimeter>)
(<boundaryPoint> X-3.304 Y25.894 Z1.65 </boundaryPoint>)
(<boundaryPoint> X-3.384 Y25.475 Z1.65 </boundaryPoint>)
(<boundaryPoint> X-3.566 Y25.09 Z1.65 </boundaryPoint>)
(<boundaryPoint> X-3.837 Y24.762 Z1.65 </boundaryPoint>)
(<boundaryPoint> X-4.181 Y24.511 Z1.65 </boundaryPoint>)
(<boundaryPoint> X-4.578 Y24.354 Z1.65 </boundaryPoint>)
(<boundaryPoint> X-5.0 Y24.301 Z1.65 </boundaryPoint>)
(<boundaryPoint> X-5.422 Y24.354 Z1.65 </boundaryPoint>)
(<boundaryPoint> X-5.819 Y24.511 Z1.65 </boundaryPoint>)
(<boundaryPoint> X-6.163 Y24.762 Z1.65 </boundaryPoint>)
(<boundaryPoint> X-6.435 Y25.091 Z1.65 </boundaryPoint>)
(<boundaryPoint> X-6.616 Y25.475 Z1.65 </boundaryPoint>)
(<boundaryPoint> X-6.696 Y25.894 Z1.65 </boundaryPoint>)
(<boundaryPoint> X-6.669 Y26.319 Z1.65 </boundaryPoint>)
(<boundaryPoint> X-6.535 Y26.73 Z1.65 </boundaryPoint>)
(<boundaryPoint> X-6.439 Y26.906 Z1.65 </boundaryPoint>)
(<boundaryPoint> X-6.159 Y27.243 Z1.65 </boundaryPoint>)
(<boundaryPoint> X-6.004 Y27.371 Z1.65 </boundaryPoint>)
(<boundaryPoint> X-5.626 Y27.58 Z1.65 </boundaryPoint>)
(<boundaryPoint> X-5.215 Y27.685 Z1.65 </boundaryPoint>)
(<boundaryPoint> X-4.785 Y27.685 Z1.65 </boundaryPoint>)
(<boundaryPoint> X-4.374 Y27.58 Z1.65 </boundaryPoint>)
(<boundaryPoint> X-4.002 Y27.374 Z1.65 </boundaryPoint>)
(<boundaryPoint> X-3.691 Y27.083 Z1.65 </boundaryPoint>)
(<boundaryPoint> X-3.463 Y26.724 Z1.65 </boundaryPoint>)
(<boundaryPoint> X-3.331 Y26.319 Z1.65 </boundaryPoint>)
(<perimeter> inner )
G1 X-5.1 Y20.97 Z1.65 F2400.0
M108 R35.0
M101
G1 X-5.0 Y24.09 Z1.65 F2400.0
M108 R1.179
G1 X-5.47 Y24.15 Z1.65 F1800.0
G1 X-5.92 Y24.33 Z1.65 F1800.0
G1 X-6.31 Y24.61 Z1.65 F1800.0
G1 X-6.61 Y24.98 Z1.65 F1800.0
G1 X-6.82 Y25.41 Z1.65 F1800.0
G1 X-6.91 Y25.88 Z1.65 F1800.0
G1 X-6.88 Y26.36 Z1.65 F1800.0
G1 X-6.73 Y26.81 Z1.65 F1800.0
G1 X-6.61 Y27.02 Z1.65 F1800.0
G1 X-6.31 Y27.39 Z1.65 F1800.0
G1 X-6.12 Y27.55 Z1.65 F1800.0
G1 X-5.7 Y27.78 Z1.65 F1800.0
G1 X-5.24 Y27.89 Z1.65 F1800.0
G1 X-4.76 Y27.89 Z1.65 F1800.0
G1 X-4.3 Y27.78 Z1.65 F1800.0
G1 X-3.88 Y27.55 Z1.65 F1800.0
G1 X-3.53 Y27.22 Z1.65 F1800.0
G1 X-3.27 Y26.81 Z1.65 F1800.0
G1 X-3.12 Y26.36 Z1.65 F1800.0
G1 X-3.09 Y25.88 Z1.65 F1800.0
G1 X-3.18 Y25.41 Z1.65 F1800.0
G1 X-3.39 Y24.98 Z1.65 F1800.0
G1 X-3.69 Y24.61 Z1.65 F1800.0
G1 X-4.08 Y24.33 Z1.65 F1800.0
G1 X-4.53 Y24.15 Z1.65 F1800.0
G1 X-5.0 Y24.09 Z1.65 F1800.0
M103
(</perimeter>)
(</boundaryPerimeter>)
(</surroundingLoop>)
(<loop> inner )
G1 X-5.0 Y23.67 Z1.65 F2400.0
M101
G1 X-5.58 Y23.74 Z1.65 F1800.0
G1 X-6.13 Y23.96 Z1.65 F1800.0
G1 X-6.6 Y24.3 Z1.65 F1800.0
G1 X-6.97 Y24.75 Z1.65 F1800.0
G1 X-7.22 Y25.28 Z1.65 F1800.0
G1 X-7.33 Y25.85 Z1.65 F1800.0
G1 X-7.29 Y26.44 Z1.65 F1800.0
G1 X-7.11 Y26.98 Z1.65 F1800.0
G1 X-6.96 Y27.26 Z1.65 F1800.0
G1 X-6.61 Y27.69 Z1.65 F1800.0
G1 X-6.36 Y27.89 Z1.65 F1800.0
G1 X-5.86 Y28.17 Z1.65 F1800.0
G1 X-5.29 Y28.31 Z1.65 F1800.0
G1 X-4.71 Y28.31 Z1.65 F1800.0
G1 X-4.14 Y28.17 Z1.65 F1800.0
G1 X-3.63 Y27.89 Z1.65 F1800.0
G1 X-3.2 Y27.49 Z1.65 F1800.0
G1 X-2.89 Y26.99 Z1.65 F1800.0
G1 X-2.71 Y26.44 Z1.65 F1800.0
G1 X-2.67 Y25.85 Z1.65 F1800.0
G1 X-2.78 Y25.28 Z1.65 F1800.0
G1 X-3.03 Y24.75 Z1.65 F1800.0
G1 X-3.4 Y24.3 Z1.65 F1800.0
G1 X-3.88 Y23.96 Z1.65 F1800.0
G1 X-4.42 Y23.74 Z1.65 F1800.0
G1 X-5.0 Y23.67 Z1.65 F1800.0
M103
(</loop>)
(<loop> outer )
G1 X-5.0 Y23.25 Z1.65 F2400.0
M101
G1 X-5.68 Y23.33 Z1.65 F1800.0
G1 X-6.33 Y23.59 Z1.65 F1800.0
G1 X-6.89 Y23.99 Z1.65 F1800.0
G1 X-7.33 Y24.52 Z1.65 F1800.0
G1 X-7.47 Y24.82 Z1.65 F1800.0
G1 X-7.95 Y24.76 Z1.65 F1800.0
G1 X-7.95 Y-24.76 Z1.65 F1800.0
G1 X-7.47 Y-24.82 Z1.65 F1800.0
G1 X-7.33 Y-24.52 Z1.65 F1800.0
G1 X-6.89 Y-23.99 Z1.65 F1800.0
G1 X-6.33 Y-23.59 Z1.65 F1800.0
G1 X-5.68 Y-23.33 Z1.65 F1800.0
G1 X-5.0 Y-23.25 Z1.65 F1800.0
G1 X-4.32 Y-23.33 Z1.65 F1800.0
G1 X-3.67 Y-23.59 Z1.65 F1800.0
G1 X-3.11 Y-23.99 Z1.65 F1800.0
G1 X-2.67 Y-24.52 Z1.65 F1800.0
G1 X-2.38 Y-25.15 Z1.65 F1800.0
G1 X-2.25 Y-25.83 Z1.65 F1800.0
G1 X-2.29 Y-26.52 Z1.65 F1800.0
G1 X-2.51 Y-27.17 Z1.65 F1800.0
G1 X-2.88 Y-27.76 Z1.65 F1800.0
G1 X-3.38 Y-28.23 Z1.65 F1800.0
G1 X-3.98 Y-28.56 Z1.65 F1800.0
G1 X-4.65 Y-28.73 Z1.65 F1800.0
G1 X-5.35 Y-28.73 Z1.65 F1800.0
G1 X-6.02 Y-28.56 Z1.65 F1800.0
G1 X-6.62 Y-28.23 Z1.65 F1800.0
G1 X-7.12 Y-27.76 Z1.65 F1800.0
G1 X-7.49 Y-27.17 Z1.65 F1800.0
G1 X-7.62 Y-26.79 Z1.65 F1800.0
G1 X-8.05 Y-26.58 Z1.65 F1800.0
G1 X-7.95 Y-27.22 Z1.65 F1800.0
G1 X-7.95 Y-29.95 Z1.65 F1800.0
G1 X7.95 Y-29.95 Z1.65 F1800.0
G1 X7.95 Y-16.55 Z1.65 F1800.0
G1 X-4.75 Y-16.55 Z1.65 F1800.0
G1 X-4.75 Y16.55 Z1.65 F1800.0
G1 X7.95 Y16.55 Z1.65 F1800.0
G1 X7.95 Y29.95 Z1.65 F1800.0
G1 X-7.95 Y29.95 Z1.65 F1800.0
G1 X-7.95 Y27.22 Z1.65 F1800.0
G1 X-8.05 Y26.58 Z1.65 F1800.0
G1 X-7.62 Y26.79 Z1.65 F1800.0
G1 X-7.5 Y27.15 Z1.65 F1800.0
G1 X-7.31 Y27.5 Z1.65 F1800.0
G1 X-6.9 Y27.99 Z1.65 F1800.0
G1 X-6.6 Y28.24 Z1.65 F1800.0
G1 X-6.01 Y28.56 Z1.65 F1800.0
G1 X-5.35 Y28.73 Z1.65 F1800.0
G1 X-4.65 Y28.73 Z1.65 F1800.0
G1 X-3.98 Y28.56 Z1.65 F1800.0
G1 X-3.38 Y28.23 Z1.65 F1800.0
G1 X-2.88 Y27.76 Z1.65 F1800.0
G1 X-2.51 Y27.17 Z1.65 F1800.0
G1 X-2.29 Y26.52 Z1.65 F1800.0
G1 X-2.25 Y25.83 Z1.65 F1800.0
G1 X-2.38 Y25.15 Z1.65 F1800.0
G1 X-2.67 Y24.52 Z1.65 F1800.0
G1 X-3.0 Y24.13 Z1.65 F1800.0
M108 R35.0
M102
G1 X-3.11 Y23.99 Z1.65 F1800.0
G1 X-3.67 Y23.59 Z1.65 F1800.0
G1 X-4.32 Y23.33 Z1.65 F1800.0
G1 X-5.0 Y23.25 Z1.65 F1800.0
M108 R1.179
M103
(</loop>)
(<loop> inner )
G1 X-5.0 Y-20.55 Z1.65 F2400.0
M108 R35.0
M101
G1 X-5.0 Y-23.67 Z1.65 F2400.0
M108 R1.179
G1 X-4.42 Y-23.74 Z1.65 F1800.0
G1 X-3.88 Y-23.96 Z1.65 F1800.0
G1 X-3.4 Y-24.3 Z1.65 F1800.0
G1 X-3.03 Y-24.75 Z1.65 F1800.0
G1 X-2.78 Y-25.28 Z1.65 F1800.0
G1 X-2.67 Y-25.85 Z1.65 F1800.0
G1 X-2.71 Y-26.44 Z1.65 F1800.0
G1 X-2.89 Y-26.99 Z1.65 F1800.0
G1 X-3.2 Y-27.49 Z1.65 F1800.0
G1 X-3.63 Y-27.89 Z1.65 F1800.0
G1 X-4.14 Y-28.17 Z1.65 F1800.0
G1 X-4.71 Y-28.31 Z1.65 F1800.0
G1 X-5.29 Y-28.31 Z1.65 F1800.0
G1 X-5.86 Y-28.17 Z1.65 F1800.0
G1 X-6.37 Y-27.89 Z1.65 F1800.0
G1 X-6.8 Y-27.49 Z1.65 F1800.0
G1 X-7.11 Y-26.99 Z1.65 F1800.0
G1 X-7.29 Y-26.44 Z1.65 F1800.0
G1 X-7.33 Y-25.85 Z1.65 F1800.0
G1 X-7.22 Y-25.28 Z1.65 F1800.0
G1 X-6.97 Y-24.75 Z1.65 F1800.0
G1 X-6.91 Y-24.68 Z1.65 F1800.0
M108 R35.0
M102
G1 X-6.6 Y-24.3 Z1.65 F1800.0
G1 X-6.13 Y-23.96 Z1.65 F1800.0
G1 X-5.58 Y-23.74 Z1.65 F1800.0
G1 X-5.0 Y-23.67 Z1.65 F1800.0
M108 R1.179
M103
(</loop>)
(<loop> outer )
G1 X-5.25 Y-23.67 Z1.65 F2400.0
M108 R35.0
M101
G1 X-8.37 Y-23.67 Z1.65 F2400.0
M108 R1.179
G1 X-8.37 Y-30.37 Z1.65 F1800.0
G1 X8.37 Y-30.37 Z1.65 F1800.0
G1 X8.37 Y-16.13 Z1.65 F1800.0
G1 X-4.33 Y-16.13 Z1.65 F1800.0
G1 X-4.33 Y16.13 Z1.65 F1800.0
G1 X8.37 Y16.13 Z1.65 F1800.0
G1 X8.37 Y30.37 Z1.65 F1800.0
G1 X-8.37 Y30.37 Z1.65 F1800.0
G1 X-8.37 Y-21.42 Z1.65 F1800.0
M108 R35.0
M102
G1 X-8.37 Y-23.67 Z1.65 F1800.0
M108 R1.179
M103
(</loop>)
G1 X-7.51 Y21.13 Z1.65 F2400.0
M108 R35.0
M101
G1 X-7.45 Y24.24 Z1.65 F2400.0
M108 R1.179
G1 X-7.45 Y-24.24 Z1.65 F1800.0
G1 X-6.98 Y-23.73 Z1.65 F1800.0
G1 X-6.98 Y23.73 Z1.65 F1800.0
G1 X-6.52 Y23.39 Z1.65 F1800.0
G1 X-6.52 Y-23.39 Z1.65 F1800.0
M103
G1 X-6.05 Y-23.18 Z1.65 F2400.0
M101
G1 X-6.05 Y23.18 Z1.65 F1800.0
M103
G1 X-5.58 Y23.05 Z1.65 F2400.0
M101
G1 X-5.58 Y-20.8 Z1.65 F1800.0
M108 R35.0
M102
G1 X-5.58 Y-23.05 Z1.65 F1800.0
M108 R1.179
M103
M108 R35.0
M101
G1 X-3.72 Y-23.27 Z1.65 F1443.006
M108 R1.179
G1 X-3.72 Y-16.82 Z1.65 F1800.0
M103
G1 X-2.79 Y-16.82 Z1.65 F2400.0
M101
G1 X-2.79 Y-23.95 Z1.65 F1800.0
G1 X-3.26 Y-23.55 Z1.65 F1800.0
G1 X-3.26 Y-16.82 Z1.65 F1800.0
M103
G1 X-2.33 Y-16.82 Z1.65 F2400.0
M101
G1 X-2.33 Y-22.37 Z1.65 F1800.0
M108 R35.0
M102
G1 X-2.33 Y-24.62 Z1.65 F1800.0
M108 R1.179
M103
G1 X-3.47 Y-27.27 Z1.65 F2400.0
G1 X-3.83 Y-27.61 Z1.65 F2400.0
G1 X-4.27 Y-27.85 Z1.65 F2400.0
G1 X-4.35 Y-27.87 Z1.65 F2400.0
M108 R35.0
M101
G1 X-4.75 Y-27.97 Z1.65 F2400.0
G1 X-7.45 Y-27.75 Z1.65 F2400.0
M108 R1.179
G1 X-7.45 Y-29.68 Z1.65 F1800.0
G1 X-6.98 Y-29.68 Z1.65 F1800.0
G1 X-6.98 Y-28.26 Z1.65 F1800.0
G1 X-6.52 Y-28.6 Z1.65 F1800.0
G1 X-6.52 Y-29.68 Z1.65 F1800.0
G1 X-6.05 Y-29.68 Z1.65 F1800.0
G1 X-6.05 Y-28.83 Z1.65 F1800.0
G1 X-5.58 Y-29.68 Z1.65 F1800.0
G1 X-5.58 Y-28.95 Z1.65 F1800.0
G1 X-5.12 Y-29.68 Z1.65 F1800.0
G1 X-5.12 Y-29.0 Z1.65 F1800.0
G1 X-4.65 Y-29.68 Z1.65 F1800.0
G1 X-4.65 Y-29.0 Z1.65 F1800.0
G1 X-4.19 Y-29.68 Z1.65 F1800.0
G1 X-4.19 Y-28.89 Z1.65 F1800.0
G1 X-3.72 Y-29.68 Z1.65 F1800.0
G1 X-3.72 Y-28.73 Z1.65 F1800.0
G1 X-3.26 Y-29.68 Z1.65 F1800.0
G1 X-3.26 Y-28.47 Z1.65 F1800.0
G1 X-2.79 Y-28.05 Z1.65 F1800.0
G1 X-2.79 Y-29.68 Z1.65 F1800.0
G1 X-2.33 Y-29.68 Z1.65 F1800.0
G1 X-2.33 Y-29.65 Z1.65 F1800.0
M108 R35.0
M102
G1 X-2.33 Y-27.4 Z1.65 F1800.0
M108 R1.179
M103
G1 X4.41 Y-28.97 Z1.65 F2400.0
M108 R35.0
M101
G1 X7.45 Y-29.68 Z1.65 F2400.0
M108 R1.179
G1 X7.45 Y-16.82 Z1.65 F1800.0
M103
G1 X6.98 Y-16.82 Z1.65 F2400.0
M101
G1 X6.98 Y-29.68 Z1.65 F1800.0
G1 X6.52 Y-29.68 Z1.65 F1800.0
G1 X6.52 Y-16.82 Z1.65 F1800.0
M103
G1 X6.05 Y-16.82 Z1.65 F2400.0
M101
G1 X6.05 Y-29.68 Z1.65 F1800.0
G1 X5.12 Y-29.68 Z1.65 F1800.0
G1 X5.12 Y-17.29 Z1.65 F1800.0
G1 X5.58 Y-16.82 Z1.65 F1800.0
M103
G1 X4.65 Y-16.82 Z1.65 F2400.0
M101
G1 X4.65 Y-29.68 Z1.65 F1800.0
G1 X4.19 Y-29.68 Z1.65 F1800.0
G1 X4.19 Y-16.82 Z1.65 F1800.0
M103
G1 X3.72 Y-16.82 Z1.65 F2400.0
M101
G1 X3.72 Y-29.68 Z1.65 F1800.0
G1 X3.26 Y-29.68 Z1.65 F1800.0
G1 X3.26 Y-16.82 Z1.65 F1800.0
M103
G1 X2.79 Y-16.82 Z1.65 F2400.0
M101
G1 X2.79 Y-29.68 Z1.65 F1800.0
G1 X2.33 Y-29.68 Z1.65 F1800.0
G1 X2.33 Y-16.82 Z1.65 F1800.0
M103
G1 X1.86 Y-16.82 Z1.65 F2400.0
M101
G1 X1.86 Y-29.68 Z1.65 F1800.0
G1 X1.4 Y-29.68 Z1.65 F1800.0
G1 X1.4 Y-16.82 Z1.65 F1800.0
M103
G1 X0.93 Y-16.82 Z1.65 F2400.0
M101
G1 X0.93 Y-29.68 Z1.65 F1800.0
G1 X-0.0 Y-29.68 Z1.65 F1800.0
G1 X-0.0 Y-16.82 Z1.65 F1800.0
M103
G1 X-0.47 Y-16.82 Z1.65 F2400.0
M101
G1 X-0.47 Y-29.68 Z1.65 F1800.0
G1 X-0.93 Y-29.68 Z1.65 F1800.0
G1 X-0.93 Y-16.82 Z1.65 F1800.0
M103
G1 X-1.4 Y-16.82 Z1.65 F2400.0
M101
G1 X-1.4 Y-29.68 Z1.65 F1800.0
G1 X-1.86 Y-29.68 Z1.65 F1800.0
G1 X-1.86 Y-19.07 Z1.65 F1800.0
M108 R35.0
M102
G1 X-1.86 Y-16.82 Z1.65 F1800.0
M108 R1.179
M103
M108 R35.0
M101
G1 X-4.65 Y-16.82 Z1.65 F2147.692
M108 R1.179
G1 X-4.19 Y-23.09 Z1.65 F1800.0
G1 X-5.12 Y-22.99 Z1.65 F1800.0
G1 X-5.12 Y22.99 Z1.65 F1800.0
G1 X-4.19 Y23.09 Z1.65 F1800.0
G1 X-4.65 Y16.82 Z1.65 F1800.0
M103
G1 X-3.72 Y16.82 Z1.65 F2400.0
M101
G1 X-3.72 Y21.02 Z1.65 F1800.0
M108 R35.0
M102
G1 X-3.72 Y23.27 Z1.65 F1800.0
M108 R1.179
M103
M108 R35.0
M101
G1 X-2.33 Y24.62 Z1.65 F1493.837
M108 R1.179
G1 X-2.33 Y16.82 Z1.65 F1800.0
M103
G1 X-3.26 Y16.82 Z1.65 F2400.0
M101
G1 X-3.26 Y23.55 Z1.65 F1800.0
G1 X-2.79 Y23.95 Z1.65 F1800.0
G1 X-2.79 Y16.82 Z1.65 F1800.0
M103
G1 X-1.86 Y16.82 Z1.65 F2400.0
M101
G1 X-1.86 Y29.68 Z1.65 F1800.0
G1 X-1.4 Y29.68 Z1.65 F1800.0
G1 X-1.4 Y16.82 Z1.65 F1800.0
M103
G1 X-0.93 Y16.82 Z1.65 F2400.0
M101
G1 X-0.93 Y29.68 Z1.65 F1800.0
G1 X-0.47 Y29.68 Z1.65 F1800.0
G1 X-0.47 Y16.82 Z1.65 F1800.0
M103
G1 X0.0 Y16.82 Z1.65 F2400.0
M101
G1 X0.0 Y29.68 Z1.65 F1800.0
G1 X0.93 Y29.68 Z1.65 F1800.0
G1 X0.93 Y16.82 Z1.65 F1800.0
M103
G1 X1.4 Y16.82 Z1.65 F2400.0
M101
G1 X1.4 Y29.68 Z1.65 F1800.0
G1 X1.86 Y29.68 Z1.65 F1800.0
G1 X1.86 Y16.82 Z1.65 F1800.0
M103
G1 X2.33 Y16.82 Z1.65 F2400.0
M101
G1 X2.33 Y29.68 Z1.65 F1800.0
G1 X2.79 Y29.68 Z1.65 F1800.0
G1 X2.79 Y16.82 Z1.65 F1800.0
M103
G1 X3.26 Y16.82 Z1.65 F2400.0
M101
G1 X3.26 Y29.68 Z1.65 F1800.0
G1 X3.72 Y29.68 Z1.65 F1800.0
G1 X3.72 Y16.82 Z1.65 F1800.0
M103
G1 X4.19 Y16.82 Z1.65 F2400.0
M101
G1 X4.19 Y29.68 Z1.65 F1800.0
G1 X4.65 Y29.68 Z1.65 F1800.0
G1 X4.65 Y16.82 Z1.65 F1800.0
M103
G1 X5.58 Y16.82 Z1.65 F2400.0
M101
G1 X5.12 Y17.29 Z1.65 F1800.0
G1 X5.12 Y29.68 Z1.65 F1800.0
G1 X6.05 Y29.68 Z1.65 F1800.0
G1 X6.05 Y16.82 Z1.65 F1800.0
M103
G1 X6.52 Y16.82 Z1.65 F2400.0
M101
G1 X6.52 Y29.68 Z1.65 F1800.0
G1 X6.98 Y29.68 Z1.65 F1800.0
G1 X6.98 Y16.82 Z1.65 F1800.0
M103
G1 X7.45 Y16.82 Z1.65 F2400.0
M101
G1 X7.45 Y27.43 Z1.65 F1800.0
M108 R35.0
M102
G1 X7.45 Y29.68 Z1.65 F1800.0
M108 R1.179
M103
G1 X0.79 Y29.68 Z1.65 F2400.0
M108 R35.0
M101
G1 X-2.33 Y29.68 Z1.65 F2400.0
M108 R1.179
G1 X-2.33 Y27.4 Z1.65 F1800.0
M103
G1 X-2.79 Y28.05 Z1.65 F2400.0
M101
G1 X-2.79 Y29.68 Z1.65 F1800.0
G1 X-3.26 Y29.68 Z1.65 F1800.0
G1 X-3.26 Y28.47 Z1.65 F1800.0
M103
G1 X-3.72 Y28.73 Z1.65 F2400.0
M101
G1 X-3.72 Y29.68 Z1.65 F1800.0
G1 X-4.19 Y29.68 Z1.65 F1800.0
G1 X-4.19 Y28.89 Z1.65 F1800.0
G1 X-4.65 Y29.68 Z1.65 F1800.0
G1 X-4.65 Y29.0 Z1.65 F1800.0
G1 X-5.12 Y29.68 Z1.65 F1800.0
G1 X-5.12 Y29.0 Z1.65 F1800.0
G1 X-5.58 Y29.68 Z1.65 F1800.0
G1 X-5.58 Y28.95 Z1.65 F1800.0
G1 X-6.05 Y29.68 Z1.65 F1800.0
G1 X-6.05 Y28.83 Z1.65 F1800.0
G1 X-6.52 Y29.68 Z1.65 F1800.0
G1 X-6.52 Y28.6 Z1.65 F1800.0
M103
G1 X-6.98 Y28.27 Z1.65 F2400.0
M101
G1 X-6.98 Y29.68 Z1.65 F1800.0
G1 X-7.12 Y29.68 Z1.65 F1800.0
M108 R35.0
M102
G1 X-7.45 Y29.68 Z1.65 F1800.0
G1 X-7.45 Y27.76 Z1.65 F1800.0
M108 R1.179
M103
(</surroundingLoop>)
(</layer>)
(<layer> 1.95 )
(<surroundingLoop>)
(<boundaryPerimeter>)
(<boundaryPoint> X9.0 Y-31.0 Z1.95 </boundaryPoint>)
(<boundaryPoint> X9.0 Y-15.5 Z1.95 </boundaryPoint>)
(<boundaryPoint> X-3.7 Y-15.5 Z1.95 </boundaryPoint>)
(<boundaryPoint> X-3.7 Y15.5 Z1.95 </boundaryPoint>)
(<boundaryPoint> X9.0 Y15.5 Z1.95 </boundaryPoint>)
(<boundaryPoint> X9.0 Y31.0 Z1.95 </boundaryPoint>)
(<boundaryPoint> X-9.0 Y31.0 Z1.95 </boundaryPoint>)
(<boundaryPoint> X-9.0 Y-31.0 Z1.95 </boundaryPoint>)
(<perimeter> outer )
M108 R35.0
M101
G1 X-8.79 Y27.76 Z1.95 F1058.538
M108 R1.179
G1 X-8.79 Y-30.79 Z1.95 F1800.0
G1 X8.79 Y-30.79 Z1.95 F1800.0
G1 X8.79 Y-15.71 Z1.95 F1800.0
G1 X-3.91 Y-15.71 Z1.95 F1800.0
G1 X-3.91 Y15.71 Z1.95 F1800.0
G1 X8.79 Y15.71 Z1.95 F1800.0
G1 X8.79 Y30.79 Z1.95 F1800.0
G1 X-8.79 Y30.79 Z1.95 F1800.0
G1 X-8.79 Y30.01 Z1.95 F1800.0
M108 R35.0
M102
G1 X-8.79 Y27.76 Z1.95 F1800.0
M108 R1.179
M103
(</perimeter>)
(</boundaryPerimeter>)
(<surroundingLoop>)
(<boundaryPerimeter>)
(<boundaryPoint> X-3.304 Y25.894 Z1.95 </boundaryPoint>)
(<boundaryPoint> X-3.384 Y25.475 Z1.95 </boundaryPoint>)
(<boundaryPoint> X-3.566 Y25.09 Z1.95 </boundaryPoint>)
(<boundaryPoint> X-3.837 Y24.762 Z1.95 </boundaryPoint>)
(<boundaryPoint> X-4.181 Y24.511 Z1.95 </boundaryPoint>)
(<boundaryPoint> X-4.578 Y24.354 Z1.95 </boundaryPoint>)
(<boundaryPoint> X-5.0 Y24.301 Z1.95 </boundaryPoint>)
(<boundaryPoint> X-5.422 Y24.354 Z1.95 </boundaryPoint>)
(<boundaryPoint> X-5.819 Y24.511 Z1.95 </boundaryPoint>)
(<boundaryPoint> X-6.163 Y24.762 Z1.95 </boundaryPoint>)
(<boundaryPoint> X-6.435 Y25.091 Z1.95 </boundaryPoint>)
(<boundaryPoint> X-6.616 Y25.475 Z1.95 </boundaryPoint>)
(<boundaryPoint> X-6.696 Y25.894 Z1.95 </boundaryPoint>)
(<boundaryPoint> X-6.669 Y26.319 Z1.95 </boundaryPoint>)
(<boundaryPoint> X-6.535 Y26.73 Z1.95 </boundaryPoint>)
(<boundaryPoint> X-6.439 Y26.906 Z1.95 </boundaryPoint>)
(<boundaryPoint> X-6.159 Y27.243 Z1.95 </boundaryPoint>)
(<boundaryPoint> X-6.004 Y27.371 Z1.95 </boundaryPoint>)
(<boundaryPoint> X-5.626 Y27.58 Z1.95 </boundaryPoint>)
(<boundaryPoint> X-5.215 Y27.685 Z1.95 </boundaryPoint>)
(<boundaryPoint> X-4.785 Y27.685 Z1.95 </boundaryPoint>)
(<boundaryPoint> X-4.374 Y27.58 Z1.95 </boundaryPoint>)
(<boundaryPoint> X-4.002 Y27.374 Z1.95 </boundaryPoint>)
(<boundaryPoint> X-3.691 Y27.083 Z1.95 </boundaryPoint>)
(<boundaryPoint> X-3.463 Y26.724 Z1.95 </boundaryPoint>)
(<boundaryPoint> X-3.331 Y26.319 Z1.95 </boundaryPoint>)
(<perimeter> inner )
M108 R35.0
M101
G1 X-6.73 Y26.81 Z1.95 F1744.793
M108 R1.179
G1 X-6.61 Y27.02 Z1.95 F1800.0
G1 X-6.31 Y27.39 Z1.95 F1800.0
G1 X-6.12 Y27.55 Z1.95 F1800.0
G1 X-5.7 Y27.78 Z1.95 F1800.0
G1 X-5.24 Y27.89 Z1.95 F1800.0
G1 X-4.76 Y27.89 Z1.95 F1800.0
G1 X-4.3 Y27.78 Z1.95 F1800.0
G1 X-3.88 Y27.55 Z1.95 F1800.0
G1 X-3.53 Y27.22 Z1.95 F1800.0
G1 X-3.27 Y26.81 Z1.95 F1800.0
G1 X-3.12 Y26.36 Z1.95 F1800.0
G1 X-3.09 Y25.88 Z1.95 F1800.0
G1 X-3.18 Y25.41 Z1.95 F1800.0
G1 X-3.39 Y24.98 Z1.95 F1800.0
G1 X-3.69 Y24.61 Z1.95 F1800.0
