(** This GCode was generated by ReplicatorG 0040 **)
(*  using Skeinforge (35) - Legacy  *)
(*  for a Single headed Thing-O-Matic  *)
(*  on 2016/03/04 19:32:36 (-0300) *)
(**** beginning of start.gcode ****)
(This file is for a MakerBot Thing-O-Matic)
(**** begin initialization commands ****)
G21 (set units to mm)
G90 (set positioning to absolute)
M108 R5.0 (set extruder speed)
M103 (Make sure extruder is off)
M104 S220 T0 (set extruder temperature) (temp updated by printOMatic)
M109 S100 T0 (set heated-build-platform temperature)
(**** end initialization commands ****)
(**** begin homing ****)
G162 Z F1000 (home Z axis maximum)
G92 Z10 (set Z to 0)
G1 Z0 (move z down 10)
G162 Z F150 (home Z axis maximum)
G161 X Y F2500 (home XY axes minimum)
M132 X Y Z A B (Recall stored home offsets for XYZAB axis)
(**** end homing ****)
(**** begin pre-wipe commands ****)
( Some people have had problems with the nozzle hitting )
( bolts or wipers during this pre-extrusion warmup.     )
( If this happens to you, you can change the values for )
( the X and Y positions in the following code.          )
( The goal is to have the toolhead wipe its initial     )
( extrusion near the edge of the platform, [anchor it]  )
( so as not to have it interfere with the print.        )
( This file can be found in:                            )
( replicatorg/skein_engines/skeinforge-##/skeinforge_application/ )
( prefs/<profile name [e.g. Thingomatic-ABP-Mk7]>/alterations )
G1 X25 Y-60 Z10 F3300.0 (move to waiting position)
M6 T0 (wait for toolhead parts, nozzle, HBP, etc., to reach temperature)
G0 X25 Y-57 (Position Nozzle)
G0 Z0.6     (Position Height)
M108 R4.0   (Set Extruder Speed)
M101        (Start Extruder)
G4 P1500    (Create Anchor)
(**** end pre-wipe commands ****)
(**** end of start.gcode ****)
(<creation> skeinforge </creation>)
(<version> 10.11.05 </version>)
(<extruderInitialization>)
(<craftTypeName> extrusion </craftTypeName>)
M105
(<bridgeWidthMultiplier> 1.0 </bridgeWidthMultiplier>)
(<decimalPlacesCarried> 3 </decimalPlacesCarried>)
(<layerThickness> 0.28 </layerThickness>)
(<threadSequenceString> perimeter loops infill </threadSequenceString>)
(<operatingFeedRatePerSecond> 30.0 </operatingFeedRatePerSecond>)
(<operatingFlowRate> 1.14790379982 </operatingFlowRate>)
(<orbitalFeedRatePerSecond> 15.0 </orbitalFeedRatePerSecond>)
(<travelFeedRatePerSecond> 40.0 </travelFeedRatePerSecond>)
(<perimeterWidth> 0.449 </perimeterWidth>)
(<profileName> ABS </profileName>)
(<procedureDone> carve,bottom </procedureDone>)
(<procedureDone> preface </procedureDone>)
(<procedureDone> inset </procedureDone>)
(<procedureDone> fill </procedureDone>)
(<procedureDone> speed </procedureDone>)
(<procedureDone> raft </procedureDone>)
(<procedureDone> comb </procedureDone>)
(<procedureDone> cool </procedureDone>)
(<procedureDone> outline </procedureDone>)
(<procedureDone> reversal </procedureDone>)
(<procedureDone> export </procedureDone>)
(</extruderInitialization>)
(<extrusion>)
;M113 S1.0
M108 R1.148
(<layer> 0.44 )
(<surroundingLoop>)
(<boundaryPerimeter>)
(<boundaryPoint> X-9.0 Y15.75 Z0.44 </boundaryPoint>)
(<boundaryPoint> X-9.0 Y24.25 Z0.44 </boundaryPoint>)
(<boundaryPoint> X-13.0 Y24.25 Z0.44 </boundaryPoint>)
(<boundaryPoint> X-13.0 Y-25.75 Z0.44 </boundaryPoint>)
(<boundaryPoint> X-9.0 Y-25.75 Z0.44 </boundaryPoint>)
(<boundaryPoint> X-9.0 Y-17.25 Z0.44 </boundaryPoint>)
(<boundaryPoint> X13.0 Y-17.25 Z0.44 </boundaryPoint>)
(<boundaryPoint> X13.0 Y21.131 Z0.44 </boundaryPoint>)
(<boundaryPoint> X5.0 Y25.75 Z0.44 </boundaryPoint>)
(<boundaryPoint> X-7.0 Y25.75 Z0.44 </boundaryPoint>)
(<boundaryPoint> X-7.0 Y15.75 Z0.44 </boundaryPoint>)
(<perimeter> outer )
G1 X-15.78 Y-28.53 Z0.44 F1080.0
M101
G1 X-15.78 Y28.53 Z0.44 F1080.0
G1 X15.78 Y28.53 Z0.44 F1080.0
G1 X15.78 Y-28.53 Z0.44 F1080.0
G1 X-14.43 Y-28.53 Z0.44 F1080.0
M108 R35.0
M102
G1 X-15.78 Y-28.53 Z0.44 F1080.0
M108 R1.148
M103
G1 X-12.97 Y-1.86 Z0.44 F1440.0
M108 R35.0
M101
G1 X-12.78 Y0.0 Z0.44 F1440.0
M108 R1.148
G1 X-12.78 Y-25.53 Z0.44 F1080.0
G1 X-9.22 Y-25.53 Z0.44 F1080.0
G1 X-9.22 Y-17.03 Z0.44 F1080.0
G1 X12.78 Y-17.03 Z0.44 F1080.0
G1 X12.78 Y21.0 Z0.44 F1080.0
G1 X4.94 Y25.53 Z0.44 F1080.0
G1 X-6.78 Y25.53 Z0.44 F1080.0
G1 X-6.78 Y15.53 Z0.44 F1080.0
G1 X-9.22 Y15.53 Z0.44 F1080.0
G1 X-9.22 Y24.03 Z0.44 F1080.0
G1 X-12.78 Y24.03 Z0.44 F1080.0
G1 X-12.78 Y1.35 Z0.44 F1080.0
M108 R35.0
M102
G1 X-12.78 Y0.0 Z0.44 F1080.0
M108 R1.148
M103
(</perimeter>)
(</boundaryPerimeter>)
(<surroundingLoop>)
(<boundaryPerimeter>)
(<boundaryPoint> X-9.0 Y11.75 Z0.44 </boundaryPoint>)
(<boundaryPoint> X1.0 Y11.75 Z0.44 </boundaryPoint>)
(<boundaryPoint> X1.0 Y-13.25 Z0.44 </boundaryPoint>)
(<boundaryPoint> X-9.0 Y-13.25 Z0.44 </boundaryPoint>)
(<perimeter> inner )
G1 X-11.1 Y0.0 Z0.44 F1440.0
M108 R35.0
M101
G1 X-9.22 Y0.0 Z0.44 F1440.0
M108 R1.148
G1 X-9.22 Y11.97 Z0.44 F1080.0
G1 X1.22 Y11.97 Z0.44 F1080.0
G1 X1.22 Y-13.47 Z0.44 F1080.0
G1 X-9.22 Y-13.47 Z0.44 F1080.0
G1 X-9.22 Y-1.35 Z0.44 F1080.0
M108 R35.0
M102
G1 X-9.22 Y0.0 Z0.44 F1080.0
M108 R1.148
M103
(</perimeter>)
(</boundaryPerimeter>)
(</surroundingLoop>)
(<surroundingLoop>)
(<boundaryPerimeter>)
(<boundaryPoint> X-4.515 Y20.111 Z0.44 </boundaryPoint>)
(<boundaryPoint> X-4.7 Y20.214 Z0.44 </boundaryPoint>)
(<boundaryPoint> X-4.865 Y20.348 Z0.44 </boundaryPoint>)
(<boundaryPoint> X-5.005 Y20.507 Z0.44 </boundaryPoint>)
(<boundaryPoint> X-5.116 Y20.687 Z0.44 </boundaryPoint>)
(<boundaryPoint> X-5.195 Y20.884 Z0.44 </boundaryPoint>)
(<boundaryPoint> X-5.24 Y21.091 Z0.44 </boundaryPoint>)
(<boundaryPoint> X-5.249 Y21.303 Z0.44 </boundaryPoint>)
(<boundaryPoint> X-5.222 Y21.513 Z0.44 </boundaryPoint>)
(<boundaryPoint> X-5.16 Y21.716 Z0.44 </boundaryPoint>)
(<boundaryPoint> X-5.064 Y21.905 Z0.44 </boundaryPoint>)
(<boundaryPoint> X-4.938 Y22.076 Z0.44 </boundaryPoint>)
(<boundaryPoint> X-4.785 Y22.223 Z0.44 </boundaryPoint>)
(<boundaryPoint> X-4.61 Y22.341 Z0.44 </boundaryPoint>)
(<boundaryPoint> X-4.416 Y22.429 Z0.44 </boundaryPoint>)
(<boundaryPoint> X-4.211 Y22.482 Z0.44 </boundaryPoint>)
(<boundaryPoint> X-4.0 Y22.5 Z0.44 </boundaryPoint>)
(<boundaryPoint> X-3.789 Y22.482 Z0.44 </boundaryPoint>)
(<boundaryPoint> X-3.584 Y22.429 Z0.44 </boundaryPoint>)
(<boundaryPoint> X-3.39 Y22.341 Z0.44 </boundaryPoint>)
(<boundaryPoint> X-3.215 Y22.223 Z0.44 </boundaryPoint>)
(<boundaryPoint> X-3.062 Y22.076 Z0.44 </boundaryPoint>)
(<boundaryPoint> X-2.936 Y21.905 Z0.44 </boundaryPoint>)
(<boundaryPoint> X-2.84 Y21.716 Z0.44 </boundaryPoint>)
(<boundaryPoint> X-2.778 Y21.513 Z0.44 </boundaryPoint>)
(<boundaryPoint> X-2.751 Y21.303 Z0.44 </boundaryPoint>)
(<boundaryPoint> X-2.76 Y21.091 Z0.44 </boundaryPoint>)
(<boundaryPoint> X-2.805 Y20.884 Z0.44 </boundaryPoint>)
(<boundaryPoint> X-2.884 Y20.687 Z0.44 </boundaryPoint>)
(<boundaryPoint> X-2.995 Y20.507 Z0.44 </boundaryPoint>)
(<boundaryPoint> X-3.135 Y20.348 Z0.44 </boundaryPoint>)
(<boundaryPoint> X-3.3 Y20.214 Z0.44 </boundaryPoint>)
(<boundaryPoint> X-3.485 Y20.111 Z0.44 </boundaryPoint>)
(<boundaryPoint> X-3.685 Y20.04 Z0.44 </boundaryPoint>)
(<boundaryPoint> X-3.894 Y20.005 Z0.44 </boundaryPoint>)
(<boundaryPoint> X-4.106 Y20.005 Z0.44 </boundaryPoint>)
(<boundaryPoint> X-4.315 Y20.04 Z0.44 </boundaryPoint>)
(<perimeter> inner )
G1 X-9.31 Y0.92 Z0.44 F2400.0
G1 X-9.16 Y11.91 Z0.44 F2400.0
G1 X-6.35 Y12.06 Z0.44 F2400.0
G1 X-4.83 Y18.01 Z0.44 F1440.0
M108 R35.0
M101
G1 X-4.37 Y19.82 Z0.44 F1440.0
M108 R1.148
G1 X-4.61 Y19.91 Z0.44 F1080.0
G1 X-4.83 Y20.03 Z0.44 F1080.0
G1 X-5.02 Y20.19 Z0.44 F1080.0
G1 X-5.19 Y20.37 Z0.44 F1080.0
G1 X-5.32 Y20.59 Z0.44 F1080.0
G1 X-5.41 Y20.82 Z0.44 F1080.0
G1 X-5.46 Y21.06 Z0.44 F1080.0
G1 X-5.47 Y21.31 Z0.44 F1080.0
G1 X-5.44 Y21.56 Z0.44 F1080.0
G1 X-5.37 Y21.8 Z0.44 F1080.0
G1 X-5.26 Y22.02 Z0.44 F1080.0
G1 X-5.11 Y22.23 Z0.44 F1080.0
G1 X-4.93 Y22.4 Z0.44 F1080.0
G1 X-4.72 Y22.54 Z0.44 F1080.0
G1 X-4.49 Y22.64 Z0.44 F1080.0
G1 X-4.25 Y22.7 Z0.44 F1080.0
G1 X-4.0 Y22.73 Z0.44 F1080.0
G1 X-3.75 Y22.7 Z0.44 F1080.0
G1 X-3.51 Y22.64 Z0.44 F1080.0
G1 X-3.28 Y22.54 Z0.44 F1080.0
G1 X-3.07 Y22.4 Z0.44 F1080.0
G1 X-2.89 Y22.23 Z0.44 F1080.0
G1 X-2.74 Y22.02 Z0.44 F1080.0
G1 X-2.63 Y21.8 Z0.44 F1080.0
G1 X-2.56 Y21.56 Z0.44 F1080.0
G1 X-2.53 Y21.31 Z0.44 F1080.0
G1 X-2.54 Y21.06 Z0.44 F1080.0
G1 X-2.59 Y20.82 Z0.44 F1080.0
G1 X-2.68 Y20.59 Z0.44 F1080.0
G1 X-2.81 Y20.37 Z0.44 F1080.0
G1 X-2.98 Y20.19 Z0.44 F1080.0
G1 X-3.1 Y20.09 Z0.44 F1080.0
M108 R35.0
M102
G1 X-3.17 Y20.03 Z0.44 F1080.0
G1 X-3.39 Y19.91 Z0.44 F1080.0
G1 X-3.63 Y19.82 Z0.44 F1080.0
G1 X-3.88 Y19.78 Z0.44 F1080.0
G1 X-4.13 Y19.78 Z0.44 F1080.0
G1 X-4.37 Y19.82 Z0.44 F1080.0
M108 R1.148
M103
(</perimeter>)
(</boundaryPerimeter>)
(</surroundingLoop>)
(<surroundingLoop>)
(<boundaryPerimeter>)
(<boundaryPoint> X1.985 Y20.111 Z0.44 </boundaryPoint>)
(<boundaryPoint> X1.8 Y20.214 Z0.44 </boundaryPoint>)
(<boundaryPoint> X1.635 Y20.348 Z0.44 </boundaryPoint>)
(<boundaryPoint> X1.495 Y20.507 Z0.44 </boundaryPoint>)
(<boundaryPoint> X1.384 Y20.687 Z0.44 </boundaryPoint>)
(<boundaryPoint> X1.305 Y20.884 Z0.44 </boundaryPoint>)
(<boundaryPoint> X1.26 Y21.091 Z0.44 </boundaryPoint>)
(<boundaryPoint> X1.251 Y21.303 Z0.44 </boundaryPoint>)
(<boundaryPoint> X1.278 Y21.513 Z0.44 </boundaryPoint>)
(<boundaryPoint> X1.34 Y21.716 Z0.44 </boundaryPoint>)
(<boundaryPoint> X1.436 Y21.905 Z0.44 </boundaryPoint>)
(<boundaryPoint> X1.562 Y22.076 Z0.44 </boundaryPoint>)
(<boundaryPoint> X1.715 Y22.223 Z0.44 </boundaryPoint>)
(<boundaryPoint> X1.89 Y22.341 Z0.44 </boundaryPoint>)
(<boundaryPoint> X2.084 Y22.429 Z0.44 </boundaryPoint>)
(<boundaryPoint> X2.289 Y22.482 Z0.44 </boundaryPoint>)
(<boundaryPoint> X2.5 Y22.5 Z0.44 </boundaryPoint>)
(<boundaryPoint> X2.711 Y22.482 Z0.44 </boundaryPoint>)
(<boundaryPoint> X2.916 Y22.429 Z0.44 </boundaryPoint>)
(<boundaryPoint> X3.11 Y22.341 Z0.44 </boundaryPoint>)
(<boundaryPoint> X3.285 Y22.223 Z0.44 </boundaryPoint>)
(<boundaryPoint> X3.438 Y22.076 Z0.44 </boundaryPoint>)
(<boundaryPoint> X3.564 Y21.905 Z0.44 </boundaryPoint>)
(<boundaryPoint> X3.66 Y21.716 Z0.44 </boundaryPoint>)
(<boundaryPoint> X3.722 Y21.513 Z0.44 </boundaryPoint>)
(<boundaryPoint> X3.749 Y21.303 Z0.44 </boundaryPoint>)
(<boundaryPoint> X3.74 Y21.091 Z0.44 </boundaryPoint>)
(<boundaryPoint> X3.695 Y20.884 Z0.44 </boundaryPoint>)
(<boundaryPoint> X3.616 Y20.687 Z0.44 </boundaryPoint>)
(<boundaryPoint> X3.505 Y20.507 Z0.44 </boundaryPoint>)
(<boundaryPoint> X3.365 Y20.348 Z0.44 </boundaryPoint>)
(<boundaryPoint> X3.2 Y20.214 Z0.44 </boundaryPoint>)
(<boundaryPoint> X3.015 Y20.111 Z0.44 </boundaryPoint>)
(<boundaryPoint> X2.815 Y20.04 Z0.44 </boundaryPoint>)
(<boundaryPoint> X2.606 Y20.005 Z0.44 </boundaryPoint>)
(<boundaryPoint> X2.394 Y20.005 Z0.44 </boundaryPoint>)
(<boundaryPoint> X2.185 Y20.04 Z0.44 </boundaryPoint>)
(<perimeter> inner )
G1 X-0.79 Y20.64 Z0.44 F1440.0
M108 R35.0
M101
G1 X1.04 Y21.06 Z0.44 F1440.0
M108 R1.148
G1 X1.03 Y21.31 Z0.44 F1080.0
G1 X1.06 Y21.56 Z0.44 F1080.0
G1 X1.13 Y21.8 Z0.44 F1080.0
G1 X1.24 Y22.02 Z0.44 F1080.0
G1 X1.39 Y22.23 Z0.44 F1080.0
G1 X1.57 Y22.4 Z0.44 F1080.0
G1 X1.78 Y22.54 Z0.44 F1080.0
G1 X2.01 Y22.64 Z0.44 F1080.0
G1 X2.25 Y22.7 Z0.44 F1080.0
G1 X2.5 Y22.73 Z0.44 F1080.0
G1 X2.75 Y22.7 Z0.44 F1080.0
G1 X2.99 Y22.64 Z0.44 F1080.0
G1 X3.22 Y22.54 Z0.44 F1080.0
G1 X3.43 Y22.4 Z0.44 F1080.0
G1 X3.61 Y22.23 Z0.44 F1080.0
G1 X3.76 Y22.02 Z0.44 F1080.0
G1 X3.87 Y21.8 Z0.44 F1080.0
G1 X3.94 Y21.56 Z0.44 F1080.0
G1 X3.97 Y21.31 Z0.44 F1080.0
G1 X3.96 Y21.06 Z0.44 F1080.0
G1 X3.91 Y20.82 Z0.44 F1080.0
G1 X3.82 Y20.59 Z0.44 F1080.0
G1 X3.69 Y20.37 Z0.44 F1080.0
G1 X3.52 Y20.19 Z0.44 F1080.0
G1 X3.33 Y20.03 Z0.44 F1080.0
G1 X3.11 Y19.91 Z0.44 F1080.0
G1 X2.87 Y19.82 Z0.44 F1080.0
G1 X2.63 Y19.78 Z0.44 F1080.0
G1 X2.38 Y19.78 Z0.44 F1080.0
G1 X2.13 Y19.82 Z0.44 F1080.0
G1 X1.89 Y19.91 Z0.44 F1080.0
G1 X1.67 Y20.03 Z0.44 F1080.0
G1 X1.48 Y20.19 Z0.44 F1080.0
G1 X1.31 Y20.37 Z0.44 F1080.0
G1 X1.18 Y20.59 Z0.44 F1080.0
G1 X1.09 Y20.82 Z0.44 F1080.0
G1 X1.04 Y21.06 Z0.44 F1080.0
M103
(</perimeter>)
(</boundaryPerimeter>)
(</surroundingLoop>)
(<loop> inner )
G1 X0.59 Y21.0 Z0.44 F1800.0
M101
G1 X0.58 Y21.33 Z0.44 F1350.0
G1 X0.62 Y21.66 Z0.44 F1350.0
G1 X0.71 Y21.97 Z0.44 F1350.0
G1 X0.86 Y22.26 Z0.44 F1350.0
G1 X1.05 Y22.52 Z0.44 F1350.0
G1 X1.29 Y22.75 Z0.44 F1350.0
G1 X1.56 Y22.93 Z0.44 F1350.0
G1 X1.86 Y23.07 Z0.44 F1350.0
G1 X2.17 Y23.15 Z0.44 F1350.0
G1 X2.5 Y23.18 Z0.44 F1350.0
G1 X2.83 Y23.15 Z0.44 F1350.0
G1 X3.14 Y23.07 Z0.44 F1350.0
G1 X3.44 Y22.93 Z0.44 F1350.0
G1 X3.71 Y22.75 Z0.44 F1350.0
G1 X3.95 Y22.52 Z0.44 F1350.0
G1 X4.14 Y22.26 Z0.44 F1350.0
G1 X4.29 Y21.97 Z0.44 F1350.0
G1 X4.38 Y21.66 Z0.44 F1350.0
G1 X4.42 Y21.33 Z0.44 F1350.0
G1 X4.41 Y21.0 Z0.44 F1350.0
G1 X4.34 Y20.69 Z0.44 F1350.0
G1 X4.22 Y20.38 Z0.44 F1350.0
G1 X4.05 Y20.11 Z0.44 F1350.0
G1 X3.83 Y19.86 Z0.44 F1350.0
G1 X3.58 Y19.65 Z0.44 F1350.0
G1 X3.29 Y19.5 Z0.44 F1350.0
G1 X2.98 Y19.39 Z0.44 F1350.0
G1 X2.66 Y19.33 Z0.44 F1350.0
G1 X2.34 Y19.33 Z0.44 F1350.0
G1 X2.02 Y19.39 Z0.44 F1350.0
G1 X1.71 Y19.5 Z0.44 F1350.0
G1 X1.42 Y19.65 Z0.44 F1350.0
G1 X1.17 Y19.86 Z0.44 F1350.0
G1 X0.95 Y20.11 Z0.44 F1350.0
G1 X0.78 Y20.38 Z0.44 F1350.0
G1 X0.66 Y20.69 Z0.44 F1350.0
G1 X0.59 Y21.0 Z0.44 F1350.0
M103
(</loop>)
(<loop> inner )
G1 X0.14 Y20.95 Z0.44 F1800.0
M101
G1 X0.13 Y21.35 Z0.44 F1350.0
G1 X0.18 Y21.75 Z0.44 F1350.0
G1 X0.29 Y22.14 Z0.44 F1350.0
G1 X0.48 Y22.5 Z0.44 F1350.0
G1 X0.71 Y22.82 Z0.44 F1350.0
G1 X1.01 Y23.1 Z0.44 F1350.0
G1 X1.34 Y23.32 Z0.44 F1350.0
G1 X1.71 Y23.49 Z0.44 F1350.0
G1 X2.1 Y23.59 Z0.44 F1350.0
G1 X2.5 Y23.63 Z0.44 F1350.0
G1 X2.9 Y23.59 Z0.44 F1350.0
G1 X3.29 Y23.49 Z0.44 F1350.0
G1 X3.66 Y23.32 Z0.44 F1350.0
G1 X3.99 Y23.1 Z0.44 F1350.0
G1 X4.29 Y22.82 Z0.44 F1350.0
G1 X4.52 Y22.5 Z0.44 F1350.0
G1 X4.71 Y22.14 Z0.44 F1350.0
G1 X4.82 Y21.75 Z0.44 F1350.0
G1 X4.87 Y21.35 Z0.44 F1350.0
G1 X4.86 Y20.95 Z0.44 F1350.0
G1 X4.77 Y20.55 Z0.44 F1350.0
G1 X4.62 Y20.18 Z0.44 F1350.0
G1 X4.41 Y19.84 Z0.44 F1350.0
G1 X4.14 Y19.54 Z0.44 F1350.0
G1 X3.83 Y19.28 Z0.44 F1350.0
G1 X3.48 Y19.09 Z0.44 F1350.0
G1 X3.1 Y18.95 Z0.44 F1350.0
G1 X2.7 Y18.88 Z0.44 F1350.0
G1 X2.3 Y18.88 Z0.44 F1350.0
G1 X1.9 Y18.95 Z0.44 F1350.0
G1 X1.52 Y19.09 Z0.44 F1350.0
G1 X1.17 Y19.28 Z0.44 F1350.0
G1 X0.92 Y19.49 Z0.44 F1350.0
M108 R35.0
M102
G1 X0.85 Y19.54 Z0.44 F1350.0
G1 X0.59 Y19.84 Z0.44 F1350.0
G1 X0.38 Y20.18 Z0.44 F1350.0
G1 X0.23 Y20.55 Z0.44 F1350.0
G1 X0.14 Y20.95 Z0.44 F1350.0
M108 R1.148
M103
(</loop>)
(<loop> inner )
G1 X0.14 Y14.76 Z0.44 F1800.0
M108 R35.0
M101
G1 X0.14 Y12.42 Z0.44 F1800.0
M108 R1.148
G1 X1.67 Y12.42 Z0.44 F1350.0
G1 X1.67 Y-13.92 Z0.44 F1350.0
G1 X-9.67 Y-13.92 Z0.44 F1350.0
G1 X-9.67 Y12.42 Z0.44 F1350.0
G1 X0.14 Y12.42 Z0.44 F1350.0
M103
(</loop>)
(<loop> inner )
G1 X0.14 Y12.87 Z0.44 F1800.0
M101
G1 X2.12 Y12.87 Z0.44 F1350.0
G1 X2.12 Y-14.37 Z0.44 F1350.0
G1 X-10.12 Y-14.37 Z0.44 F1350.0
G1 X-10.12 Y12.87 Z0.44 F1350.0
G1 X-1.54 Y12.87 Z0.44 F1350.0
M108 R35.0
M102
G1 X0.14 Y12.87 Z0.44 F1350.0
M108 R1.148
M103
(</loop>)
(<loop> outer )
G1 X-3.63 Y13.97 Z0.44 F1800.0
M108 R35.0
M101
G1 X-5.88 Y14.63 Z0.44 F1800.0
M108 R1.148
G1 X-10.12 Y14.63 Z0.44 F1350.0
G1 X-10.12 Y23.13 Z0.44 F1350.0
G1 X-11.88 Y23.13 Z0.44 F1350.0
G1 X-11.88 Y-24.63 Z0.44 F1350.0
G1 X-10.12 Y-24.63 Z0.44 F1350.0
G1 X-10.12 Y-16.13 Z0.44 F1350.0
G1 X11.88 Y-16.13 Z0.44 F1350.0
G1 X11.88 Y20.48 Z0.44 F1350.0
G1 X4.7 Y24.63 Z0.44 F1350.0
G1 X-5.88 Y24.63 Z0.44 F1350.0
G1 X-5.88 Y23.25 Z0.44 F1350.0
G1 X-5.33 Y23.21 Z0.44 F1350.0
G1 X-4.79 Y23.49 Z0.44 F1350.0
G1 X-4.4 Y23.59 Z0.44 F1350.0
G1 X-4.0 Y23.63 Z0.44 F1350.0
G1 X-3.6 Y23.59 Z0.44 F1350.0
G1 X-3.21 Y23.49 Z0.44 F1350.0
G1 X-2.84 Y23.32 Z0.44 F1350.0
G1 X-2.51 Y23.1 Z0.44 F1350.0
G1 X-2.21 Y22.82 Z0.44 F1350.0
G1 X-1.98 Y22.5 Z0.44 F1350.0
G1 X-1.79 Y22.14 Z0.44 F1350.0
G1 X-1.68 Y21.75 Z0.44 F1350.0
G1 X-1.63 Y21.35 Z0.44 F1350.0
G1 X-1.64 Y20.95 Z0.44 F1350.0
G1 X-1.73 Y20.55 Z0.44 F1350.0
G1 X-1.88 Y20.18 Z0.44 F1350.0
G1 X-2.09 Y19.84 Z0.44 F1350.0
G1 X-2.35 Y19.54 Z0.44 F1350.0
G1 X-2.67 Y19.28 Z0.44 F1350.0
G1 X-3.02 Y19.09 Z0.44 F1350.0
G1 X-3.4 Y18.95 Z0.44 F1350.0
G1 X-3.8 Y18.88 Z0.44 F1350.0
G1 X-4.2 Y18.88 Z0.44 F1350.0
G1 X-4.6 Y18.95 Z0.44 F1350.0
G1 X-4.98 Y19.09 Z0.44 F1350.0
G1 X-5.42 Y19.36 Z0.44 F1350.0
G1 X-5.88 Y19.2 Z0.44 F1350.0
G1 X-5.88 Y16.32 Z0.44 F1350.0
M108 R35.0
M102
G1 X-5.88 Y14.63 Z0.44 F1350.0
M108 R1.148
M103
(</loop>)
(<loop> inner )
G1 X-5.14 Y17.14 Z0.44 F1800.0
M108 R35.0
M101
G1 X-4.49 Y19.39 Z0.44 F1800.0
M108 R1.148
G1 X-4.79 Y19.5 Z0.44 F1350.0
G1 X-5.08 Y19.65 Z0.44 F1350.0
G1 X-5.33 Y19.86 Z0.44 F1350.0
G1 X-5.55 Y20.11 Z0.44 F1350.0
G1 X-5.72 Y20.38 Z0.44 F1350.0
G1 X-5.84 Y20.69 Z0.44 F1350.0
G1 X-5.91 Y21.0 Z0.44 F1350.0
G1 X-5.92 Y21.33 Z0.44 F1350.0
G1 X-5.88 Y21.66 Z0.44 F1350.0
G1 X-5.79 Y21.97 Z0.44 F1350.0
G1 X-5.64 Y22.26 Z0.44 F1350.0
G1 X-5.45 Y22.52 Z0.44 F1350.0
G1 X-5.21 Y22.75 Z0.44 F1350.0
G1 X-4.94 Y22.93 Z0.44 F1350.0
G1 X-4.64 Y23.07 Z0.44 F1350.0
G1 X-4.33 Y23.15 Z0.44 F1350.0
G1 X-4.0 Y23.18 Z0.44 F1350.0
G1 X-3.67 Y23.15 Z0.44 F1350.0
G1 X-3.36 Y23.07 Z0.44 F1350.0
G1 X-3.06 Y22.93 Z0.44 F1350.0
G1 X-2.79 Y22.75 Z0.44 F1350.0
G1 X-2.55 Y22.52 Z0.44 F1350.0
G1 X-2.36 Y22.26 Z0.44 F1350.0
G1 X-2.21 Y21.97 Z0.44 F1350.0
G1 X-2.12 Y21.66 Z0.44 F1350.0
G1 X-2.08 Y21.33 Z0.44 F1350.0
G1 X-2.09 Y21.0 Z0.44 F1350.0
G1 X-2.16 Y20.69 Z0.44 F1350.0
G1 X-2.28 Y20.38 Z0.44 F1350.0
G1 X-2.45 Y20.11 Z0.44 F1350.0
G1 X-2.67 Y19.86 Z0.44 F1350.0
G1 X-2.88 Y19.69 Z0.44 F1350.0
M108 R35.0
M102
G1 X-2.92 Y19.65 Z0.44 F1350.0
G1 X-3.21 Y19.5 Z0.44 F1350.0
G1 X-3.52 Y19.39 Z0.44 F1350.0
G1 X-3.84 Y19.33 Z0.44 F1350.0
G1 X-4.16 Y19.33 Z0.44 F1350.0
G1 X-4.49 Y19.39 Z0.44 F1350.0
M108 R1.148
M103
(</loop>)
(<loop> outer )
M108 R35.0
M101
G1 X-6.33 Y19.39 Z0.44 F1416.923
M108 R1.148
G1 X-6.33 Y15.08 Z0.44 F1350.0
G1 X-9.67 Y15.08 Z0.44 F1350.0
G1 X-9.67 Y23.58 Z0.44 F1350.0
G1 X-12.33 Y23.58 Z0.44 F1350.0
G1 X-12.33 Y-25.08 Z0.44 F1350.0
G1 X-9.67 Y-25.08 Z0.44 F1350.0
G1 X-9.67 Y-16.58 Z0.44 F1350.0
G1 X12.33 Y-16.58 Z0.44 F1350.0
G1 X12.33 Y20.74 Z0.44 F1350.0
G1 X4.82 Y25.08 Z0.44 F1350.0
G1 X-6.33 Y25.08 Z0.44 F1350.0
G1 X-6.33 Y21.07 Z0.44 F1350.0
M108 R35.0
M102
G1 X-6.33 Y19.39 Z0.44 F1350.0
M108 R1.148
M103
(</loop>)
G1 X-5.74 Y15.48 Z0.44 F1800.0
M108 R35.0
M101
G1 X-5.39 Y13.16 Z0.44 F1800.0
M108 R1.148
G1 X-5.39 Y18.99 Z0.44 F1350.0
M103
G1 X-4.94 Y18.76 Z0.44 F1800.0
M101
G1 X-4.94 Y13.16 Z0.44 F1350.0
G1 X-4.49 Y13.16 Z0.44 F1350.0
G1 X-4.49 Y18.64 Z0.44 F1350.0
G1 X-4.04 Y18.59 Z0.44 F1350.0
G1 X-4.04 Y13.16 Z0.44 F1350.0
G1 X-3.59 Y13.16 Z0.44 F1350.0
G1 X-3.59 Y18.62 Z0.44 F1350.0
M103
G1 X-3.14 Y18.73 Z0.44 F1800.0
M101
G1 X-3.14 Y13.16 Z0.44 F1350.0
G1 X-2.69 Y13.16 Z0.44 F1350.0
G1 X-2.69 Y18.93 Z0.44 F1350.0
G1 X-2.24 Y19.25 Z0.44 F1350.0
G1 X-2.24 Y13.16 Z0.44 F1350.0
G1 X-1.79 Y13.16 Z0.44 F1350.0
G1 X-1.79 Y18.07 Z0.44 F1350.0
M108 R35.0
M102
G1 X-1.79 Y19.76 Z0.44 F1350.0
M108 R1.148
M103
M108 R35.0
M101
G1 X-1.35 Y21.05 Z0.44 F1054.331
M108 R1.148
G1 X-1.35 Y13.16 Z0.44 F1350.0
G1 X-0.9 Y13.16 Z0.44 F1350.0
G1 X-0.9 Y24.34 Z0.44 F1350.0
G1 X-0.45 Y24.34 Z0.44 F1350.0
G1 X-0.45 Y13.16 Z0.44 F1350.0
G1 X0.0 Y13.16 Z0.44 F1350.0
G1 X0.0 Y20.34 Z0.44 F1350.0
M103
G1 X0.45 Y19.56 Z0.44 F1800.0
M101
G1 X0.45 Y13.16 Z0.44 F1350.0
G1 X0.9 Y13.16 Z0.44 F1350.0
G1 X0.9 Y19.13 Z0.44 F1350.0
G1 X1.35 Y18.85 Z0.44 F1350.0
G1 X1.35 Y13.16 Z0.44 F1350.0
G1 X1.79 Y13.16 Z0.44 F1350.0
G1 X1.79 Y16.99 Z0.44 F1350.0
M108 R35.0
M102
G1 X1.79 Y18.68 Z0.44 F1350.0
M108 R1.148
M103
G1 X3.05 Y-13.5 Z0.44 F1800.0
M108 R35.0
M101
G1 X3.14 Y-15.84 Z0.44 F1800.0
M108 R1.148
G1 X3.14 Y16.97 Z0.44 F1350.0
M108 R35.0
M102
G1 X3.14 Y18.66 Z0.44 F1350.0
M108 R1.148
M103
M108 R35.0
M101
G1 X4.49 Y19.48 Z0.44 F1213.593
M108 R1.148
G1 X4.49 Y-15.84 Z0.44 F1350.0
M103
G1 X4.04 Y-15.84 Z0.44 F1800.0
M101
G1 X4.04 Y19.07 Z0.44 F1350.0
G1 X3.59 Y18.82 Z0.44 F1350.0
G1 X3.59 Y-15.84 Z0.44 F1350.0
M103
G1 X2.69 Y-15.84 Z0.44 F1800.0
M101
G1 X2.69 Y18.59 Z0.44 F1350.0
G1 X2.24 Y18.6 Z0.44 F1350.0
G1 X2.24 Y14.85 Z0.44 F1350.0
M108 R35.0
M102
G1 X2.24 Y13.16 Z0.44 F1350.0
M108 R1.148
M103
G1 X4.72 Y-13.51 Z0.44 F1800.0
M108 R35.0
M101
G1 X4.94 Y-15.84 Z0.44 F1800.0
M108 R1.148
G1 X4.94 Y18.5 Z0.44 F1350.0
M108 R35.0
M102
G1 X4.94 Y20.18 Z0.44 F1350.0
M108 R1.148
M103
G1 X3.85 Y21.89 Z0.44 F2400.0
M108 R35.0
M101
G1 X3.48 Y22.47 Z0.44 F2400.0
G1 X1.35 Y23.65 Z0.44 F2400.0
M108 R1.148
G1 X1.35 Y24.34 Z0.44 F1350.0
G1 X1.79 Y24.34 Z0.44 F1350.0
G1 X1.79 Y23.82 Z0.44 F1350.0
G1 X2.24 Y24.34 Z0.44 F1350.0
G1 X2.24 Y23.9 Z0.44 F1350.0
G1 X2.69 Y23.9 Z0.44 F1350.0
G1 X2.69 Y24.34 Z0.44 F1350.0
G1 X3.14 Y24.34 Z0.44 F1350.0
G1 X3.14 Y23.83 Z0.44 F1350.0
G1 X3.59 Y23.68 Z0.44 F1350.0
G1 X3.59 Y24.34 Z0.44 F1350.0
G1 X4.04 Y24.34 Z0.44 F1350.0
G1 X4.04 Y23.42 Z0.44 F1350.0
G1 X4.49 Y23.03 Z0.44 F1350.0
G1 X4.49 Y24.34 Z0.44 F1350.0
G1 X4.94 Y24.15 Z0.44 F1350.0
G1 X4.94 Y24.01 Z0.44 F1350.0
M108 R35.0
M102
G1 X4.94 Y22.32 Z0.44 F1350.0
M108 R1.148
M103
M108 R35.0
M101
G1 X7.18 Y22.86 Z0.44 F1774.356
M108 R1.148
G1 X7.18 Y-15.84 Z0.44 F1350.0
M103
G1 X6.73 Y-15.84 Z0.44 F1800.0
M101
G1 X6.73 Y23.12 Z0.44 F1350.0
G1 X6.28 Y23.38 Z0.44 F1350.0
G1 X6.28 Y-15.84 Z0.44 F1350.0
M103
G1 X5.83 Y-15.84 Z0.44 F1800.0
M101
G1 X5.83 Y23.64 Z0.44 F1350.0
G1 X5.39 Y23.89 Z0.44 F1350.0
G1 X5.39 Y-14.15 Z0.44 F1350.0
M108 R35.0
M102
G1 X5.39 Y-15.84 Z0.44 F1350.0
M108 R1.148
M103
M108 R35.0
M101
G1 X7.63 Y-15.84 Z0.44 F1726.154
M108 R1.148
G1 X7.63 Y20.91 Z0.44 F1350.0
M108 R35.0
M102
G1 X7.63 Y22.6 Z0.44 F1350.0
M108 R1.148
M103
G1 X7.85 Y22.47 Z0.44 F1800.0
M108 R35.0
M101
G1 X9.87 Y21.3 Z0.44 F1800.0
M108 R1.148
G1 X9.87 Y-15.84 Z0.44 F1350.0
M103
G1 X9.43 Y-15.84 Z0.44 F1800.0
M101
G1 X9.43 Y21.56 Z0.44 F1350.0
G1 X8.98 Y21.82 Z0.44 F1350.0
G1 X8.98 Y-15.84 Z0.44 F1350.0
M103
G1 X8.53 Y-15.84 Z0.44 F1800.0
M101
G1 X8.53 Y22.08 Z0.44 F1350.0
G1 X8.08 Y22.34 Z0.44 F1350.0
G1 X8.08 Y-14.15 Z0.44 F1350.0
M108 R35.0
M102
G1 X8.08 Y-15.84 Z0.44 F1350.0
M108 R1.148
M103
G1 X8.43 Y-15.84 Z0.44 F1800.0
M108 R35.0
M101
G1 X10.77 Y-15.84 Z0.44 F1800.0
M108 R1.148
G1 X10.77 Y20.79 Z0.44 F1350.0
G1 X10.32 Y21.04 Z0.44 F1350.0
G1 X10.32 Y-15.84 Z0.44 F1350.0
M103
G1 X11.22 Y-15.84 Z0.44 F1800.0
M101
G1 X11.22 Y18.84 Z0.44 F1350.0
M108 R35.0
M102
G1 X11.22 Y20.53 Z0.44 F1350.0
M108 R1.148
M103
G1 X3.53 Y22.52 Z0.44 F2400.0
M108 R35.0
M101
G1 X2.43 Y22.81 Z0.44 F2400.0
G1 X0.45 Y22.95 Z0.44 F2400.0
M108 R1.148
G1 X0.45 Y24.06 Z0.44 F1350.0
M108 R35.0
M102
G1 X0.45 Y24.34 Z0.44 F1350.0
G1 X0.9 Y24.34 Z0.44 F1350.0
G1 X0.9 Y23.38 Z0.44 F1350.0
M108 R1.148
M103
M108 R35.0
M101
G1 X0.0 Y24.34 Z0.44 F1010.62
M108 R1.148
G1 X0.0 Y23.86 Z0.44 F1350.0
M108 R35.0
M102
G1 X0.0 Y22.17 Z0.44 F1350.0
M108 R1.148
M103
M108 R35.0
M101
G1 X-1.35 Y21.47 Z0.44 F1168.098
M108 R1.148
G1 X-1.35 Y24.34 Z0.44 F1350.0
G1 X-1.79 Y24.34 Z0.44 F1350.0
G1 X-1.79 Y22.74 Z0.44 F1350.0
G1 X-2.24 Y23.25 Z0.44 F1350.0
G1 X-2.24 Y24.34 Z0.44 F1350.0
G1 X-2.69 Y24.34 Z0.44 F1350.0
G1 X-2.69 Y23.58 Z0.44 F1350.0
G1 X-3.14 Y23.77 Z0.44 F1350.0
G1 X-3.14 Y24.34 Z0.44 F1350.0
G1 X-3.59 Y24.34 Z0.44 F1350.0
G1 X-3.59 Y23.88 Z0.44 F1350.0
G1 X-4.04 Y24.34 Z0.44 F1350.0
G1 X-4.04 Y23.92 Z0.44 F1350.0
G1 X-4.49 Y24.34 Z0.44 F1350.0
G1 X-4.49 Y23.87 Z0.44 F1350.0
G1 X-4.94 Y23.74 Z0.44 F1350.0
G1 X-4.94 Y23.92 Z0.44 F1350.0
M108 R35.0
M102
G1 X-4.94 Y24.34 Z0.44 F1350.0
G1 X-5.39 Y24.34 Z0.44 F1350.0
G1 X-5.39 Y23.51 Z0.44 F1350.0
M108 R1.148
M103
G1 X-6.69 Y20.13 Z0.44 F2400.0
G1 X-6.84 Y15.59 Z0.44 F2400.0
G1 X-9.16 Y15.59 Z0.44 F2400.0
G1 X-9.24 Y15.78 Z0.44 F2400.0
M108 R35.0
M101
G1 X-9.31 Y15.94 Z0.44 F2400.0
G1 X-10.32 Y13.16 Z0.44 F2400.0
M108 R1.148
G1 X-10.32 Y14.34 Z0.44 F1350.0
G1 X-9.87 Y14.34 Z0.44 F1350.0
G1 X-9.87 Y13.16 Z0.44 F1350.0
G1 X-9.43 Y13.16 Z0.44 F1350.0
G1 X-9.43 Y14.34 Z0.44 F1350.0
G1 X-8.98 Y14.34 Z0.44 F1350.0
G1 X-8.98 Y13.16 Z0.44 F1350.0
G1 X-8.53 Y13.16 Z0.44 F1350.0
G1 X-8.53 Y14.34 Z0.44 F1350.0
G1 X-8.08 Y14.34 Z0.44 F1350.0
G1 X-8.08 Y13.16 Z0.44 F1350.0
G1 X-7.63 Y13.16 Z0.44 F1350.0
G1 X-7.63 Y14.34 Z0.44 F1350.0
G1 X-7.18 Y14.34 Z0.44 F1350.0
G1 X-7.18 Y13.16 Z0.44 F1350.0
G1 X-6.73 Y13.16 Z0.44 F1350.0
G1 X-6.73 Y14.34 Z0.44 F1350.0
G1 X-6.28 Y14.34 Z0.44 F1350.0
G1 X-6.28 Y13.23 Z0.44 F1350.0
M108 R35.0
M102
G1 X-6.28 Y13.16 Z0.44 F1350.0
G1 X-5.83 Y13.16 Z0.44 F1350.0
G1 X-5.83 Y14.34 Z0.44 F1350.0
M108 R1.148
M103
G1 X-5.83 Y12.06 Z0.44 F2400.0
G1 X-9.16 Y11.91 Z0.44 F2400.0
G1 X-9.16 Y-13.41 Z0.44 F2400.0
G1 X-6.68 Y-13.52 Z0.44 F2400.0
M108 R35.0
M101
G1 X-5.83 Y-13.56 Z0.44 F2400.0
G1 X-5.83 Y-15.84 Z0.44 F2400.0
M108 R1.148
G1 X-5.83 Y-14.66 Z0.44 F1350.0
M103
G1 X-6.28 Y-14.66 Z0.44 F1800.0
M101
G1 X-6.28 Y-15.84 Z0.44 F1350.0
M103
G1 X-6.73 Y-15.84 Z0.44 F1800.0
M101
G1 X-6.73 Y-14.66 Z0.44 F1350.0
M103
G1 X-7.18 Y-14.66 Z0.44 F1800.0
M101
G1 X-7.18 Y-15.84 Z0.44 F1350.0
M103
G1 X-7.63 Y-15.84 Z0.44 F1800.0
M101
G1 X-7.63 Y-14.66 Z0.44 F1350.0
M103
G1 X-8.08 Y-14.66 Z0.44 F1800.0
M101
G1 X-8.08 Y-15.84 Z0.44 F1350.0
M103
G1 X-8.53 Y-15.84 Z0.44 F1800.0
M101
G1 X-8.53 Y-14.66 Z0.44 F1350.0
M103
G1 X-8.98 Y-14.66 Z0.44 F1800.0
M101
G1 X-8.98 Y-15.84 Z0.44 F1350.0
M103
G1 X-9.43 Y-15.84 Z0.44 F1800.0
M101
G1 X-9.43 Y-14.66 Z0.44 F1350.0
M103
G1 X-9.87 Y-14.66 Z0.44 F1800.0
M101
G1 X-9.87 Y-15.84 Z0.44 F1350.0
M103
G1 X-10.32 Y-15.84 Z0.44 F1800.0
M101
M108 R35.0
M102
G1 X-10.32 Y-14.66 Z0.44 F937.6
M108 R1.148
M103
G1 X-7.73 Y-14.66 Z0.44 F1800.0
M108 R35.0
M101
G1 X-5.39 Y-14.66 Z0.44 F1800.0
M108 R1.148
G1 X-5.39 Y-15.84 Z0.44 F1350.0
M103
G1 X-4.94 Y-15.84 Z0.44 F1800.0
M101
G1 X-4.94 Y-14.66 Z0.44 F1350.0
M103
G1 X-4.49 Y-14.66 Z0.44 F1800.0
M101
G1 X-4.49 Y-15.84 Z0.44 F1350.0
M103
G1 X-4.04 Y-15.84 Z0.44 F1800.0
M101
G1 X-4.04 Y-14.66 Z0.44 F1350.0
M103
G1 X-3.59 Y-14.66 Z0.44 F1800.0
M101
G1 X-3.59 Y-15.84 Z0.44 F1350.0
M103
G1 X-3.14 Y-15.84 Z0.44 F1800.0
M101
G1 X-3.14 Y-14.66 Z0.44 F1350.0
M103
G1 X-2.69 Y-14.66 Z0.44 F1800.0
M101
G1 X-2.69 Y-15.84 Z0.44 F1350.0
M103
G1 X-2.24 Y-15.84 Z0.44 F1800.0
M101
G1 X-2.24 Y-14.66 Z0.44 F1350.0
M103
G1 X-1.79 Y-14.66 Z0.44 F1800.0
M101
G1 X-1.79 Y-15.84 Z0.44 F1350.0
M103
G1 X-1.35 Y-15.84 Z0.44 F1800.0
M101
G1 X-1.35 Y-14.66 Z0.44 F1350.0
M103
G1 X-0.9 Y-14.66 Z0.44 F1800.0
M101
G1 X-0.9 Y-15.84 Z0.44 F1350.0
M103
G1 X-0.45 Y-15.84 Z0.44 F1800.0
M101
G1 X-0.45 Y-14.66 Z0.44 F1350.0
M103
G1 X-0.0 Y-14.66 Z0.44 F1800.0
M101
G1 X-0.0 Y-15.84 Z0.44 F1350.0
M103
G1 X0.45 Y-15.84 Z0.44 F1800.0
M101
G1 X0.45 Y-14.66 Z0.44 F1350.0
M103
G1 X0.9 Y-14.66 Z0.44 F1800.0
M101
G1 X0.9 Y-15.84 Z0.44 F1350.0
M103
G1 X1.35 Y-15.84 Z0.44 F1800.0
M101
G1 X1.35 Y-14.66 Z0.44 F1350.0
M103
G1 X1.79 Y-14.66 Z0.44 F1800.0
M101
G1 X1.79 Y-15.84 Z0.44 F1350.0
M103
G1 X2.24 Y-15.84 Z0.44 F1800.0
M101
M108 R35.0
M102
G1 X2.24 Y-14.66 Z0.44 F937.6
M108 R1.148
M103
G1 X-1.24 Y-16.94 Z0.44 F2400.0
G1 X-9.16 Y-17.09 Z0.44 F2400.0
G1 X-9.28 Y-21.86 Z0.44 F2400.0
M108 R35.0
M101
G1 X-9.31 Y-23.02 Z0.44 F2400.0
G1 X-10.77 Y-24.34 Z0.44 F2400.0
M108 R1.148
G1 X-10.77 Y22.84 Z0.44 F1350.0
G1 X-11.22 Y22.84 Z0.44 F1350.0
G1 X-11.22 Y-22.65 Z0.44 F1350.0
M108 R35.0
M102
G1 X-11.22 Y-24.34 Z0.44 F1350.0
M108 R1.148
M103
(</surroundingLoop>)
(</layer>)
(<layer> 0.72 )
(<surroundingLoop>)
(<boundaryPerimeter>)
(<boundaryPoint> X-9.0 Y15.75 Z0.72 </boundaryPoint>)
(<boundaryPoint> X-9.0 Y24.25 Z0.72 </boundaryPoint>)
(<boundaryPoint> X-13.0 Y24.25 Z0.72 </boundaryPoint>)
(<boundaryPoint> X-13.0 Y-25.75 Z0.72 </boundaryPoint>)
(<boundaryPoint> X-9.0 Y-25.75 Z0.72 </boundaryPoint>)
(<boundaryPoint> X-9.0 Y-17.25 Z0.72 </boundaryPoint>)
(<boundaryPoint> X13.0 Y-17.25 Z0.72 </boundaryPoint>)
(<boundaryPoint> X13.0 Y21.131 Z0.72 </boundaryPoint>)
(<boundaryPoint> X5.0 Y25.75 Z0.72 </boundaryPoint>)
(<boundaryPoint> X-7.0 Y25.75 Z0.72 </boundaryPoint>)
(<boundaryPoint> X-7.0 Y15.75 Z0.72 </boundaryPoint>)
(<perimeter> outer )
M108 R35.0
M101
G1 X-11.22 Y-25.53 Z0.72 F940.383
M108 R1.148
G1 X-9.22 Y-25.53 Z0.72 F1800.0
G1 X-9.22 Y-17.03 Z0.72 F1800.0
G1 X12.78 Y-17.03 Z0.72 F1800.0
G1 X12.78 Y21.0 Z0.72 F1800.0
G1 X4.94 Y25.53 Z0.72 F1800.0
G1 X-6.78 Y25.53 Z0.72 F1800.0
G1 X-6.78 Y15.53 Z0.72 F1800.0
G1 X-9.22 Y15.53 Z0.72 F1800.0
G1 X-9.22 Y24.03 Z0.72 F1800.0
G1 X-12.78 Y24.03 Z0.72 F1800.0
G1 X-12.78 Y-24.83 Z0.72 F1800.0
M108 R35.0
M102
G1 X-12.78 Y-25.53 Z0.72 F1800.0
G1 X-11.22 Y-25.53 Z0.72 F1800.0
M108 R1.148
M103
(</perimeter>)
(</boundaryPerimeter>)
(<surroundingLoop>)
(<boundaryPerimeter>)
(<boundaryPoint> X-9.0 Y11.75 Z0.72 </boundaryPoint>)
(<boundaryPoint> X1.0 Y11.75 Z0.72 </boundaryPoint>)
(<boundaryPoint> X1.0 Y-13.25 Z0.72 </boundaryPoint>)
(<boundaryPoint> X-9.0 Y-13.25 Z0.72 </boundaryPoint>)
(<perimeter> inner )
G1 X-9.73 Y-16.55 Z0.72 F2400.0
M108 R35.0
M101
G1 X-9.22 Y-13.47 Z0.72 F2400.0
M108 R1.148
G1 X-9.22 Y11.97 Z0.72 F1800.0
G1 X1.22 Y11.97 Z0.72 F1800.0
G1 X1.22 Y-13.47 Z0.72 F1800.0
G1 X-6.97 Y-13.47 Z0.72 F1800.0
M108 R35.0
M102
G1 X-9.22 Y-13.47 Z0.72 F1800.0
M108 R1.148
M103
(</perimeter>)
(</boundaryPerimeter>)
(</surroundingLoop>)
(<surroundingLoop>)
(<boundaryPerimeter>)
(<boundaryPoint> X-4.515 Y20.111 Z0.72 </boundaryPoint>)
(<boundaryPoint> X-4.7 Y20.214 Z0.72 </boundaryPoint>)
(<boundaryPoint> X-4.865 Y20.348 Z0.72 </boundaryPoint>)
(<boundaryPoint> X-5.005 Y20.507 Z0.72 </boundaryPoint>)
(<boundaryPoint> X-5.116 Y20.687 Z0.72 </boundaryPoint>)
(<boundaryPoint> X-5.195 Y20.884 Z0.72 </boundaryPoint>)
(<boundaryPoint> X-5.24 Y21.091 Z0.72 </boundaryPoint>)
(<boundaryPoint> X-5.249 Y21.303 Z0.72 </boundaryPoint>)
(<boundaryPoint> X-5.222 Y21.513 Z0.72 </boundaryPoint>)
(<boundaryPoint> X-5.16 Y21.716 Z0.72 </boundaryPoint>)
(<boundaryPoint> X-5.064 Y21.905 Z0.72 </boundaryPoint>)
(<boundaryPoint> X-4.938 Y22.076 Z0.72 </boundaryPoint>)
(<boundaryPoint> X-4.785 Y22.223 Z0.72 </boundaryPoint>)
(<boundaryPoint> X-4.61 Y22.341 Z0.72 </boundaryPoint>)
(<boundaryPoint> X-4.416 Y22.429 Z0.72 </boundaryPoint>)
(<boundaryPoint> X-4.211 Y22.482 Z0.72 </boundaryPoint>)
(<boundaryPoint> X-4.0 Y22.5 Z0.72 </boundaryPoint>)
(<boundaryPoint> X-3.789 Y22.482 Z0.72 </boundaryPoint>)
(<boundaryPoint> X-3.584 Y22.429 Z0.72 </boundaryPoint>)
(<boundaryPoint> X-3.39 Y22.341 Z0.72 </boundaryPoint>)
(<boundaryPoint> X-3.215 Y22.223 Z0.72 </boundaryPoint>)
(<boundaryPoint> X-3.062 Y22.076 Z0.72 </boundaryPoint>)
(<boundaryPoint> X-2.936 Y21.905 Z0.72 </boundaryPoint>)
(<boundaryPoint> X-2.84 Y21.716 Z0.72 </boundaryPoint>)
(<boundaryPoint> X-2.778 Y21.513 Z0.72 </boundaryPoint>)
(<boundaryPoint> X-2.751 Y21.303 Z0.72 </boundaryPoint>)
(<boundaryPoint> X-2.76 Y21.091 Z0.72 </boundaryPoint>)
(<boundaryPoint> X-2.805 Y20.884 Z0.72 </boundaryPoint>)
(<boundaryPoint> X-2.884 Y20.687 Z0.72 </boundaryPoint>)
(<boundaryPoint> X-2.995 Y20.507 Z0.72 </boundaryPoint>)
(<boundaryPoint> X-3.135 Y20.348 Z0.72 </boundaryPoint>)
(<boundaryPoint> X-3.3 Y20.214 Z0.72 </boundaryPoint>)
(<boundaryPoint> X-3.485 Y20.111 Z0.72 </boundaryPoint>)
(<boundaryPoint> X-3.685 Y20.04 Z0.72 </boundaryPoint>)
(<boundaryPoint> X-3.894 Y20.005 Z0.72 </boundaryPoint>)
(<boundaryPoint> X-4.106 Y20.005 Z0.72 </boundaryPoint>)
(<boundaryPoint> X-4.315 Y20.04 Z0.72 </boundaryPoint>)
(<perimeter> inner )
G1 X-9.31 Y-12.01 Z0.72 F2400.0
G1 X-9.16 Y11.91 Z0.72 F2400.0
G1 X-5.36 Y12.06 Z0.72 F2400.0
G1 X-4.62 Y16.7 Z0.72 F2400.0
M108 R35.0
M101
G1 X-4.13 Y19.78 Z0.72 F2400.0
M108 R1.148
G1 X-4.37 Y19.82 Z0.72 F1800.0
G1 X-4.61 Y19.91 Z0.72 F1800.0
G1 X-4.83 Y20.03 Z0.72 F1800.0
G1 X-5.02 Y20.19 Z0.72 F1800.0
G1 X-5.19 Y20.37 Z0.72 F1800.0
G1 X-5.32 Y20.59 Z0.72 F1800.0
G1 X-5.41 Y20.82 Z0.72 F1800.0
G1 X-5.46 Y21.06 Z0.72 F1800.0
G1 X-5.47 Y21.31 Z0.72 F1800.0
G1 X-5.44 Y21.56 Z0.72 F1800.0
G1 X-5.37 Y21.8 Z0.72 F1800.0
G1 X-5.26 Y22.02 Z0.72 F1800.0
G1 X-5.11 Y22.23 Z0.72 F1800.0
G1 X-4.93 Y22.4 Z0.72 F1800.0
G1 X-4.72 Y22.54 Z0.72 F1800.0
G1 X-4.49 Y22.64 Z0.72 F1800.0
G1 X-4.25 Y22.7 Z0.72 F1800.0
G1 X-4.0 Y22.73 Z0.72 F1800.0
G1 X-3.75 Y22.7 Z0.72 F1800.0
G1 X-3.51 Y22.64 Z0.72 F1800.0
G1 X-3.28 Y22.54 Z0.72 F1800.0
G1 X-3.07 Y22.4 Z0.72 F1800.0
G1 X-2.89 Y22.23 Z0.72 F1800.0
G1 X-2.74 Y22.02 Z0.72 F1800.0
G1 X-2.63 Y21.8 Z0.72 F1800.0
G1 X-2.56 Y21.56 Z0.72 F1800.0
G1 X-2.53 Y21.31 Z0.72 F1800.0
G1 X-2.54 Y21.06 Z0.72 F1800.0
G1 X-2.54 Y21.06 Z0.72 F1800.0
M108 R35.0
M102
G1 X-2.59 Y20.82 Z0.72 F1800.0
G1 X-2.68 Y20.59 Z0.72 F1800.0
G1 X-2.81 Y20.37 Z0.72 F1800.0
G1 X-2.98 Y20.19 Z0.72 F1800.0
G1 X-3.17 Y20.03 Z0.72 F1800.0
G1 X-3.39 Y19.91 Z0.72 F1800.0
G1 X-3.63 Y19.82 Z0.72 F1800.0
G1 X-3.88 Y19.78 Z0.72 F1800.0
G1 X-4.13 Y19.78 Z0.72 F1800.0
M108 R1.148
M103
(</perimeter>)
(</boundaryPerimeter>)
(</surroundingLoop>)
(<surroundingLoop>)
(<boundaryPerimeter>)
(<boundaryPoint> X1.985 Y20.111 Z0.72 </boundaryPoint>)
(<boundaryPoint> X1.8 Y20.214 Z0.72 </boundaryPoint>)
(<boundaryPoint> X1.635 Y20.348 Z0.72 </boundaryPoint>)
(<boundaryPoint> X1.495 Y20.507 Z0.72 </boundaryPoint>)
(<boundaryPoint> X1.384 Y20.687 Z0.72 </boundaryPoint>)
(<boundaryPoint> X1.305 Y20.884 Z0.72 </boundaryPoint>)
(<boundaryPoint> X1.26 Y21.091 Z0.72 </boundaryPoint>)
(<boundaryPoint> X1.251 Y21.303 Z0.72 </boundaryPoint>)
(<boundaryPoint> X1.278 Y21.513 Z0.72 </boundaryPoint>)
(<boundaryPoint> X1.34 Y21.716 Z0.72 </boundaryPoint>)
(<boundaryPoint> X1.436 Y21.905 Z0.72 </boundaryPoint>)
(<boundaryPoint> X1.562 Y22.076 Z0.72 </boundaryPoint>)
(<boundaryPoint> X1.715 Y22.223 Z0.72 </boundaryPoint>)
(<boundaryPoint> X1.89 Y22.341 Z0.72 </boundaryPoint>)
(<boundaryPoint> X2.084 Y22.429 Z0.72 </boundaryPoint>)
(<boundaryPoint> X2.289 Y22.482 Z0.72 </boundaryPoint>)
(<boundaryPoint> X2.5 Y22.5 Z0.72 </boundaryPoint>)
(<boundaryPoint> X2.711 Y22.482 Z0.72 </boundaryPoint>)
(<boundaryPoint> X2.916 Y22.429 Z0.72 </boundaryPoint>)
(<boundaryPoint> X3.11 Y22.341 Z0.72 </boundaryPoint>)
(<boundaryPoint> X3.285 Y22.223 Z0.72 </boundaryPoint>)
(<boundaryPoint> X3.438 Y22.076 Z0.72 </boundaryPoint>)
(<boundaryPoint> X3.564 Y21.905 Z0.72 </boundaryPoint>)
(<boundaryPoint> X3.66 Y21.716 Z0.72 </boundaryPoint>)
(<boundaryPoint> X3.722 Y21.513 Z0.72 </boundaryPoint>)
(<boundaryPoint> X3.749 Y21.303 Z0.72 </boundaryPoint>)
(<boundaryPoint> X3.74 Y21.091 Z0.72 </boundaryPoint>)
(<boundaryPoint> X3.695 Y20.884 Z0.72 </boundaryPoint>)
(<boundaryPoint> X3.616 Y20.687 Z0.72 </boundaryPoint>)
(<boundaryPoint> X3.505 Y20.507 Z0.72 </boundaryPoint>)
(<boundaryPoint> X3.365 Y20.348 Z0.72 </boundaryPoint>)
(<boundaryPoint> X3.2 Y20.214 Z0.72 </boundaryPoint>)
(<boundaryPoint> X3.015 Y20.111 Z0.72 </boundaryPoint>)
(<boundaryPoint> X2.815 Y20.04 Z0.72 </boundaryPoint>)
(<boundaryPoint> X2.606 Y20.005 Z0.72 </boundaryPoint>)
(<boundaryPoint> X2.394 Y20.005 Z0.72 </boundaryPoint>)
(<boundaryPoint> X2.185 Y20.04 Z0.72 </boundaryPoint>)
(<perimeter> inner )
G1 X-1.97 Y20.21 Z0.72 F2400.0
M108 R35.0
M101
G1 X1.09 Y20.82 Z0.72 F2400.0
M108 R1.148
G1 X1.04 Y21.06 Z0.72 F1800.0
G1 X1.03 Y21.31 Z0.72 F1800.0
G1 X1.06 Y21.56 Z0.72 F1800.0
G1 X1.13 Y21.8 Z0.72 F1800.0
G1 X1.24 Y22.02 Z0.72 F1800.0
G1 X1.39 Y22.23 Z0.72 F1800.0
G1 X1.57 Y22.4 Z0.72 F1800.0
G1 X1.78 Y22.54 Z0.72 F1800.0
G1 X2.01 Y22.64 Z0.72 F1800.0
G1 X2.25 Y22.7 Z0.72 F1800.0
G1 X2.5 Y22.73 Z0.72 F1800.0
G1 X2.75 Y22.7 Z0.72 F1800.0
G1 X2.99 Y22.64 Z0.72 F1800.0
G1 X3.22 Y22.54 Z0.72 F1800.0
G1 X3.43 Y22.4 Z0.72 F1800.0
G1 X3.61 Y22.23 Z0.72 F1800.0
G1 X3.76 Y22.02 Z0.72 F1800.0
G1 X3.87 Y21.8 Z0.72 F1800.0
G1 X3.94 Y21.56 Z0.72 F1800.0
G1 X3.97 Y21.31 Z0.72 F1800.0
G1 X3.96 Y21.06 Z0.72 F1800.0
G1 X3.91 Y20.82 Z0.72 F1800.0
G1 X3.82 Y20.59 Z0.72 F1800.0
G1 X3.69 Y20.37 Z0.72 F1800.0
G1 X3.52 Y20.19 Z0.72 F1800.0
G1 X3.33 Y20.03 Z0.72 F1800.0
G1 X3.11 Y19.91 Z0.72 F1800.0
G1 X2.87 Y19.82 Z0.72 F1800.0
G1 X2.63 Y19.78 Z0.72 F1800.0
G1 X2.38 Y19.78 Z0.72 F1800.0
G1 X2.13 Y19.82 Z0.72 F1800.0
G1 X1.89 Y19.91 Z0.72 F1800.0
G1 X1.67 Y20.03 Z0.72 F1800.0
G1 X1.48 Y20.19 Z0.72 F1800.0
G1 X1.31 Y20.37 Z0.72 F1800.0
G1 X1.18 Y20.59 Z0.72 F1800.0
G1 X1.09 Y20.82 Z0.72 F1800.0
M103
(</perimeter>)
(</boundaryPerimeter>)
(</surroundingLoop>)
(<loop> inner )
G1 X0.66 Y20.69 Z0.72 F2400.0
M101
G1 X0.59 Y21.0 Z0.72 F1800.0
G1 X0.58 Y21.33 Z0.72 F1800.0
G1 X0.62 Y21.66 Z0.72 F1800.0
G1 X0.71 Y21.97 Z0.72 F1800.0
G1 X0.86 Y22.26 Z0.72 F1800.0
G1 X1.05 Y22.52 Z0.72 F1800.0
G1 X1.29 Y22.75 Z0.72 F1800.0
G1 X1.56 Y22.93 Z0.72 F1800.0
G1 X1.86 Y23.07 Z0.72 F1800.0
G1 X2.17 Y23.15 Z0.72 F1800.0
G1 X2.5 Y23.18 Z0.72 F1800.0
G1 X2.83 Y23.15 Z0.72 F1800.0
G1 X3.14 Y23.07 Z0.72 F1800.0
G1 X3.44 Y22.93 Z0.72 F1800.0
G1 X3.71 Y22.75 Z0.72 F1800.0
G1 X3.95 Y22.52 Z0.72 F1800.0
G1 X4.14 Y22.26 Z0.72 F1800.0
G1 X4.29 Y21.97 Z0.72 F1800.0
G1 X4.38 Y21.66 Z0.72 F1800.0
G1 X4.42 Y21.33 Z0.72 F1800.0
G1 X4.41 Y21.0 Z0.72 F1800.0
G1 X4.34 Y20.69 Z0.72 F1800.0
G1 X4.22 Y20.38 Z0.72 F1800.0
G1 X4.05 Y20.11 Z0.72 F1800.0
G1 X3.83 Y19.86 Z0.72 F1800.0
G1 X3.58 Y19.65 Z0.72 F1800.0
G1 X3.29 Y19.5 Z0.72 F1800.0
G1 X2.98 Y19.39 Z0.72 F1800.0
G1 X2.66 Y19.33 Z0.72 F1800.0
G1 X2.34 Y19.33 Z0.72 F1800.0
G1 X2.02 Y19.39 Z0.72 F1800.0
G1 X1.71 Y19.5 Z0.72 F1800.0
G1 X1.42 Y19.65 Z0.72 F1800.0
G1 X1.17 Y19.86 Z0.72 F1800.0
G1 X0.95 Y20.11 Z0.72 F1800.0
G1 X0.78 Y20.38 Z0.72 F1800.0
G1 X0.66 Y20.69 Z0.72 F1800.0
M103
(</loop>)
(<loop> inner )
G1 X0.23 Y20.55 Z0.72 F2400.0
M101
G1 X0.14 Y20.95 Z0.72 F1800.0
G1 X0.13 Y21.35 Z0.72 F1800.0
G1 X0.18 Y21.75 Z0.72 F1800.0
G1 X0.29 Y22.14 Z0.72 F1800.0
G1 X0.48 Y22.5 Z0.72 F1800.0
G1 X0.71 Y22.82 Z0.72 F1800.0
G1 X1.01 Y23.1 Z0.72 F1800.0
G1 X1.34 Y23.32 Z0.72 F1800.0
G1 X1.71 Y23.49 Z0.72 F1800.0
G1 X2.1 Y23.59 Z0.72 F1800.0
G1 X2.5 Y23.63 Z0.72 F1800.0
G1 X2.9 Y23.59 Z0.72 F1800.0
G1 X3.29 Y23.49 Z0.72 F1800.0
G1 X3.66 Y23.32 Z0.72 F1800.0
G1 X3.99 Y23.1 Z0.72 F1800.0
G1 X4.29 Y22.82 Z0.72 F1800.0
G1 X4.52 Y22.5 Z0.72 F1800.0
G1 X4.71 Y22.14 Z0.72 F1800.0
G1 X4.82 Y21.75 Z0.72 F1800.0
G1 X4.87 Y21.35 Z0.72 F1800.0
G1 X4.86 Y20.95 Z0.72 F1800.0
G1 X4.77 Y20.55 Z0.72 F1800.0
G1 X4.62 Y20.18 Z0.72 F1800.0
G1 X4.41 Y19.84 Z0.72 F1800.0
G1 X4.14 Y19.54 Z0.72 F1800.0
G1 X3.83 Y19.28 Z0.72 F1800.0
G1 X3.48 Y19.09 Z0.72 F1800.0
G1 X3.1 Y18.95 Z0.72 F1800.0
G1 X2.7 Y18.88 Z0.72 F1800.0
G1 X2.3 Y18.88 Z0.72 F1800.0
G1 X1.9 Y18.95 Z0.72 F1800.0
G1 X1.74 Y19.01 Z0.72 F1800.0
M108 R35.0
M102
G1 X1.52 Y19.09 Z0.72 F1800.0
G1 X1.17 Y19.28 Z0.72 F1800.0
G1 X0.85 Y19.54 Z0.72 F1800.0
G1 X0.59 Y19.84 Z0.72 F1800.0
G1 X0.38 Y20.18 Z0.72 F1800.0
G1 X0.23 Y20.55 Z0.72 F1800.0
M108 R1.148
M103
(</loop>)
(<loop> inner )
G1 X0.23 Y15.54 Z0.72 F2400.0
M108 R35.0
M101
G1 X0.23 Y12.42 Z0.72 F2400.0
M108 R1.148
G1 X1.67 Y12.42 Z0.72 F1800.0
G1 X1.67 Y-13.92 Z0.72 F1800.0
G1 X-9.67 Y-13.92 Z0.72 F1800.0
G1 X-9.67 Y12.42 Z0.72 F1800.0
G1 X0.23 Y12.42 Z0.72 F1800.0
M103
(</loop>)
(<loop> inner )
G1 X0.23 Y12.87 Z0.72 F2400.0
M101
G1 X2.12 Y12.87 Z0.72 F1800.0
G1 X2.12 Y-14.37 Z0.72 F1800.0
G1 X-10.12 Y-14.37 Z0.72 F1800.0
G1 X-10.12 Y12.87 Z0.72 F1800.0
G1 X-2.02 Y12.87 Z0.72 F1800.0
M108 R35.0
M102
G1 X0.23 Y12.87 Z0.72 F1800.0
M108 R1.148
M103
(</loop>)
(<loop> outer )
G1 X-2.88 Y13.77 Z0.72 F2400.0
M108 R35.0
M101
G1 X-5.88 Y14.63 Z0.72 F2400.0
M108 R1.148
G1 X-10.12 Y14.63 Z0.72 F1800.0
G1 X-10.12 Y23.13 Z0.72 F1800.0
G1 X-11.88 Y23.13 Z0.72 F1800.0
G1 X-11.88 Y-24.63 Z0.72 F1800.0
G1 X-10.12 Y-24.63 Z0.72 F1800.0
G1 X-10.12 Y-16.13 Z0.72 F1800.0
G1 X11.88 Y-16.13 Z0.72 F1800.0
G1 X11.88 Y20.48 Z0.72 F1800.0
G1 X4.7 Y24.63 Z0.72 F1800.0
G1 X-5.88 Y24.63 Z0.72 F1800.0
G1 X-5.88 Y23.25 Z0.72 F1800.0
G1 X-5.33 Y23.21 Z0.72 F1800.0
G1 X-4.79 Y23.49 Z0.72 F1800.0
G1 X-4.4 Y23.59 Z0.72 F1800.0
G1 X-4.0 Y23.63 Z0.72 F1800.0
G1 X-3.6 Y23.59 Z0.72 F1800.0
G1 X-3.21 Y23.49 Z0.72 F1800.0
G1 X-2.84 Y23.32 Z0.72 F1800.0
G1 X-2.51 Y23.1 Z0.72 F1800.0
G1 X-2.21 Y22.82 Z0.72 F1800.0
G1 X-1.98 Y22.5 Z0.72 F1800.0
G1 X-1.79 Y22.14 Z0.72 F1800.0
G1 X-1.68 Y21.75 Z0.72 F1800.0
G1 X-1.63 Y21.35 Z0.72 F1800.0
G1 X-1.64 Y20.95 Z0.72 F1800.0
G1 X-1.73 Y20.55 Z0.72 F1800.0
G1 X-1.88 Y20.18 Z0.72 F1800.0
G1 X-2.09 Y19.84 Z0.72 F1800.0
G1 X-2.35 Y19.54 Z0.72 F1800.0
G1 X-2.67 Y19.28 Z0.72 F1800.0
G1 X-3.02 Y19.09 Z0.72 F1800.0
G1 X-3.4 Y18.95 Z0.72 F1800.0
G1 X-3.8 Y18.88 Z0.72 F1800.0
G1 X-4.2 Y18.88 Z0.72 F1800.0
G1 X-4.6 Y18.95 Z0.72 F1800.0
G1 X-4.98 Y19.09 Z0.72 F1800.0
G1 X-5.42 Y19.36 Z0.72 F1800.0
G1 X-5.88 Y19.2 Z0.72 F1800.0
G1 X-5.88 Y16.88 Z0.72 F1800.0
M108 R35.0
M102
G1 X-5.88 Y14.63 Z0.72 F1800.0
M108 R1.148
M103
(</loop>)
(<loop> inner )
G1 X-5.36 Y16.39 Z0.72 F2400.0
M108 R35.0
M101
G1 X-4.49 Y19.39 Z0.72 F2400.0
M108 R1.148
G1 X-4.79 Y19.5 Z0.72 F1800.0
G1 X-5.08 Y19.65 Z0.72 F1800.0
G1 X-5.33 Y19.86 Z0.72 F1800.0
G1 X-5.55 Y20.11 Z0.72 F1800.0
G1 X-5.72 Y20.38 Z0.72 F1800.0
G1 X-5.84 Y20.69 Z0.72 F1800.0
G1 X-5.91 Y21.0 Z0.72 F1800.0
G1 X-5.92 Y21.33 Z0.72 F1800.0
G1 X-5.88 Y21.66 Z0.72 F1800.0
G1 X-5.79 Y21.97 Z0.72 F1800.0
G1 X-5.64 Y22.26 Z0.72 F1800.0
G1 X-5.45 Y22.52 Z0.72 F1800.0
G1 X-5.21 Y22.75 Z0.72 F1800.0
G1 X-4.94 Y22.93 Z0.72 F1800.0
G1 X-4.64 Y23.07 Z0.72 F1800.0
G1 X-4.33 Y23.15 Z0.72 F1800.0
G1 X-4.0 Y23.18 Z0.72 F1800.0
G1 X-3.67 Y23.15 Z0.72 F1800.0
G1 X-3.36 Y23.07 Z0.72 F1800.0
G1 X-3.06 Y22.93 Z0.72 F1800.0
G1 X-2.79 Y22.75 Z0.72 F1800.0
G1 X-2.55 Y22.52 Z0.72 F1800.0
G1 X-2.36 Y22.26 Z0.72 F1800.0
G1 X-2.21 Y21.97 Z0.72 F1800.0
G1 X-2.12 Y21.66 Z0.72 F1800.0
G1 X-2.08 Y21.33 Z0.72 F1800.0
G1 X-2.09 Y21.0 Z0.72 F1800.0
G1 X-2.16 Y20.69 Z0.72 F1800.0
G1 X-2.28 Y20.38 Z0.72 F1800.0
G1 X-2.45 Y20.11 Z0.72 F1800.0
G1 X-2.48 Y20.08 Z0.72 F1800.0
M108 R35.0
M102
G1 X-2.67 Y19.86 Z0.72 F1800.0
G1 X-2.92 Y19.65 Z0.72 F1800.0
G1 X-3.21 Y19.5 Z0.72 F1800.0
G1 X-3.52 Y19.39 Z0.72 F1800.0
G1 X-3.84 Y19.33 Z0.72 F1800.0
G1 X-4.16 Y19.33 Z0.72 F1800.0
G1 X-4.49 Y19.39 Z0.72 F1800.0
M108 R1.148
M103
(</loop>)
(<loop> outer )
M108 R35.0
M101
G1 X-6.33 Y19.39 Z0.72 F1416.923
M108 R1.148
G1 X-6.33 Y15.08 Z0.72 F1800.0
G1 X-9.67 Y15.08 Z0.72 F1800.0
G1 X-9.67 Y23.58 Z0.72 F1800.0
G1 X-12.33 Y23.58 Z0.72 F1800.0
G1 X-12.33 Y-25.08 Z0.72 F1800.0
G1 X-9.67 Y-25.08 Z0.72 F1800.0
G1 X-9.67 Y-16.58 Z0.72 F1800.0
G1 X12.33 Y-16.58 Z0.72 F1800.0
G1 X12.33 Y20.74 Z0.72 F1800.0
G1 X4.82 Y25.08 Z0.72 F1800.0
G1 X-6.33 Y25.08 Z0.72 F1800.0
G1 X-6.33 Y21.64 Z0.72 F1800.0
M108 R35.0
M102
G1 X-6.33 Y19.39 Z0.72 F1800.0
M108 R1.148
M103
(</loop>)
M108 R35.0
M101
G1 X-5.15 Y18.85 Z0.72 F992.746
M108 R1.148
G1 X-5.59 Y18.85 Z0.72 F1800.0
G1 X-5.59 Y18.4 Z0.72 F1800.0
G1 X11.59 Y18.4 Z0.72 F1800.0
M103
G1 X11.59 Y17.95 Z0.72 F2400.0
M101
G1 X-5.59 Y17.95 Z0.72 F1800.0
G1 X-5.59 Y17.5 Z0.72 F1800.0
G1 X11.59 Y17.5 Z0.72 F1800.0
M103
G1 X11.59 Y17.05 Z0.72 F2400.0
M101
G1 X-5.59 Y17.05 Z0.72 F1800.0
G1 X-5.59 Y16.61 Z0.72 F1800.0
G1 X11.59 Y16.61 Z0.72 F1800.0
M103
G1 X11.59 Y16.16 Z0.72 F2400.0
M101
G1 X-5.59 Y16.16 Z0.72 F1800.0
G1 X-5.59 Y15.71 Z0.72 F1800.0
G1 X11.59 Y15.71 Z0.72 F1800.0
M103
G1 X11.59 Y15.26 Z0.72 F2400.0
M101
G1 X-5.59 Y15.26 Z0.72 F1800.0
G1 X-5.59 Y14.81 Z0.72 F1800.0
G1 X11.59 Y14.81 Z0.72 F1800.0
M103
G1 X11.59 Y14.36 Z0.72 F2400.0
M101
G1 X-11.59 Y14.36 Z0.72 F1800.0
M103
G1 X-11.59 Y13.91 Z0.72 F2400.0
M101
G1 X11.59 Y13.91 Z0.72 F1800.0
M103
G1 X11.59 Y13.46 Z0.72 F2400.0
M101
G1 X-11.59 Y13.46 Z0.72 F1800.0
M103
G1 X-11.59 Y13.02 Z0.72 F2400.0
M101
G1 X-10.41 Y13.02 Z0.72 F1800.0
M103
G1 X-10.41 Y12.57 Z0.72 F2400.0
M101
G1 X-11.59 Y12.57 Z0.72 F1800.0
M103
G1 X-11.59 Y12.12 Z0.72 F2400.0
M101
G1 X-10.41 Y12.12 Z0.72 F1800.0
M103
G1 X-10.41 Y11.67 Z0.72 F2400.0
M101
G1 X-11.59 Y11.67 Z0.72 F1800.0
M103
G1 X-11.59 Y11.22 Z0.72 F2400.0
M101
G1 X-10.41 Y11.22 Z0.72 F1800.0
M103
G1 X-10.41 Y10.77 Z0.72 F2400.0
M101
G1 X-11.59 Y10.77 Z0.72 F1800.0
M103
G1 X-11.59 Y10.32 Z0.72 F2400.0
M101
G1 X-10.41 Y10.32 Z0.72 F1800.0
M103
G1 X-10.41 Y9.87 Z0.72 F2400.0
M101
G1 X-11.59 Y9.87 Z0.72 F1800.0
M103
G1 X-11.59 Y9.43 Z0.72 F2400.0
M101
G1 X-10.41 Y9.43 Z0.72 F1800.0
M103
G1 X-10.41 Y8.98 Z0.72 F2400.0
M101
G1 X-11.59 Y8.98 Z0.72 F1800.0
M103
G1 X-11.59 Y8.53 Z0.72 F2400.0
M101
G1 X-10.41 Y8.53 Z0.72 F1800.0
M103
G1 X-10.41 Y8.08 Z0.72 F2400.0
M101
G1 X-11.59 Y8.08 Z0.72 F1800.0
M103
G1 X-11.59 Y7.63 Z0.72 F2400.0
M101
G1 X-10.41 Y7.63 Z0.72 F1800.0
M103
G1 X-10.41 Y7.18 Z0.72 F2400.0
M101
G1 X-11.59 Y7.18 Z0.72 F1800.0
M103
G1 X-11.59 Y6.73 Z0.72 F2400.0
M101
G1 X-10.41 Y6.73 Z0.72 F1800.0
M103
G1 X-10.41 Y6.28 Z0.72 F2400.0
M101
G1 X-11.59 Y6.28 Z0.72 F1800.0
M103
G1 X-11.59 Y5.83 Z0.72 F2400.0
M101
G1 X-10.41 Y5.83 Z0.72 F1800.0
M103
G1 X-10.41 Y5.39 Z0.72 F2400.0
M101
G1 X-11.59 Y5.39 Z0.72 F1800.0
M103
G1 X-11.59 Y4.94 Z0.72 F2400.0
M101
G1 X-10.41 Y4.94 Z0.72 F1800.0
M103
G1 X-10.41 Y4.49 Z0.72 F2400.0
M101
G1 X-11.59 Y4.49 Z0.72 F1800.0
M103
G1 X-11.59 Y4.04 Z0.72 F2400.0
M101
G1 X-10.41 Y4.04 Z0.72 F1800.0
M103
G1 X-10.41 Y3.59 Z0.72 F2400.0
M101
G1 X-11.59 Y3.59 Z0.72 F1800.0
M103
G1 X-11.59 Y3.14 Z0.72 F2400.0
M101
G1 X-10.41 Y3.14 Z0.72 F1800.0
M103
G1 X-10.41 Y2.69 Z0.72 F2400.0
M101
G1 X-11.59 Y2.69 Z0.72 F1800.0
M103
G1 X-11.59 Y2.24 Z0.72 F2400.0
M101
G1 X-10.41 Y2.24 Z0.72 F1800.0
M103
G1 X-10.41 Y1.79 Z0.72 F2400.0
M101
G1 X-11.59 Y1.79 Z0.72 F1800.0
M103
G1 X-11.59 Y1.35 Z0.72 F2400.0
M101
G1 X-10.41 Y1.35 Z0.72 F1800.0
M103
G1 X-10.41 Y0.9 Z0.72 F2400.0
M101
G1 X-11.59 Y0.9 Z0.72 F1800.0
M103
G1 X-11.59 Y0.45 Z0.72 F2400.0
M101
G1 X-10.41 Y0.45 Z0.72 F1800.0
M103
G1 X-10.41 Y0.0 Z0.72 F2400.0
M101
G1 X-11.59 Y0.0 Z0.72 F1800.0
M103
G1 X-11.59 Y-0.45 Z0.72 F2400.0
M101
G1 X-10.41 Y-0.45 Z0.72 F1800.0
M103
G1 X-10.41 Y-0.9 Z0.72 F2400.0
M101
G1 X-11.59 Y-0.9 Z0.72 F1800.0
M103
G1 X-11.59 Y-1.35 Z0.72 F2400.0
M101
G1 X-10.41 Y-1.35 Z0.72 F1800.0
M103
G1 X-10.41 Y-1.79 Z0.72 F2400.0
M101
G1 X-11.59 Y-1.79 Z0.72 F1800.0
M103
G1 X-11.59 Y-2.24 Z0.72 F2400.0
M101
G1 X-10.41 Y-2.24 Z0.72 F1800.0
M103
G1 X-10.41 Y-2.69 Z0.72 F2400.0
M101
G1 X-11.59 Y-2.69 Z0.72 F1800.0
M103
G1 X-11.59 Y-3.14 Z0.72 F2400.0
M101
G1 X-10.41 Y-3.14 Z0.72 F1800.0
M103
G1 X-10.41 Y-3.59 Z0.72 F2400.0
M101
G1 X-11.59 Y-3.59 Z0.72 F1800.0
M103
G1 X-11.59 Y-4.04 Z0.72 F2400.0
M101
G1 X-10.41 Y-4.04 Z0.72 F1800.0
M103
G1 X-10.41 Y-4.49 Z0.72 F2400.0
M101
G1 X-11.59 Y-4.49 Z0.72 F1800.0
M103
G1 X-11.59 Y-4.94 Z0.72 F2400.0
M101
G1 X-10.41 Y-4.94 Z0.72 F1800.0
M103
G1 X-10.41 Y-5.39 Z0.72 F2400.0
M101
G1 X-11.59 Y-5.39 Z0.72 F1800.0
M103
G1 X-11.59 Y-5.83 Z0.72 F2400.0
M101
G1 X-10.41 Y-5.83 Z0.72 F1800.0
M103
G1 X-10.41 Y-6.28 Z0.72 F2400.0
M101
G1 X-11.59 Y-6.28 Z0.72 F1800.0
M103
G1 X-11.59 Y-6.73 Z0.72 F2400.0
M101
G1 X-10.41 Y-6.73 Z0.72 F1800.0
M103
G1 X-10.41 Y-7.18 Z0.72 F2400.0
M101
G1 X-11.59 Y-7.18 Z0.72 F1800.0
M103
G1 X-11.59 Y-7.63 Z0.72 F2400.0
M101
G1 X-10.41 Y-7.63 Z0.72 F1800.0
M103
G1 X-10.41 Y-8.08 Z0.72 F2400.0
M101
G1 X-11.59 Y-8.08 Z0.72 F1800.0
M103
G1 X-11.59 Y-8.53 Z0.72 F2400.0
M101
G1 X-10.41 Y-8.53 Z0.72 F1800.0
M103
G1 X-10.41 Y-8.98 Z0.72 F2400.0
M101
G1 X-11.59 Y-8.98 Z0.72 F1800.0
M103
G1 X-11.59 Y-9.43 Z0.72 F2400.0
M101
G1 X-10.41 Y-9.43 Z0.72 F1800.0
M103
G1 X-10.41 Y-9.87 Z0.72 F2400.0
M101
G1 X-11.59 Y-9.87 Z0.72 F1800.0
M103
G1 X-11.59 Y-10.32 Z0.72 F2400.0
M101
G1 X-10.41 Y-10.32 Z0.72 F1800.0
M103
G1 X-10.41 Y-10.77 Z0.72 F2400.0
M101
G1 X-11.59 Y-10.77 Z0.72 F1800.0
M103
G1 X-11.59 Y-11.22 Z0.72 F2400.0
M101
G1 X-10.41 Y-11.22 Z0.72 F1800.0
M103
G1 X-10.41 Y-11.67 Z0.72 F2400.0
M101
G1 X-11.59 Y-11.67 Z0.72 F1800.0
M103
G1 X-11.59 Y-12.12 Z0.72 F2400.0
M101
G1 X-10.41 Y-12.12 Z0.72 F1800.0
M103
G1 X-10.41 Y-12.57 Z0.72 F2400.0
M101
G1 X-11.59 Y-12.57 Z0.72 F1800.0
M103
G1 X-11.59 Y-13.02 Z0.72 F2400.0
M101
G1 X-10.41 Y-13.02 Z0.72 F1800.0
M103
G1 X-10.41 Y-13.46 Z0.72 F2400.0
M101
G1 X-11.59 Y-13.46 Z0.72 F1800.0
M103
G1 X-11.59 Y-13.91 Z0.72 F2400.0
M101
G1 X-10.41 Y-13.91 Z0.72 F1800.0
M103
G1 X-10.41 Y-14.36 Z0.72 F2400.0
M101
G1 X-11.59 Y-14.36 Z0.72 F1800.0
M103
G1 X-11.59 Y-14.81 Z0.72 F2400.0
M101
G1 X11.59 Y-14.81 Z0.72 F1800.0
M103
G1 X11.59 Y-15.26 Z0.72 F2400.0
M101
G1 X-11.59 Y-15.26 Z0.72 F1800.0
M103
G1 X-11.59 Y-15.71 Z0.72 F2400.0
M101
G1 X9.34 Y-15.71 Z0.72 F1800.0
M108 R35.0
M102
G1 X11.59 Y-15.71 Z0.72 F1800.0
M108 R1.148
M103
M108 R35.0
M101
G1 X11.59 Y-14.36 Z0.72 F1035.385
M108 R1.148
G1 X2.41 Y-14.36 Z0.72 F1800.0
G1 X2.41 Y-13.91 Z0.72 F1800.0
G1 X11.59 Y-13.91 Z0.72 F1800.0
M103
G1 X11.59 Y-13.46 Z0.72 F2400.0
M101
G1 X2.41 Y-13.46 Z0.72 F1800.0
G1 X2.41 Y-13.02 Z0.72 F1800.0
G1 X11.59 Y-13.02 Z0.72 F1800.0
M103
G1 X11.59 Y-12.57 Z0.72 F2400.0
M101
G1 X2.41 Y-12.57 Z0.72 F1800.0
G1 X2.41 Y-12.12 Z0.72 F1800.0
G1 X11.59 Y-12.12 Z0.72 F1800.0
M103
G1 X11.59 Y-11.67 Z0.72 F2400.0
M101
G1 X2.41 Y-11.67 Z0.72 F1800.0
G1 X2.41 Y-11.22 Z0.72 F1800.0
G1 X11.59 Y-11.22 Z0.72 F1800.0
M103
G1 X11.59 Y-10.77 Z0.72 F2400.0
M101
G1 X2.41 Y-10.77 Z0.72 F1800.0
G1 X2.41 Y-10.32 Z0.72 F1800.0
G1 X11.59 Y-10.32 Z0.72 F1800.0
M103
G1 X11.59 Y-9.87 Z0.72 F2400.0
M101
G1 X2.41 Y-9.87 Z0.72 F1800.0
G1 X2.41 Y-9.43 Z0.72 F1800.0
G1 X11.59 Y-9.43 Z0.72 F1800.0
M103
G1 X11.59 Y-8.98 Z0.72 F2400.0
M101
G1 X2.41 Y-8.98 Z0.72 F1800.0
G1 X2.41 Y-8.53 Z0.72 F1800.0
G1 X11.59 Y-8.53 Z0.72 F1800.0
M103
G1 X11.59 Y-8.08 Z0.72 F2400.0
M101
G1 X2.41 Y-8.08 Z0.72 F1800.0
G1 X2.41 Y-7.63 Z0.72 F1800.0
G1 X11.59 Y-7.63 Z0.72 F1800.0
M103
G1 X11.59 Y-7.18 Z0.72 F2400.0
M101
G1 X2.41 Y-7.18 Z0.72 F1800.0
G1 X2.41 Y-6.73 Z0.72 F1800.0
G1 X11.59 Y-6.73 Z0.72 F1800.0
M103
G1 X11.59 Y-6.28 Z0.72 F2400.0
M101
G1 X2.41 Y-6.28 Z0.72 F1800.0
G1 X2.41 Y-5.83 Z0.72 F1800.0
G1 X11.59 Y-5.83 Z0.72 F1800.0
M103
G1 X11.59 Y-5.39 Z0.72 F2400.0
M101
G1 X2.41 Y-5.39 Z0.72 F1800.0
G1 X2.41 Y-4.94 Z0.72 F1800.0
G1 X11.59 Y-4.94 Z0.72 F1800.0
M103
G1 X11.59 Y-4.49 Z0.72 F2400.0
M101
G1 X2.41 Y-4.49 Z0.72 F1800.0
G1 X2.41 Y-4.04 Z0.72 F1800.0
G1 X11.59 Y-4.04 Z0.72 F1800.0
M103
G1 X11.59 Y-3.59 Z0.72 F2400.0
M101
G1 X2.41 Y-3.59 Z0.72 F1800.0
G1 X2.41 Y-3.14 Z0.72 F1800.0
G1 X11.59 Y-3.14 Z0.72 F1800.0
M103
G1 X11.59 Y-2.69 Z0.72 F2400.0
M101
G1 X2.41 Y-2.69 Z0.72 F1800.0
G1 X2.41 Y-2.24 Z0.72 F1800.0
G1 X11.59 Y-2.24 Z0.72 F1800.0
M103
G1 X11.59 Y-1.79 Z0.72 F2400.0
M101
G1 X2.41 Y-1.79 Z0.72 F1800.0
G1 X2.41 Y-1.35 Z0.72 F1800.0
G1 X11.59 Y-1.35 Z0.72 F1800.0
M103
G1 X11.59 Y-0.9 Z0.72 F2400.0
M101
G1 X2.41 Y-0.9 Z0.72 F1800.0
G1 X2.41 Y-0.45 Z0.72 F1800.0
G1 X11.59 Y-0.45 Z0.72 F1800.0
M103
G1 X11.59 Y-0.0 Z0.72 F2400.0
M101
G1 X2.41 Y-0.0 Z0.72 F1800.0
G1 X2.41 Y0.45 Z0.72 F1800.0
G1 X11.59 Y0.45 Z0.72 F1800.0
M103
G1 X11.59 Y0.9 Z0.72 F2400.0
M101
G1 X2.41 Y0.9 Z0.72 F1800.0
G1 X2.41 Y1.35 Z0.72 F1800.0
G1 X11.59 Y1.35 Z0.72 F1800.0
M103
G1 X11.59 Y1.79 Z0.72 F2400.0
M101
G1 X2.41 Y1.79 Z0.72 F1800.0
G1 X2.41 Y2.24 Z0.72 F1800.0
G1 X11.59 Y2.24 Z0.72 F1800.0
M103
G1 X11.59 Y2.69 Z0.72 F2400.0
M101
G1 X2.41 Y2.69 Z0.72 F1800.0
G1 X2.41 Y3.14 Z0.72 F1800.0
G1 X11.59 Y3.14 Z0.72 F1800.0
M103
G1 X11.59 Y3.59 Z0.72 F2400.0
M101
G1 X2.41 Y3.59 Z0.72 F1800.0
G1 X2.41 Y4.04 Z0.72 F1800.0
G1 X11.59 Y4.04 Z0.72 F1800.0
M103
G1 X11.59 Y4.49 Z0.72 F2400.0
M101
G1 X2.41 Y4.49 Z0.72 F1800.0
G1 X2.41 Y4.94 Z0.72 F1800.0
G1 X11.59 Y4.94 Z0.72 F1800.0
M103
G1 X11.59 Y5.39 Z0.72 F2400.0
M101
G1 X2.41 Y5.39 Z0.72 F1800.0
G1 X2.41 Y5.83 Z0.72 F1800.0
G1 X11.59 Y5.83 Z0.72 F1800.0
M103
G1 X11.59 Y6.28 Z0.72 F2400.0
M101
G1 X2.41 Y6.28 Z0.72 F1800.0
G1 X2.41 Y6.73 Z0.72 F1800.0
G1 X11.59 Y6.73 Z0.72 F1800.0
M103
G1 X11.59 Y7.18 Z0.72 F2400.0
M101
G1 X2.41 Y7.18 Z0.72 F1800.0
G1 X2.41 Y7.63 Z0.72 F1800.0
G1 X11.59 Y7.63 Z0.72 F1800.0
M103
G1 X11.59 Y8.08 Z0.72 F2400.0
M101
G1 X2.41 Y8.08 Z0.72 F1800.0
G1 X2.41 Y8.53 Z0.72 F1800.0
G1 X11.59 Y8.53 Z0.72 F1800.0
M103
G1 X11.59 Y8.98 Z0.72 F2400.0
M101
G1 X2.41 Y8.98 Z0.72 F1800.0
G1 X2.41 Y9.43 Z0.72 F1800.0
G1 X11.59 Y9.43 Z0.72 F1800.0
M103
G1 X11.59 Y9.87 Z0.72 F2400.0
M101
G1 X2.41 Y9.87 Z0.72 F1800.0
G1 X2.41 Y10.32 Z0.72 F1800.0
G1 X11.59 Y10.32 Z0.72 F1800.0
M103
G1 X11.59 Y10.77 Z0.72 F2400.0
M101
G1 X2.41 Y10.77 Z0.72 F1800.0
G1 X2.41 Y11.22 Z0.72 F1800.0
G1 X11.59 Y11.22 Z0.72 F1800.0
M103
G1 X11.59 Y11.67 Z0.72 F2400.0
M101
G1 X2.41 Y11.67 Z0.72 F1800.0
G1 X2.41 Y12.12 Z0.72 F1800.0
G1 X11.59 Y12.12 Z0.72 F1800.0
M103
G1 X11.59 Y12.57 Z0.72 F2400.0
M101
G1 X2.41 Y12.57 Z0.72 F1800.0
G1 X2.41 Y13.02 Z0.72 F1800.0
G1 X9.34 Y13.02 Z0.72 F1800.0
M108 R35.0
M102
G1 X11.59 Y13.02 Z0.72 F1800.0
M108 R1.148
M103
G1 X11.59 Y15.73 Z0.72 F2400.0
M108 R35.0
M101
G1 X11.59 Y18.85 Z0.72 F2400.0
M108 R1.148
G1 X5.91 Y18.85 Z0.72 F1800.0
M108 R35.0
M102
G1 X3.66 Y18.85 Z0.72 F1800.0
M108 R1.148
M103
M108 R35.0
M101
G1 X4.94 Y20.2 Z0.72 F1431.991
M108 R1.148
G1 X11.59 Y20.2 Z0.72 F1800.0
G1 X11.01 Y20.64 Z0.72 F1800.0
G1 X5.09 Y20.64 Z0.72 F1800.0
M103
G1 X5.16 Y21.09 Z0.72 F2400.0
M101
G1 X10.24 Y21.09 Z0.72 F1800.0
M103
G1 X9.46 Y21.54 Z0.72 F2400.0
M101
G1 X5.14 Y21.54 Z0.72 F1800.0
M103
G1 X5.05 Y21.99 Z0.72 F2400.0
M101
G1 X8.68 Y21.99 Z0.72 F1800.0
M103
G1 X7.91 Y22.44 Z0.72 F2400.0
M101
G1 X4.88 Y22.44 Z0.72 F1800.0
G1 X4.59 Y22.89 Z0.72 F1800.0
G1 X7.13 Y22.89 Z0.72 F1800.0
M103
G1 X6.35 Y23.34 Z0.72 F2400.0
M101
G1 X4.16 Y23.34 Z0.72 F1800.0
M103
G1 X3.31 Y23.79 Z0.72 F2400.0
M101
G1 X5.57 Y23.79 Z0.72 F1800.0
M103
G1 X4.8 Y24.23 Z0.72 F2400.0
M101
G1 X-4.56 Y24.23 Z0.72 F1800.0
M108 R35.0
M102
G1 X-5.59 Y24.23 Z0.72 F1800.0
G1 X-5.59 Y23.79 Z0.72 F1800.0
G1 X-4.82 Y23.79 Z0.72 F1800.0
M108 R1.148
M103
M108 R35.0
M101
G1 X-3.19 Y23.79 Z0.72 F1253.846
M108 R1.148
G1 X1.69 Y23.79 Z0.72 F1800.0
M103
G1 X0.84 Y23.34 Z0.72 F2400.0
M101
G1 X-2.34 Y23.34 Z0.72 F1800.0
G1 X-1.91 Y22.89 Z0.72 F1800.0
G1 X0.41 Y22.89 Z0.72 F1800.0
G1 X0.12 Y22.44 Z0.72 F1800.0
G1 X-1.62 Y22.44 Z0.72 F1800.0
M103
G1 X-1.45 Y21.99 Z0.72 F2400.0
M101
M108 R35.0
M102
G1 X-0.05 Y21.99 Z0.72 F1113.6
M108 R1.148
M103
M108 R35.0
M101
G1 X-0.09 Y20.64 Z0.72 F1035.755
M108 R1.148
G1 X-1.41 Y20.64 Z0.72 F1800.0
M103
G1 X-1.36 Y21.54 Z0.72 F2400.0
M101
G1 X-0.14 Y21.54 Z0.72 F1800.0
G1 X-0.15 Y21.09 Z0.72 F1800.0
G1 X-1.34 Y21.09 Z0.72 F1800.0
M103
G1 X-1.56 Y20.2 Z0.72 F2400.0
M101
G1 X0.06 Y20.2 Z0.72 F1800.0
M103
G1 X0.3 Y19.75 Z0.72 F2400.0
M101
G1 X-1.8 Y19.75 Z0.72 F1800.0
G1 X-2.19 Y19.3 Z0.72 F1800.0
G1 X0.69 Y19.3 Z0.72 F1800.0
M103
G1 X1.34 Y18.85 Z0.72 F2400.0
M101
G1 X-0.59 Y18.85 Z0.72 F1800.0
M108 R35.0
M102
G1 X-2.84 Y18.85 Z0.72 F1800.0
M108 R1.148
M103
G1 X-6.69 Y18.85 Z0.72 F2400.0
G1 X-6.84 Y15.59 Z0.72 F2400.0
G1 X-9.16 Y15.59 Z0.72 F2400.0
G1 X-9.22 Y16.83 Z0.72 F2400.0
M108 R35.0
M101
G1 X-9.31 Y18.85 Z0.72 F2400.0
G1 X-10.41 Y18.85 Z0.72 F2400.0
M108 R1.148
G1 X-11.59 Y18.85 Z0.72 F1800.0
M103
G1 X-11.59 Y19.3 Z0.72 F2400.0
M101
G1 X-10.41 Y19.3 Z0.72 F1800.0
M103
G1 X-10.41 Y19.75 Z0.72 F2400.0
M101
G1 X-11.59 Y19.75 Z0.72 F1800.0
M103
G1 X-11.59 Y20.2 Z0.72 F2400.0
M101
G1 X-10.41 Y20.2 Z0.72 F1800.0
M103
G1 X-10.41 Y20.64 Z0.72 F2400.0
M101
G1 X-11.59 Y20.64 Z0.72 F1800.0
M103
G1 X-11.59 Y21.09 Z0.72 F2400.0
M101
G1 X-10.41 Y21.09 Z0.72 F1800.0
M103
G1 X-10.41 Y21.54 Z0.72 F2400.0
M101
G1 X-11.59 Y21.54 Z0.72 F1800.0
M103
G1 X-11.59 Y21.99 Z0.72 F2400.0
M101
G1 X-10.41 Y21.99 Z0.72 F1800.0
M103
G1 X-10.41 Y22.44 Z0.72 F2400.0
M101
M108 R35.0
M102
G1 X-11.59 Y22.44 Z0.72 F937.6
M108 R1.148
M103
G1 X-11.59 Y21.52 Z0.72 F2400.0
M108 R35.0
M101
G1 X-11.59 Y18.4 Z0.72 F2400.0
M108 R1.148
G1 X-10.41 Y18.4 Z0.72 F1800.0
M103
G1 X-10.41 Y17.95 Z0.72 F2400.0
M101
G1 X-11.59 Y17.95 Z0.72 F1800.0
M103
G1 X-11.59 Y17.5 Z0.72 F2400.0
M101
G1 X-10.41 Y17.5 Z0.72 F1800.0
M103
G1 X-10.41 Y17.05 Z0.72 F2400.0
M101
G1 X-11.59 Y17.05 Z0.72 F1800.0
M103
G1 X-11.59 Y16.61 Z0.72 F2400.0
M101
G1 X-10.41 Y16.61 Z0.72 F1800.0
M103
G1 X-10.41 Y16.16 Z0.72 F2400.0
M101
G1 X-11.59 Y16.16 Z0.72 F1800.0
M103
G1 X-11.59 Y15.71 Z0.72 F2400.0
M101
G1 X-10.41 Y15.71 Z0.72 F1800.0
M103
G1 X-10.41 Y15.26 Z0.72 F2400.0
M101
G1 X-11.59 Y15.26 Z0.72 F1800.0
M103
G1 X-11.59 Y14.81 Z0.72 F2400.0
M101
M108 R35.0
M102
G1 X-10.41 Y14.81 Z0.72 F937.6
M108 R1.148
M103
G1 X8.53 Y18.67 Z0.72 F2400.0
M108 R35.0
M101
G1 X11.59 Y19.3 Z0.72 F2400.0
M108 R1.148
G1 X4.32 Y19.3 Z0.72 F1800.0
G1 X4.7 Y19.75 Z0.72 F1800.0
G1 X9.34 Y19.75 Z0.72 F1800.0
M108 R35.0
M102
G1 X11.59 Y19.75 Z0.72 F1800.0
M108 R1.148
M103
G1 X1.31 Y2.47 Z0.72 F2400.0
G1 X1.16 Y-13.41 Z0.72 F2400.0
G1 X-8.63 Y-13.56 Z0.72 F2400.0
G1 X-8.65 Y-13.59 Z0.72 F2400.0
M108 R35.0
M101
G1 X-10.41 Y-16.16 Z0.72 F2400.0
M108 R1.148
G1 X-11.59 Y-16.16 Z0.72 F1800.0
M103
G1 X-11.59 Y-16.61 Z0.72 F2400.0
M101
G1 X-10.41 Y-16.61 Z0.72 F1800.0
M103
G1 X-10.41 Y-17.05 Z0.72 F2400.0
M101
G1 X-11.59 Y-17.05 Z0.72 F1800.0
M103
G1 X-11.59 Y-17.5 Z0.72 F2400.0
M101
G1 X-10.41 Y-17.5 Z0.72 F1800.0
M103
G1 X-10.41 Y-17.95 Z0.72 F2400.0
M101
G1 X-11.59 Y-17.95 Z0.72 F1800.0
M103
G1 X-11.59 Y-18.4 Z0.72 F2400.0
M101
G1 X-10.41 Y-18.4 Z0.72 F1800.0
M103
G1 X-10.41 Y-18.85 Z0.72 F2400.0
M101
G1 X-11.59 Y-18.85 Z0.72 F1800.0
M103
G1 X-11.59 Y-19.3 Z0.72 F2400.0
M101
G1 X-10.41 Y-19.3 Z0.72 F1800.0
M103
G1 X-10.41 Y-19.75 Z0.72 F2400.0
M101
G1 X-11.59 Y-19.75 Z0.72 F1800.0
M103
G1 X-11.59 Y-20.2 Z0.72 F2400.0
M101
G1 X-10.41 Y-20.2 Z0.72 F1800.0
M103
G1 X-10.41 Y-20.64 Z0.72 F2400.0
M101
G1 X-11.59 Y-20.64 Z0.72 F1800.0
M103
G1 X-11.59 Y-21.09 Z0.72 F2400.0
M101
G1 X-10.41 Y-21.09 Z0.72 F1800.0
M103
G1 X-10.41 Y-21.54 Z0.72 F2400.0
M101
G1 X-11.59 Y-21.54 Z0.72 F1800.0
M103
G1 X-11.59 Y-21.99 Z0.72 F2400.0
M101
G1 X-10.41 Y-21.99 Z0.72 F1800.0
M103
G1 X-10.41 Y-22.44 Z0.72 F2400.0
M101
G1 X-11.59 Y-22.44 Z0.72 F1800.0
M103
G1 X-11.59 Y-22.89 Z0.72 F2400.0
M101
G1 X-10.41 Y-22.89 Z0.72 F1800.0
M103
G1 X-10.41 Y-23.34 Z0.72 F2400.0
M101
G1 X-11.59 Y-23.34 Z0.72 F1800.0
M103
G1 X-11.59 Y-23.79 Z0.72 F2400.0
M101
G1 X-10.41 Y-23.79 Z0.72 F1800.0
M103
G1 X-10.41 Y-24.23 Z0.72 F2400.0
M101
M108 R35.0
M102
G1 X-11.59 Y-24.23 Z0.72 F937.6
M108 R1.148
M103
(</surroundingLoop>)
(</layer>)
(<operatingLayerEnd> </operatingLayerEnd>)
(<layer> 1.0 )
(<surroundingLoop>)
(<boundaryPerimeter>)
(<boundaryPoint> X-9.0 Y15.75 Z1.0 </boundaryPoint>)
(<boundaryPoint> X-9.0 Y24.25 Z1.0 </boundaryPoint>)
(<boundaryPoint> X-13.0 Y24.25 Z1.0 </boundaryPoint>)
(<boundaryPoint> X-13.0 Y-25.75 Z1.0 </boundaryPoint>)
(<boundaryPoint> X-9.0 Y-25.75 Z1.0 </boundaryPoint>)
(<boundaryPoint> X-9.0 Y-17.25 Z1.0 </boundaryPoint>)
(<boundaryPoint> X13.0 Y-17.25 Z1.0 </boundaryPoint>)
(<boundaryPoint> X13.0 Y21.131 Z1.0 </boundaryPoint>)
(<boundaryPoint> X5.0 Y25.75 Z1.0 </boundaryPoint>)
(<boundaryPoint> X-7.0 Y25.75 Z1.0 </boundaryPoint>)
(<boundaryPoint> X-7.0 Y15.75 Z1.0 </boundaryPoint>)
(<perimeter> outer )
M108 R35.0
M101
G1 X-12.78 Y-24.23 Z1.0 F939.634
M108 R1.148
G1 X-12.78 Y-25.53 Z1.0 F1800.0
G1 X-9.22 Y-25.53 Z1.0 F1800.0
G1 X-9.22 Y-17.03 Z1.0 F1800.0
G1 X12.78 Y-17.03 Z1.0 F1800.0
G1 X12.78 Y21.0 Z1.0 F1800.0
G1 X4.94 Y25.53 Z1.0 F1800.0
G1 X-6.78 Y25.53 Z1.0 F1800.0
G1 X-6.78 Y15.53 Z1.0 F1800.0
G1 X-9.22 Y15.53 Z1.0 F1800.0
G1 X-9.22 Y24.03 Z1.0 F1800.0
G1 X-12.78 Y24.03 Z1.0 F1800.0
G1 X-12.78 Y-21.98 Z1.0 F1800.0
M108 R35.0
M102
G1 X-12.78 Y-24.23 Z1.0 F1800.0
M108 R1.148
M103
(</perimeter>)
(</boundaryPerimeter>)
(<surroundingLoop>)
(<boundaryPerimeter>)
(<boundaryPoint> X-9.0 Y11.75 Z1.0 </boundaryPoint>)
(<boundaryPoint> X1.0 Y11.75 Z1.0 </boundaryPoint>)
(<boundaryPoint> X1.0 Y-13.25 Z1.0 </boundaryPoint>)
(<boundaryPoint> X-9.0 Y-13.25 Z1.0 </boundaryPoint>)
(<perimeter> inner )
G1 X-10.2 Y-16.44 Z1.0 F2400.0
M108 R35.0
M101
G1 X-9.22 Y-13.47 Z1.0 F2400.0
M108 R1.148
G1 X-9.22 Y11.97 Z1.0 F1800.0
G1 X1.22 Y11.97 Z1.0 F1800.0
G1 X1.22 Y-13.47 Z1.0 F1800.0
G1 X-6.97 Y-13.47 Z1.0 F1800.0
M108 R35.0
M102
G1 X-9.22 Y-13.47 Z1.0 F1800.0
M108 R1.148
M103
(</perimeter>)
(</boundaryPerimeter>)
(</surroundingLoop>)
(<surroundingLoop>)
(<boundaryPerimeter>)
(<boundaryPoint> X-4.515 Y20.111 Z1.0 </boundaryPoint>)
(<boundaryPoint> X-4.7 Y20.214 Z1.0 </boundaryPoint>)
(<boundaryPoint> X-4.865 Y20.348 Z1.0 </boundaryPoint>)
(<boundaryPoint> X-5.005 Y20.507 Z1.0 </boundaryPoint>)
(<boundaryPoint> X-5.116 Y20.687 Z1.0 </boundaryPoint>)
(<boundaryPoint> X-5.195 Y20.884 Z1.0 </boundaryPoint>)
(<boundaryPoint> X-5.24 Y21.091 Z1.0 </boundaryPoint>)
(<boundaryPoint> X-5.249 Y21.303 Z1.0 </boundaryPoint>)
(<boundaryPoint> X-5.222 Y21.513 Z1.0 </boundaryPoint>)
(<boundaryPoint> X-5.16 Y21.716 Z1.0 </boundaryPoint>)
(<boundaryPoint> X-5.064 Y21.905 Z1.0 </boundaryPoint>)
(<boundaryPoint> X-4.938 Y22.076 Z1.0 </boundaryPoint>)
(<boundaryPoint> X-4.785 Y22.223 Z1.0 </boundaryPoint>)
(<boundaryPoint> X-4.61 Y22.341 Z1.0 </boundaryPoint>)
(<boundaryPoint> X-4.416 Y22.429 Z1.0 </boundaryPoint>)
(<boundaryPoint> X-4.211 Y22.482 Z1.0 </boundaryPoint>)
(<boundaryPoint> X-4.0 Y22.5 Z1.0 </boundaryPoint>)
(<boundaryPoint> X-3.789 Y22.482 Z1.0 </boundaryPoint>)
(<boundaryPoint> X-3.584 Y22.429 Z1.0 </boundaryPoint>)
(<boundaryPoint> X-3.39 Y22.341 Z1.0 </boundaryPoint>)
(<boundaryPoint> X-3.215 Y22.223 Z1.0 </boundaryPoint>)
(<boundaryPoint> X-3.062 Y22.076 Z1.0 </boundaryPoint>)
(<boundaryPoint> X-2.936 Y21.905 Z1.0 </boundaryPoint>)
(<boundaryPoint> X-2.84 Y21.716 Z1.0 </boundaryPoint>)
(<boundaryPoint> X-2.778 Y21.513 Z1.0 </boundaryPoint>)
(<boundaryPoint> X-2.751 Y21.303 Z1.0 </boundaryPoint>)
(<boundaryPoint> X-2.76 Y21.091 Z1.0 </boundaryPoint>)
(<boundaryPoint> X-2.805 Y20.884 Z1.0 </boundaryPoint>)
(<boundaryPoint> X-2.884 Y20.687 Z1.0 </boundaryPoint>)
(<boundaryPoint> X-2.995 Y20.507 Z1.0 </boundaryPoint>)
(<boundaryPoint> X-3.135 Y20.348 Z1.0 </boundaryPoint>)
(<boundaryPoint> X-3.3 Y20.214 Z1.0 </boundaryPoint>)
(<boundaryPoint> X-3.485 Y20.111 Z1.0 </boundaryPoint>)
(<boundaryPoint> X-3.685 Y20.04 Z1.0 </boundaryPoint>)
(<boundaryPoint> X-3.894 Y20.005 Z1.0 </boundaryPoint>)
(<boundaryPoint> X-4.106 Y20.005 Z1.0 </boundaryPoint>)
(<boundaryPoint> X-4.315 Y20.04 Z1.0 </boundaryPoint>)
(<perimeter> inner )
G1 X-9.31 Y-12.01 Z1.0 F2400.0
G1 X-9.16 Y11.91 Z1.0 F2400.0
G1 X-5.36 Y12.06 Z1.0 F2400.0
G1 X-4.62 Y16.7 Z1.0 F2400.0
M108 R35.0
M101
G1 X-4.13 Y19.78 Z1.0 F2400.0
M108 R1.148
G1 X-4.37 Y19.82 Z1.0 F1800.0
G1 X-4.61 Y19.91 Z1.0 F1800.0
G1 X-4.83 Y20.03 Z1.0 F1800.0
G1 X-5.02 Y20.19 Z1.0 F1800.0
G1 X-5.19 Y20.37 Z1.0 F1800.0
G1 X-5.32 Y20.59 Z1.0 F1800.0
G1 X-5.41 Y20.82 Z1.0 F1800.0
G1 X-5.46 Y21.06 Z1.0 F1800.0
G1 X-5.47 Y21.31 Z1.0 F1800.0
G1 X-5.44 Y21.56 Z1.0 F1800.0
G1 X-5.37 Y21.8 Z1.0 F1800.0
G1 X-5.26 Y22.02 Z1.0 F1800.0
G1 X-5.11 Y22.23 Z1.0 F1800.0
G1 X-4.93 Y22.4 Z1.0 F1800.0
G1 X-4.72 Y22.54 Z1.0 F1800.0
G1 X-4.49 Y22.64 Z1.0 F1800.0
G1 X-4.25 Y22.7 Z1.0 F1800.0
G1 X-4.0 Y22.73 Z1.0 F1800.0
G1 X-3.75 Y22.7 Z1.0 F1800.0
G1 X-3.51 Y22.64 Z1.0 F1800.0
G1 X-3.28 Y22.54 Z1.0 F1800.0
G1 X-3.07 Y22.4 Z1.0 F1800.0
G1 X-2.89 Y22.23 Z1.0 F1800.0
G1 X-2.74 Y22.02 Z1.0 F1800.0
G1 X-2.63 Y21.8 Z1.0 F1800.0
G1 X-2.56 Y21.56 Z1.0 F1800.0
G1 X-2.53 Y21.31 Z1.0 F1800.0
G1 X-2.54 Y21.06 Z1.0 F1800.0
G1 X-2.54 Y21.06 Z1.0 F1800.0
M108 R35.0
M102
G1 X-2.59 Y20.82 Z1.0 F1800.0
G1 X-2.68 Y20.59 Z1.0 F1800.0
G1 X-2.81 Y20.37 Z1.0 F1800.0
G1 X-2.98 Y20.19 Z1.0 F1800.0
G1 X-3.17 Y20.03 Z1.0 F1800.0
G1 X-3.39 Y19.91 Z1.0 F1800.0
G1 X-3.63 Y19.82 Z1.0 F1800.0
G1 X-3.88 Y19.78 Z1.0 F1800.0
G1 X-4.13 Y19.78 Z1.0 F1800.0
M108 R1.148
M103
(</perimeter>)
(</boundaryPerimeter>)
(</surroundingLoop>)
(<surroundingLoop>)
(<boundaryPerimeter>)
(<boundaryPoint> X1.985 Y20.111 Z1.0 </boundaryPoint>)
(<boundaryPoint> X1.8 Y20.214 Z1.0 </boundaryPoint>)
(<boundaryPoint> X1.635 Y20.348 Z1.0 </boundaryPoint>)
(<boundaryPoint> X1.495 Y20.507 Z1.0 </boundaryPoint>)
(<boundaryPoint> X1.384 Y20.687 Z1.0 </boundaryPoint>)
(<boundaryPoint> X1.305 Y20.884 Z1.0 </boundaryPoint>)
(<boundaryPoint> X1.26 Y21.091 Z1.0 </boundaryPoint>)
(<boundaryPoint> X1.251 Y21.303 Z1.0 </boundaryPoint>)
(<boundaryPoint> X1.278 Y21.513 Z1.0 </boundaryPoint>)
(<boundaryPoint> X1.34 Y21.716 Z1.0 </boundaryPoint>)
(<boundaryPoint> X1.436 Y21.905 Z1.0 </boundaryPoint>)
(<boundaryPoint> X1.562 Y22.076 Z1.0 </boundaryPoint>)
(<boundaryPoint> X1.715 Y22.223 Z1.0 </boundaryPoint>)
(<boundaryPoint> X1.89 Y22.341 Z1.0 </boundaryPoint>)
(<boundaryPoint> X2.084 Y22.429 Z1.0 </boundaryPoint>)
(<boundaryPoint> X2.289 Y22.482 Z1.0 </boundaryPoint>)
(<boundaryPoint> X2.5 Y22.5 Z1.0 </boundaryPoint>)
(<boundaryPoint> X2.711 Y22.482 Z1.0 </boundaryPoint>)
(<boundaryPoint> X2.916 Y22.429 Z1.0 </boundaryPoint>)
(<boundaryPoint> X3.11 Y22.341 Z1.0 </boundaryPoint>)
(<boundaryPoint> X3.285 Y22.223 Z1.0 </boundaryPoint>)
(<boundaryPoint> X3.438 Y22.076 Z1.0 </boundaryPoint>)
(<boundaryPoint> X3.564 Y21.905 Z1.0 </boundaryPoint>)
(<boundaryPoint> X3.66 Y21.716 Z1.0 </boundaryPoint>)
(<boundaryPoint> X3.722 Y21.513 Z1.0 </boundaryPoint>)
(<boundaryPoint> X3.749 Y21.303 Z1.0 </boundaryPoint>)
(<boundaryPoint> X3.74 Y21.091 Z1.0 </boundaryPoint>)
(<boundaryPoint> X3.695 Y20.884 Z1.0 </boundaryPoint>)
(<boundaryPoint> X3.616 Y20.687 Z1.0 </boundaryPoint>)
(<boundaryPoint> X3.505 Y20.507 Z1.0 </boundaryPoint>)
(<boundaryPoint> X3.365 Y20.348 Z1.0 </boundaryPoint>)
(<boundaryPoint> X3.2 Y20.214 Z1.0 </boundaryPoint>)
(<boundaryPoint> X3.015 Y20.111 Z1.0 </boundaryPoint>)
(<boundaryPoint> X2.815 Y20.04 Z1.0 </boundaryPoint>)
(<boundaryPoint> X2.606 Y20.005 Z1.0 </boundaryPoint>)
(<boundaryPoint> X2.394 Y20.005 Z1.0 </boundaryPoint>)
(<boundaryPoint> X2.185 Y20.04 Z1.0 </boundaryPoint>)
(<perimeter> inner )
G1 X-1.97 Y20.21 Z1.0 F2400.0
M108 R35.0
M101
G1 X1.09 Y20.82 Z1.0 F2400.0
M108 R1.148
G1 X1.04 Y21.06 Z1.0 F1800.0
G1 X1.03 Y21.31 Z1.0 F1800.0
G1 X1.06 Y21.56 Z1.0 F1800.0
G1 X1.13 Y21.8 Z1.0 F1800.0
G1 X1.24 Y22.02 Z1.0 F1800.0
G1 X1.39 Y22.23 Z1.0 F1800.0
G1 X1.57 Y22.4 Z1.0 F1800.0
G1 X1.78 Y22.54 Z1.0 F1800.0
G1 X2.01 Y22.64 Z1.0 F1800.0
G1 X2.25 Y22.7 Z1.0 F1800.0
G1 X2.5 Y22.73 Z1.0 F1800.0
G1 X2.75 Y22.7 Z1.0 F1800.0
G1 X2.99 Y22.64 Z1.0 F1800.0
G1 X3.22 Y22.54 Z1.0 F1800.0
G1 X3.43 Y22.4 Z1.0 F1800.0
G1 X3.61 Y22.23 Z1.0 F1800.0
G1 X3.76 Y22.02 Z1.0 F1800.0
G1 X3.87 Y21.8 Z1.0 F1800.0
G1 X3.94 Y21.56 Z1.0 F1800.0
G1 X3.97 Y21.31 Z1.0 F1800.0
G1 X3.96 Y21.06 Z1.0 F1800.0
G1 X3.91 Y20.82 Z1.0 F1800.0
G1 X3.82 Y20.59 Z1.0 F1800.0
G1 X3.69 Y20.37 Z1.0 F1800.0
G1 X3.52 Y20.19 Z1.0 F1800.0
G1 X3.33 Y20.03 Z1.0 F1800.0
G1 X3.11 Y19.91 Z1.0 F1800.0
G1 X2.87 Y19.82 Z1.0 F1800.0
G1 X2.63 Y19.78 Z1.0 F1800.0
G1 X2.38 Y19.78 Z1.0 F1800.0
G1 X2.13 Y19.82 Z1.0 F1800.0
G1 X1.89 Y19.91 Z1.0 F1800.0
G1 X1.67 Y20.03 Z1.0 F1800.0
G1 X1.48 Y20.19 Z1.0 F1800.0
G1 X1.31 Y20.37 Z1.0 F1800.0
G1 X1.18 Y20.59 Z1.0 F1800.0
G1 X1.09 Y20.82 Z1.0 F1800.0
M103
(</perimeter>)
(</boundaryPerimeter>)
(</surroundingLoop>)
(<loop> inner )
G1 X0.66 Y20.69 Z1.0 F2400.0
M101
G1 X0.59 Y21.0 Z1.0 F1800.0
G1 X0.58 Y21.33 Z1.0 F1800.0
G1 X0.62 Y21.66 Z1.0 F1800.0
G1 X0.71 Y21.97 Z1.0 F1800.0
G1 X0.86 Y22.26 Z1.0 F1800.0
G1 X1.05 Y22.52 Z1.0 F1800.0
G1 X1.29 Y22.75 Z1.0 F1800.0
G1 X1.56 Y22.93 Z1.0 F1800.0
G1 X1.86 Y23.07 Z1.0 F1800.0
G1 X2.17 Y23.15 Z1.0 F1800.0
G1 X2.5 Y23.18 Z1.0 F1800.0
G1 X2.83 Y23.15 Z1.0 F1800.0
G1 X3.14 Y23.07 Z1.0 F1800.0
G1 X3.44 Y22.93 Z1.0 F1800.0
G1 X3.71 Y22.75 Z1.0 F1800.0
G1 X3.95 Y22.52 Z1.0 F1800.0
G1 X4.14 Y22.26 Z1.0 F1800.0
G1 X4.29 Y21.97 Z1.0 F1800.0
G1 X4.38 Y21.66 Z1.0 F1800.0
G1 X4.42 Y21.33 Z1.0 F1800.0
G1 X4.41 Y21.0 Z1.0 F1800.0
G1 X4.34 Y20.69 Z1.0 F1800.0
G1 X4.22 Y20.38 Z1.0 F1800.0
G1 X4.05 Y20.11 Z1.0 F1800.0
G1 X3.83 Y19.86 Z1.0 F1800.0
G1 X3.58 Y19.65 Z1.0 F1800.0
G1 X3.29 Y19.5 Z1.0 F1800.0
G1 X2.98 Y19.39 Z1.0 F1800.0
G1 X2.66 Y19.33 Z1.0 F1800.0
G1 X2.34 Y19.33 Z1.0 F1800.0
G1 X2.02 Y19.39 Z1.0 F1800.0
G1 X1.71 Y19.5 Z1.0 F1800.0
G1 X1.42 Y19.65 Z1.0 F1800.0
G1 X1.17 Y19.86 Z1.0 F1800.0
G1 X0.95 Y20.11 Z1.0 F1800.0
G1 X0.78 Y20.38 Z1.0 F1800.0
G1 X0.66 Y20.69 Z1.0 F1800.0
M103
(</loop>)
(<loop> inner )
G1 X0.23 Y20.55 Z1.0 F2400.0
M101
G1 X0.14 Y20.95 Z1.0 F1800.0
G1 X0.13 Y21.35 Z1.0 F1800.0
G1 X0.18 Y21.75 Z1.0 F1800.0
G1 X0.29 Y22.14 Z1.0 F1800.0
G1 X0.48 Y22.5 Z1.0 F1800.0
G1 X0.71 Y22.82 Z1.0 F1800.0
G1 X1.01 Y23.1 Z1.0 F1800.0
G1 X1.34 Y23.32 Z1.0 F1800.0
G1 X1.71 Y23.49 Z1.0 F1800.0
G1 X2.1 Y23.59 Z1.0 F1800.0
G1 X2.5 Y23.63 Z1.0 F1800.0
G1 X2.9 Y23.59 Z1.0 F1800.0
G1 X3.29 Y23.49 Z1.0 F1800.0
G1 X3.66 Y23.32 Z1.0 F1800.0
G1 X3.99 Y23.1 Z1.0 F1800.0
G1 X4.29 Y22.82 Z1.0 F1800.0
G1 X4.52 Y22.5 Z1.0 F1800.0
G1 X4.71 Y22.14 Z1.0 F1800.0
G1 X4.82 Y21.75 Z1.0 F1800.0
G1 X4.87 Y21.35 Z1.0 F1800.0
G1 X4.86 Y20.95 Z1.0 F1800.0
G1 X4.77 Y20.55 Z1.0 F1800.0
G1 X4.62 Y20.18 Z1.0 F1800.0
G1 X4.41 Y19.84 Z1.0 F1800.0
G1 X4.14 Y19.54 Z1.0 F1800.0
G1 X3.83 Y19.28 Z1.0 F1800.0
G1 X3.48 Y19.09 Z1.0 F1800.0
G1 X3.1 Y18.95 Z1.0 F1800.0
G1 X2.7 Y18.88 Z1.0 F1800.0
G1 X2.3 Y18.88 Z1.0 F1800.0
G1 X1.9 Y18.95 Z1.0 F1800.0
G1 X1.74 Y19.01 Z1.0 F1800.0
M108 R35.0
M102
G1 X1.52 Y19.09 Z1.0 F1800.0
G1 X1.17 Y19.28 Z1.0 F1800.0
G1 X0.85 Y19.54 Z1.0 F1800.0
G1 X0.59 Y19.84 Z1.0 F1800.0
G1 X0.38 Y20.18 Z1.0 F1800.0
G1 X0.23 Y20.55 Z1.0 F1800.0
M108 R1.148
M103
(</loop>)
(<loop> inner )
G1 X0.23 Y15.54 Z1.0 F2400.0
M108 R35.0
M101
G1 X0.23 Y12.42 Z1.0 F2400.0
M108 R1.148
G1 X1.67 Y12.42 Z1.0 F1800.0
G1 X1.67 Y-13.92 Z1.0 F1800.0
G1 X-9.67 Y-13.92 Z1.0 F1800.0
G1 X-9.67 Y12.42 Z1.0 F1800.0
G1 X0.23 Y12.42 Z1.0 F1800.0
M103
(</loop>)
(<loop> inner )
G1 X0.23 Y12.87 Z1.0 F2400.0
M101
G1 X2.12 Y12.87 Z1.0 F1800.0
G1 X2.12 Y-14.37 Z1.0 F1800.0
G1 X-10.12 Y-14.37 Z1.0 F1800.0
G1 X-10.12 Y12.87 Z1.0 F1800.0
G1 X-2.02 Y12.87 Z1.0 F1800.0
M108 R35.0
M102
G1 X0.23 Y12.87 Z1.0 F1800.0
M108 R1.148
M103
(</loop>)
(<loop> outer )
G1 X-2.88 Y13.77 Z1.0 F2400.0
M108 R35.0
M101
G1 X-5.88 Y14.63 Z1.0 F2400.0
M108 R1.148
G1 X-10.12 Y14.63 Z1.0 F1800.0
G1 X-10.12 Y23.13 Z1.0 F1800.0
G1 X-11.88 Y23.13 Z1.0 F1800.0
G1 X-11.88 Y-24.63 Z1.0 F1800.0
G1 X-10.12 Y-24.63 Z1.0 F1800.0
G1 X-10.12 Y-16.13 Z1.0 F1800.0
G1 X11.88 Y-16.13 Z1.0 F1800.0
G1 X11.88 Y20.48 Z1.0 F1800.0
G1 X4.7 Y24.63 Z1.0 F1800.0
G1 X-5.88 Y24.63 Z1.0 F1800.0
G1 X-5.88 Y23.25 Z1.0 F1800.0
G1 X-5.33 Y23.21 Z1.0 F1800.0
G1 X-4.79 Y23.49 Z1.0 F1800.0
G1 X-4.4 Y23.59 Z1.0 F1800.0
G1 X-4.0 Y23.63 Z1.0 F1800.0
G1 X-3.6 Y23.59 Z1.0 F1800.0
G1 X-3.21 Y23.49 Z1.0 F1800.0
G1 X-2.84 Y23.32 Z1.0 F1800.0
G1 X-2.51 Y23.1 Z1.0 F1800.0
G1 X-2.21 Y22.82 Z1.0 F1800.0
G1 X-1.98 Y22.5 Z1.0 F1800.0
G1 X-1.79 Y22.14 Z1.0 F1800.0
G1 X-1.68 Y21.75 Z1.0 F1800.0
G1 X-1.63 Y21.35 Z1.0 F1800.0
G1 X-1.64 Y20.95 Z1.0 F1800.0
G1 X-1.73 Y20.55 Z1.0 F1800.0
G1 X-1.88 Y20.18 Z1.0 F1800.0
G1 X-2.09 Y19.84 Z1.0 F1800.0
G1 X-2.35 Y19.54 Z1.0 F1800.0
G1 X-2.67 Y19.28 Z1.0 F1800.0
G1 X-3.02 Y19.09 Z1.0 F1800.0
G1 X-3.4 Y18.95 Z1.0 F1800.0
G1 X-3.8 Y18.88 Z1.0 F1800.0
G1 X-4.2 Y18.88 Z1.0 F1800.0
G1 X-4.6 Y18.95 Z1.0 F1800.0
G1 X-4.98 Y19.09 Z1.0 F1800.0
G1 X-5.42 Y19.36 Z1.0 F1800.0
G1 X-5.88 Y19.2 Z1.0 F1800.0
G1 X-5.88 Y16.88 Z1.0 F1800.0
M108 R35.0
M102
G1 X-5.88 Y14.63 Z1.0 F1800.0
M108 R1.148
M103
(</loop>)
(<loop> inner )
G1 X-5.36 Y16.39 Z1.0 F2400.0
M108 R35.0
M101
G1 X-4.49 Y19.39 Z1.0 F2400.0
M108 R1.148
G1 X-4.79 Y19.5 Z1.0 F1800.0
G1 X-5.08 Y19.65 Z1.0 F1800.0
G1 X-5.33 Y19.86 Z1.0 F1800.0
G1 X-5.55 Y20.11 Z1.0 F1800.0
G1 X-5.72 Y20.38 Z1.0 F1800.0
G1 X-5.84 Y20.69 Z1.0 F1800.0
G1 X-5.91 Y21.0 Z1.0 F1800.0
G1 X-5.92 Y21.33 Z1.0 F1800.0
G1 X-5.88 Y21.66 Z1.0 F1800.0
G1 X-5.79 Y21.97 Z1.0 F1800.0
G1 X-5.64 Y22.26 Z1.0 F1800.0
G1 X-5.45 Y22.52 Z1.0 F1800.0
G1 X-5.21 Y22.75 Z1.0 F1800.0
G1 X-4.94 Y22.93 Z1.0 F1800.0
G1 X-4.64 Y23.07 Z1.0 F1800.0
G1 X-4.33 Y23.15 Z1.0 F1800.0
G1 X-4.0 Y23.18 Z1.0 F1800.0
G1 X-3.67 Y23.15 Z1.0 F1800.0
G1 X-3.36 Y23.07 Z1.0 F1800.0
G1 X-3.06 Y22.93 Z1.0 F1800.0
G1 X-2.79 Y22.75 Z1.0 F1800.0
G1 X-2.55 Y22.52 Z1.0 F1800.0
G1 X-2.36 Y22.26 Z1.0 F1800.0
G1 X-2.21 Y21.97 Z1.0 F1800.0
G1 X-2.12 Y21.66 Z1.0 F1800.0
G1 X-2.08 Y21.33 Z1.0 F1800.0
G1 X-2.09 Y21.0 Z1.0 F1800.0
G1 X-2.16 Y20.69 Z1.0 F1800.0
G1 X-2.28 Y20.38 Z1.0 F1800.0
G1 X-2.45 Y20.11 Z1.0 F1800.0
G1 X-2.48 Y20.08 Z1.0 F1800.0
M108 R35.0
M102
G1 X-2.67 Y19.86 Z1.0 F1800.0
G1 X-2.92 Y19.65 Z1.0 F1800.0
G1 X-3.21 Y19.5 Z1.0 F1800.0
G1 X-3.52 Y19.39 Z1.0 F1800.0
G1 X-3.84 Y19.33 Z1.0 F1800.0
G1 X-4.16 Y19.33 Z1.0 F1800.0
G1 X-4.49 Y19.39 Z1.0 F1800.0
M108 R1.148
M103
(</loop>)
(<loop> outer )
M108 R35.0
M101
G1 X-6.33 Y19.39 Z1.0 F1416.923
M108 R1.148
G1 X-6.33 Y15.08 Z1.0 F1800.0
G1 X-9.67 Y15.08 Z1.0 F1800.0
G1 X-9.67 Y23.58 Z1.0 F1800.0
G1 X-12.33 Y23.58 Z1.0 F1800.0
G1 X-12.33 Y-25.08 Z1.0 F1800.0
G1 X-9.67 Y-25.08 Z1.0 F1800.0
G1 X-9.67 Y-16.58 Z1.0 F1800.0
G1 X12.33 Y-16.58 Z1.0 F1800.0
G1 X12.33 Y20.74 Z1.0 F1800.0
G1 X4.82 Y25.08 Z1.0 F1800.0
G1 X-6.33 Y25.08 Z1.0 F1800.0
G1 X-6.33 Y21.64 Z1.0 F1800.0
M108 R35.0
M102
G1 X-6.33 Y19.39 Z1.0 F1800.0
M108 R1.148
M103
(</loop>)
M108 R35.0
M101
G1 X-3.99 Y18.59 Z1.0 F1899.59
M108 R1.148
G1 X-4.49 Y18.64 Z1.0 F1800.0
G1 X-4.49 Y13.16 Z1.0 F1800.0
G1 X-5.49 Y13.16 Z1.0 F1800.0
G1 X-5.49 Y16.88 Z1.0 F1800.0
M108 R35.0
M102
G1 X-5.49 Y17.6 Z1.0 F1800.0
G1 X-5.21 Y18.33 Z1.0 F1800.0
G1 X-5.49 Y19.03 Z1.0 F1800.0
M108 R1.148
M103
M108 R35.0
M101
G1 X-2.49 Y19.05 Z1.0 F2301.595
M108 R1.148
G1 X-2.49 Y14.31 Z1.0 F1800.0
G1 X-2.0 Y13.16 Z1.0 F1800.0
G1 X-3.99 Y13.16 Z1.0 F1800.0
G1 X-3.49 Y15.31 Z1.0 F1800.0
G1 X-3.49 Y16.39 Z1.0 F1800.0
M108 R35.0
M102
G1 X-3.49 Y18.64 Z1.0 F1800.0
M108 R1.148
M103
G1 X-2.56 Y16.09 Z1.0 F2400.0
M108 R35.0
M101
G1 X-1.5 Y13.16 Z1.0 F2400.0
M108 R1.148
G1 X-1.5 Y18.1 Z1.0 F1800.0
M108 R35.0
M102
G1 X-1.5 Y20.35 Z1.0 F1800.0
M108 R1.148
M103
G1 X-2.81 Y22.06 Z1.0 F2400.0
M108 R35.0
M101
G1 X-3.24 Y22.61 Z1.0 F2400.0
G1 X-5.49 Y23.51 Z1.0 F2400.0
M108 R1.148
G1 X-5.49 Y24.34 Z1.0 F1800.0
G1 X-4.99 Y24.34 Z1.0 F1800.0
G1 X-4.99 Y23.72 Z1.0 F1800.0
G1 X-4.49 Y23.87 Z1.0 F1800.0
G1 X-4.49 Y24.34 Z1.0 F1800.0
G1 X-3.99 Y24.34 Z1.0 F1800.0
G1 X-3.99 Y23.92 Z1.0 F1800.0
G1 X-3.49 Y24.34 Z1.0 F1800.0
G1 X-3.49 Y23.86 Z1.0 F1800.0
G1 X-2.99 Y23.71 Z1.0 F1800.0
G1 X-2.99 Y24.34 Z1.0 F1800.0
G1 X-2.49 Y24.34 Z1.0 F1800.0
G1 X-2.49 Y23.44 Z1.0 F1800.0
G1 X-2.0 Y24.34 Z1.0 F1800.0
G1 X-1.5 Y24.34 Z1.0 F1800.0
G1 X-1.5 Y23.98 Z1.0 F1800.0
M108 R35.0
M102
G1 X-1.5 Y23.29 Z1.0 F1800.0
G1 X-2.0 Y23.01 Z1.0 F1800.0
G1 X-1.5 Y22.16 Z1.0 F1800.0
M108 R1.148
M103
G1 X0.17 Y20.67 Z1.0 F2400.0
M108 R35.0
M101
G1 X2.49 Y18.59 Z1.0 F2400.0
M108 R1.148
G1 X2.49 Y-14.61 Z1.0 F1800.0
G1 X2.99 Y-15.34 Z1.0 F1800.0
G1 X2.49 Y-15.84 Z1.0 F1800.0
G1 X2.0 Y-15.34 Z1.0 F1800.0
G1 X2.0 Y-15.16 Z1.0 F1800.0
G1 X1.5 Y-14.66 Z1.0 F1800.0
G1 X1.5 Y-15.84 Z1.0 F1800.0
G1 X1.0 Y-15.34 Z1.0 F1800.0
G1 X1.0 Y-15.16 Z1.0 F1800.0
G1 X0.5 Y-14.66 Z1.0 F1800.0
G1 X0.5 Y-15.84 Z1.0 F1800.0
G1 X-0.0 Y-15.34 Z1.0 F1800.0
G1 X-0.0 Y-15.16 Z1.0 F1800.0
G1 X-0.5 Y-14.66 Z1.0 F1800.0
G1 X-0.5 Y-15.84 Z1.0 F1800.0
G1 X-1.0 Y-15.34 Z1.0 F1800.0
G1 X-1.0 Y-15.16 Z1.0 F1800.0
G1 X-1.5 Y-14.66 Z1.0 F1800.0
G1 X-1.5 Y-15.84 Z1.0 F1800.0
G1 X-2.0 Y-15.34 Z1.0 F1800.0
G1 X-2.0 Y-15.16 Z1.0 F1800.0
G1 X-2.49 Y-14.66 Z1.0 F1800.0
G1 X-2.49 Y-15.84 Z1.0 F1800.0
G1 X-2.99 Y-15.34 Z1.0 F1800.0
G1 X-2.99 Y-15.16 Z1.0 F1800.0
G1 X-3.49 Y-14.66 Z1.0 F1800.0
G1 X-3.49 Y-15.84 Z1.0 F1800.0
G1 X-4.49 Y-14.66 Z1.0 F1800.0
G1 X-4.49 Y-15.84 Z1.0 F1800.0
G1 X-4.99 Y-15.34 Z1.0 F1800.0
G1 X-4.99 Y-15.16 Z1.0 F1800.0
G1 X-5.49 Y-14.66 Z1.0 F1800.0
G1 X-5.49 Y-15.84 Z1.0 F1800.0
G1 X-5.98 Y-15.34 Z1.0 F1800.0
G1 X-5.98 Y-15.16 Z1.0 F1800.0
G1 X-6.48 Y-14.66 Z1.0 F1800.0
G1 X-6.48 Y-15.84 Z1.0 F1800.0
G1 X-6.98 Y-15.34 Z1.0 F1800.0
G1 X-6.98 Y-15.16 Z1.0 F1800.0
G1 X-7.48 Y-14.66 Z1.0 F1800.0
G1 X-7.48 Y-15.84 Z1.0 F1800.0
G1 X-7.98 Y-15.34 Z1.0 F1800.0
G1 X-7.98 Y-15.16 Z1.0 F1800.0
G1 X-8.48 Y-14.66 Z1.0 F1800.0
G1 X-8.48 Y-15.84 Z1.0 F1800.0
G1 X-8.98 Y-15.34 Z1.0 F1800.0
G1 X-8.98 Y-15.16 Z1.0 F1800.0
G1 X-9.0 Y-15.13 Z1.0 F1800.0
M108 R35.0
M102
G1 X-9.47 Y-14.66 Z1.0 F1800.0
G1 X-9.97 Y-15.16 Z1.0 F1800.0
G1 X-9.97 Y-15.34 Z1.0 F1800.0
G1 X-9.47 Y-15.84 Z1.0 F1800.0
M108 R1.148
M103
G1 X-10.11 Y-21.24 Z1.0 F2400.0
M108 R35.0
M101
G1 X-10.47 Y-24.34 Z1.0 F2400.0
M108 R1.148
G1 X-10.47 Y22.84 Z1.0 F1800.0
G1 X-11.47 Y22.84 Z1.0 F1800.0
G1 X-11.47 Y-22.58 Z1.0 F1800.0
M108 R35.0
M102
G1 X-11.47 Y-24.34 Z1.0 F1800.0
G1 X-10.97 Y-24.34 Z1.0 F1800.0
M108 R1.148
M103
G1 X-9.31 Y-23.18 Z1.0 F2400.0
G1 X-9.16 Y-17.09 Z1.0 F2400.0
G1 X0.61 Y-16.94 Z1.0 F2400.0
M108 R35.0
M101
G1 X1.08 Y-16.94 Z1.0 F2400.0
G1 X3.49 Y-15.84 Z1.0 F2400.0
M108 R1.148
G1 X3.49 Y17.05 Z1.0 F1800.0
M108 R35.0
M102
G1 X3.49 Y18.78 Z1.0 F1800.0
G1 X2.99 Y18.64 Z1.0 F1800.0
M108 R1.148
M103
M108 R35.0
M101
G1 X4.49 Y19.48 Z1.0 F1322.791
M108 R1.148
G1 X4.49 Y-15.84 Z1.0 F1800.0
M103
G1 X5.49 Y-15.84 Z1.0 F2400.0
M101
G1 X5.49 Y18.6 Z1.0 F1800.0
G1 X4.99 Y20.31 Z1.0 F1800.0
G1 X5.49 Y20.3 Z1.0 F1800.0
G1 X5.49 Y22.59 Z1.0 F1800.0
G1 X5.98 Y23.55 Z1.0 F1800.0
G1 X5.49 Y23.84 Z1.0 F1800.0
G1 X4.79 Y23.67 Z1.0 F1800.0
G1 X4.49 Y24.34 Z1.0 F1800.0
G1 X4.49 Y23.03 Z1.0 F1800.0
G1 X3.99 Y23.45 Z1.0 F1800.0
G1 X3.99 Y24.34 Z1.0 F1800.0
G1 X3.49 Y24.34 Z1.0 F1800.0
G1 X3.49 Y23.72 Z1.0 F1800.0
G1 X2.99 Y23.87 Z1.0 F1800.0
G1 X2.99 Y24.34 Z1.0 F1800.0
G1 X2.49 Y24.34 Z1.0 F1800.0
G1 X2.49 Y23.92 Z1.0 F1800.0
G1 X2.0 Y24.34 Z1.0 F1800.0
G1 X2.0 Y23.87 Z1.0 F1800.0
G1 X1.5 Y23.71 Z1.0 F1800.0
G1 X1.5 Y24.34 Z1.0 F1800.0
G1 X1.0 Y24.34 Z1.0 F1800.0
G1 X1.0 Y23.44 Z1.0 F1800.0
G1 X0.5 Y23.02 Z1.0 F1800.0
G1 X0.5 Y24.34 Z1.0 F1800.0
G1 X-1.0 Y24.34 Z1.0 F1800.0
G1 X0.0 Y22.17 Z1.0 F1800.0
G1 X-0.45 Y21.96 Z1.0 F1800.0
G1 X-0.5 Y14.31 Z1.0 F1800.0
G1 X-1.0 Y13.16 Z1.0 F1800.0
G1 X0.5 Y13.16 Z1.0 F1800.0
G1 X0.5 Y19.5 Z1.0 F1800.0
G1 X1.0 Y19.04 Z1.0 F1800.0
G1 X1.5 Y18.78 Z1.0 F1800.0
G1 X1.5 Y14.31 Z1.0 F1800.0
G1 X1.5 Y14.31 Z1.0 F1800.0
M108 R35.0
M102
G1 X2.0 Y13.16 Z1.0 F1800.0
G1 X1.0 Y13.16 Z1.0 F1800.0
M108 R1.148
M103
G1 X-3.86 Y13.16 Z1.0 F2400.0
M108 R35.0
M101
G1 X-6.98 Y13.16 Z1.0 F2400.0
M108 R1.148
G1 X-6.48 Y13.16 Z1.0 F1800.0
G1 X-5.98 Y14.34 Z1.0 F1800.0
G1 X-7.98 Y14.34 Z1.0 F1800.0
G1 X-7.48 Y13.16 Z1.0 F1800.0
G1 X-8.48 Y13.16 Z1.0 F1800.0
G1 X-8.48 Y14.34 Z1.0 F1800.0
G1 X-9.89 Y14.34 Z1.0 F1800.0
M108 R35.0
M102
G1 X-9.97 Y14.34 Z1.0 F1800.0
G1 X-9.97 Y13.16 Z1.0 F1800.0
G1 X-8.98 Y13.16 Z1.0 F1800.0
M108 R1.148
M103
G1 X3.76 Y20.32 Z1.0 F2400.0
G1 X4.36 Y20.97 Z1.0 F2400.0
M108 R35.0
M101
G1 X6.48 Y23.26 Z1.0 F2400.0
M108 R1.148
G1 X6.48 Y-15.84 Z1.0 F1800.0
M103
G1 X7.48 Y-15.84 Z1.0 F2400.0
M101
G1 X7.48 Y21.01 Z1.0 F1800.0
M108 R35.0
M102
G1 X7.48 Y22.68 Z1.0 F1800.0
G1 X6.98 Y22.97 Z1.0 F1800.0
M108 R1.148
M103
M108 R35.0
M101
G1 X8.48 Y22.11 Z1.0 F1328.519
M108 R1.148
G1 X8.48 Y-15.84 Z1.0 F1800.0
M103
G1 X9.47 Y-15.84 Z1.0 F2400.0
M101
G1 X9.47 Y19.74 Z1.0 F1800.0
M108 R35.0
M102
G1 X9.47 Y20.59 Z1.0 F1800.0
G1 X9.97 Y21.25 Z1.0 F1800.0
G1 X9.47 Y21.53 Z1.0 F1800.0
M108 R1.148
M103
M108 R35.0
M101
G1 X10.47 Y20.96 Z1.0 F885.713
M108 R1.148
G1 X10.97 Y20.67 Z1.0 F1800.0
G1 X10.47 Y19.59 Z1.0 F1800.0
G1 X10.47 Y-15.84 Z1.0 F1800.0
M103
G1 X11.47 Y-15.84 Z1.0 F2400.0
M101
G1 X11.47 Y18.13 Z1.0 F1800.0
M108 R35.0
M102
G1 X11.47 Y20.38 Z1.0 F1800.0
M108 R1.148
M103
(</surroundingLoop>)
(</layer>)
(<layer> 1.28 )
(<surroundingLoop>)
(<boundaryPerimeter>)
(<boundaryPoint> X-9.0 Y15.75 Z1.28 </boundaryPoint>)
(<boundaryPoint> X-9.0 Y24.25 Z1.28 </boundaryPoint>)
(<boundaryPoint> X-13.0 Y24.25 Z1.28 </boundaryPoint>)
(<boundaryPoint> X-13.0 Y-25.75 Z1.28 </boundaryPoint>)
(<boundaryPoint> X-9.0 Y-25.75 Z1.28 </boundaryPoint>)
(<boundaryPoint> X-9.0 Y-17.25 Z1.28 </boundaryPoint>)
(<boundaryPoint> X13.0 Y-17.25 Z1.28 </boundaryPoint>)
(<boundaryPoint> X13.0 Y21.131 Z1.28 </boundaryPoint>)
(<boundaryPoint> X5.0 Y25.75 Z1.28 </boundaryPoint>)
(<boundaryPoint> X-7.0 Y25.75 Z1.28 </boundaryPoint>)
(<boundaryPoint> X-7.0 Y15.75 Z1.28 </boundaryPoint>)
(<perimeter> outer )
M108 R35.0
M101
G1 X12.06 Y21.41 Z1.28 F940.013
M108 R1.148
G1 X4.94 Y25.53 Z1.28 F1800.0
G1 X-6.78 Y25.53 Z1.28 F1800.0
G1 X-6.78 Y15.53 Z1.28 F1800.0
G1 X-9.22 Y15.53 Z1.28 F1800.0
G1 X-9.22 Y24.03 Z1.28 F1800.0
G1 X-12.78 Y24.03 Z1.28 F1800.0
G1 X-12.78 Y-25.53 Z1.28 F1800.0
G1 X-9.22 Y-25.53 Z1.28 F1800.0
G1 X-9.22 Y-17.03 Z1.28 F1800.0
G1 X12.78 Y-17.03 Z1.28 F1800.0
G1 X12.78 Y19.57 Z1.28 F1800.0
M108 R35.0
M102
G1 X12.78 Y21.0 Z1.28 F1800.0
G1 X12.06 Y21.41 Z1.28 F1800.0
M108 R1.148
M103
(</perimeter>)
(</boundaryPerimeter>)
(<surroundingLoop>)
(<boundaryPerimeter>)
(<boundaryPoint> X1.985 Y20.111 Z1.28 </boundaryPoint>)
(<boundaryPoint> X1.8 Y20.214 Z1.28 </boundaryPoint>)
(<boundaryPoint> X1.635 Y20.348 Z1.28 </boundaryPoint>)
(<boundaryPoint> X1.495 Y20.507 Z1.28 </boundaryPoint>)
(<boundaryPoint> X1.384 Y20.687 Z1.28 </boundaryPoint>)
(<boundaryPoint> X1.305 Y20.884 Z1.28 </boundaryPoint>)
(<boundaryPoint> X1.26 Y21.091 Z1.28 </boundaryPoint>)
(<boundaryPoint> X1.251 Y21.303 Z1.28 </boundaryPoint>)
(<boundaryPoint> X1.278 Y21.513 Z1.28 </boundaryPoint>)
(<boundaryPoint> X1.34 Y21.716 Z1.28 </boundaryPoint>)
(<boundaryPoint> X1.436 Y21.905 Z1.28 </boundaryPoint>)
(<boundaryPoint> X1.562 Y22.076 Z1.28 </boundaryPoint>)
(<boundaryPoint> X1.715 Y22.223 Z1.28 </boundaryPoint>)
(<boundaryPoint> X1.89 Y22.341 Z1.28 </boundaryPoint>)
(<boundaryPoint> X2.084 Y22.429 Z1.28 </boundaryPoint>)
(<boundaryPoint> X2.289 Y22.482 Z1.28 </boundaryPoint>)
(<boundaryPoint> X2.5 Y22.5 Z1.28 </boundaryPoint>)
(<boundaryPoint> X2.711 Y22.482 Z1.28 </boundaryPoint>)
(<boundaryPoint> X2.916 Y22.429 Z1.28 </boundaryPoint>)
(<boundaryPoint> X3.11 Y22.341 Z1.28 </boundaryPoint>)
(<boundaryPoint> X3.285 Y22.223 Z1.28 </boundaryPoint>)
(<boundaryPoint> X3.438 Y22.076 Z1.28 </boundaryPoint>)
(<boundaryPoint> X3.564 Y21.905 Z1.28 </boundaryPoint>)
(<boundaryPoint> X3.66 Y21.716 Z1.28 </boundaryPoint>)
(<boundaryPoint> X3.722 Y21.513 Z1.28 </boundaryPoint>)
(<boundaryPoint> X3.749 Y21.303 Z1.28 </boundaryPoint>)
(<boundaryPoint> X3.74 Y21.091 Z1.28 </boundaryPoint>)
(<boundaryPoint> X3.695 Y20.884 Z1.28 </boundaryPoint>)
(<boundaryPoint> X3.616 Y20.687 Z1.28 </boundaryPoint>)
(<boundaryPoint> X3.505 Y20.507 Z1.28 </boundaryPoint>)
(<boundaryPoint> X3.365 Y20.348 Z1.28 </boundaryPoint>)
(<boundaryPoint> X3.2 Y20.214 Z1.28 </boundaryPoint>)
(<boundaryPoint> X3.015 Y20.111 Z1.28 </boundaryPoint>)
(<boundaryPoint> X2.815 Y20.04 Z1.28 </boundaryPoint>)
(<boundaryPoint> X2.606 Y20.005 Z1.28 </boundaryPoint>)
(<boundaryPoint> X2.394 Y20.005 Z1.28 </boundaryPoint>)
(<boundaryPoint> X2.185 Y20.04 Z1.28 </boundaryPoint>)
(<perimeter> inner )
G1 X7.09 Y21.35 Z1.28 F2400.0
M108 R35.0
M101
G1 X3.97 Y21.31 Z1.28 F2400.0
M108 R1.148
G1 X3.96 Y21.06 Z1.28 F1800.0
G1 X3.91 Y20.82 Z1.28 F1800.0
G1 X3.82 Y20.59 Z1.28 F1800.0
G1 X3.69 Y20.37 Z1.28 F1800.0
G1 X3.52 Y20.19 Z1.28 F1800.0
G1 X3.33 Y20.03 Z1.28 F1800.0
G1 X3.11 Y19.91 Z1.28 F1800.0
G1 X2.87 Y19.82 Z1.28 F1800.0
G1 X2.63 Y19.78 Z1.28 F1800.0
G1 X2.38 Y19.78 Z1.28 F1800.0
G1 X2.13 Y19.82 Z1.28 F1800.0
G1 X1.89 Y19.91 Z1.28 F1800.0
G1 X1.67 Y20.03 Z1.28 F1800.0
G1 X1.48 Y20.19 Z1.28 F1800.0
G1 X1.31 Y20.37 Z1.28 F1800.0
G1 X1.18 Y20.59 Z1.28 F1800.0
G1 X1.09 Y20.82 Z1.28 F1800.0
G1 X1.04 Y21.06 Z1.28 F1800.0
G1 X1.03 Y21.31 Z1.28 F1800.0
G1 X1.06 Y21.56 Z1.28 F1800.0
G1 X1.13 Y21.8 Z1.28 F1800.0
G1 X1.24 Y22.02 Z1.28 F1800.0
G1 X1.39 Y22.23 Z1.28 F1800.0
G1 X1.57 Y22.4 Z1.28 F1800.0
G1 X1.78 Y22.54 Z1.28 F1800.0
G1 X2.01 Y22.64 Z1.28 F1800.0
G1 X2.25 Y22.7 Z1.28 F1800.0
G1 X2.5 Y22.73 Z1.28 F1800.0
G1 X2.5 Y22.73 Z1.28 F1800.0
M108 R35.0
M102
G1 X2.75 Y22.7 Z1.28 F1800.0
G1 X2.99 Y22.64 Z1.28 F1800.0
G1 X3.22 Y22.54 Z1.28 F1800.0
G1 X3.43 Y22.4 Z1.28 F1800.0
G1 X3.61 Y22.23 Z1.28 F1800.0
G1 X3.76 Y22.02 Z1.28 F1800.0
G1 X3.87 Y21.8 Z1.28 F1800.0
G1 X3.94 Y21.56 Z1.28 F1800.0
G1 X3.97 Y21.31 Z1.28 F1800.0
M108 R1.148
M103
(</perimeter>)
(</boundaryPerimeter>)
(</surroundingLoop>)
(<surroundingLoop>)
(<boundaryPerimeter>)
(<boundaryPoint> X-4.515 Y20.111 Z1.28 </boundaryPoint>)
(<boundaryPoint> X-4.7 Y20.214 Z1.28 </boundaryPoint>)
(<boundaryPoint> X-4.865 Y20.348 Z1.28 </boundaryPoint>)
(<boundaryPoint> X-5.005 Y20.507 Z1.28 </boundaryPoint>)
(<boundaryPoint> X-5.116 Y20.687 Z1.28 </boundaryPoint>)
(<boundaryPoint> X-5.195 Y20.884 Z1.28 </boundaryPoint>)
(<boundaryPoint> X-5.24 Y21.091 Z1.28 </boundaryPoint>)
(<boundaryPoint> X-5.249 Y21.303 Z1.28 </boundaryPoint>)
(<boundaryPoint> X-5.222 Y21.513 Z1.28 </boundaryPoint>)
(<boundaryPoint> X-5.16 Y21.716 Z1.28 </boundaryPoint>)
(<boundaryPoint> X-5.064 Y21.905 Z1.28 </boundaryPoint>)
(<boundaryPoint> X-4.938 Y22.076 Z1.28 </boundaryPoint>)
(<boundaryPoint> X-4.785 Y22.223 Z1.28 </boundaryPoint>)
(<boundaryPoint> X-4.61 Y22.341 Z1.28 </boundaryPoint>)
(<boundaryPoint> X-4.416 Y22.429 Z1.28 </boundaryPoint>)
(<boundaryPoint> X-4.211 Y22.482 Z1.28 </boundaryPoint>)
(<boundaryPoint> X-4.0 Y22.5 Z1.28 </boundaryPoint>)
(<boundaryPoint> X-3.789 Y22.482 Z1.28 </boundaryPoint>)
(<boundaryPoint> X-3.584 Y22.429 Z1.28 </boundaryPoint>)
(<boundaryPoint> X-3.39 Y22.341 Z1.28 </boundaryPoint>)
(<boundaryPoint> X-3.215 Y22.223 Z1.28 </boundaryPoint>)
(<boundaryPoint> X-3.062 Y22.076 Z1.28 </boundaryPoint>)
(<boundaryPoint> X-2.936 Y21.905 Z1.28 </boundaryPoint>)
(<boundaryPoint> X-2.84 Y21.716 Z1.28 </boundaryPoint>)
(<boundaryPoint> X-2.778 Y21.513 Z1.28 </boundaryPoint>)
(<boundaryPoint> X-2.751 Y21.303 Z1.28 </boundaryPoint>)
(<boundaryPoint> X-2.76 Y21.091 Z1.28 </boundaryPoint>)
(<boundaryPoint> X-2.805 Y20.884 Z1.28 </boundaryPoint>)
(<boundaryPoint> X-2.884 Y20.687 Z1.28 </boundaryPoint>)
(<boundaryPoint> X-2.995 Y20.507 Z1.28 </boundaryPoint>)
(<boundaryPoint> X-3.135 Y20.348 Z1.28 </boundaryPoint>)
(<boundaryPoint> X-3.3 Y20.214 Z1.28 </boundaryPoint>)
(<boundaryPoint> X-3.485 Y20.111 Z1.28 </boundaryPoint>)
(<boundaryPoint> X-3.685 Y20.04 Z1.28 </boundaryPoint>)
(<boundaryPoint> X-3.894 Y20.005 Z1.28 </boundaryPoint>)
(<boundaryPoint> X-4.106 Y20.005 Z1.28 </boundaryPoint>)
(<boundaryPoint> X-4.315 Y20.04 Z1.28 </boundaryPoint>)
(<perimeter> inner )
G1 X3.67 Y22.28 Z1.28 F2400.0
G1 X3.48 Y22.47 Z1.28 F2400.0
G1 X3.26 Y22.61 Z1.28 F2400.0
G1 X3.02 Y22.72 Z1.28 F2400.0
G1 X2.76 Y22.79 Z1.28 F2400.0
G1 X2.5 Y22.81 Z1.28 F2400.0
G1 X0.46 Y22.2 Z1.28 F2400.0
M108 R35.0
M101
G1 X-2.53 Y21.31 Z1.28 F2400.0
M108 R1.148
G1 X-2.54 Y21.06 Z1.28 F1800.0
G1 X-2.59 Y20.82 Z1.28 F1800.0
G1 X-2.68 Y20.59 Z1.28 F1800.0
G1 X-2.81 Y20.37 Z1.28 F1800.0
G1 X-2.98 Y20.19 Z1.28 F1800.0
G1 X-3.17 Y20.03 Z1.28 F1800.0
G1 X-3.39 Y19.91 Z1.28 F1800.0
G1 X-3.63 Y19.82 Z1.28 F1800.0
G1 X-3.88 Y19.78 Z1.28 F1800.0
G1 X-4.13 Y19.78 Z1.28 F1800.0
G1 X-4.37 Y19.82 Z1.28 F1800.0
G1 X-4.61 Y19.91 Z1.28 F1800.0
G1 X-4.83 Y20.03 Z1.28 F1800.0
G1 X-5.02 Y20.19 Z1.28 F1800.0
G1 X-5.19 Y20.37 Z1.28 F1800.0
G1 X-5.32 Y20.59 Z1.28 F1800.0
G1 X-5.41 Y20.82 Z1.28 F1800.0
G1 X-5.46 Y21.06 Z1.28 F1800.0
G1 X-5.47 Y21.31 Z1.28 F1800.0
G1 X-5.44 Y21.56 Z1.28 F1800.0
G1 X-5.37 Y21.8 Z1.28 F1800.0
G1 X-5.26 Y22.02 Z1.28 F1800.0
G1 X-5.11 Y22.23 Z1.28 F1800.0
G1 X-4.93 Y22.4 Z1.28 F1800.0
G1 X-4.72 Y22.54 Z1.28 F1800.0
G1 X-4.49 Y22.64 Z1.28 F1800.0
G1 X-4.25 Y22.7 Z1.28 F1800.0
G1 X-4.0 Y22.73 Z1.28 F1800.0
G1 X-4.0 Y22.73 Z1.28 F1800.0
M108 R35.0
M102
G1 X-3.75 Y22.7 Z1.28 F1800.0
G1 X-3.51 Y22.64 Z1.28 F1800.0
G1 X-3.28 Y22.54 Z1.28 F1800.0
G1 X-3.07 Y22.4 Z1.28 F1800.0
G1 X-2.89 Y22.23 Z1.28 F1800.0
G1 X-2.74 Y22.02 Z1.28 F1800.0
G1 X-2.63 Y21.8 Z1.28 F1800.0
G1 X-2.56 Y21.56 Z1.28 F1800.0
G1 X-2.53 Y21.31 Z1.28 F1800.0
M108 R1.148
M103
(</perimeter>)
(</boundaryPerimeter>)
(</surroundingLoop>)
(<surroundingLoop>)
(<boundaryPerimeter>)
(<boundaryPoint> X-9.0 Y11.75 Z1.28 </boundaryPoint>)
(<boundaryPoint> X1.0 Y11.75 Z1.28 </boundaryPoint>)
(<boundaryPoint> X1.0 Y-13.25 Z1.28 </boundaryPoint>)
(<boundaryPoint> X-9.0 Y-13.25 Z1.28 </boundaryPoint>)
(<perimeter> inner )
G1 X-2.53 Y15.1 Z1.28 F2400.0
M108 R35.0
M101
G1 X-2.53 Y11.97 Z1.28 F2400.0
M108 R1.148
G1 X1.22 Y11.97 Z1.28 F1800.0
G1 X1.22 Y-13.47 Z1.28 F1800.0
G1 X-9.22 Y-13.47 Z1.28 F1800.0
G1 X-9.22 Y11.97 Z1.28 F1800.0
G1 X-2.53 Y11.97 Z1.28 F1800.0
M103
(</perimeter>)
(</boundaryPerimeter>)
(</surroundingLoop>)
(<loop> inner )
G1 X-2.53 Y12.42 Z1.28 F2400.0
M101
G1 X1.67 Y12.42 Z1.28 F1800.0
G1 X1.67 Y-13.92 Z1.28 F1800.0
G1 X-9.67 Y-13.92 Z1.28 F1800.0
G1 X-9.67 Y12.42 Z1.28 F1800.0
G1 X-2.53 Y12.42 Z1.28 F1800.0
M103
(</loop>)
(<loop> inner )
G1 X-2.53 Y12.87 Z1.28 F2400.0
M101
G1 X2.12 Y12.87 Z1.28 F1800.0
G1 X2.12 Y-14.37 Z1.28 F1800.0
G1 X-10.12 Y-14.37 Z1.28 F1800.0
G1 X-10.12 Y12.87 Z1.28 F1800.0
G1 X-4.78 Y12.87 Z1.28 F1800.0
M108 R35.0
M102
G1 X-2.53 Y12.87 Z1.28 F1800.0
M108 R1.148
M103
(</loop>)
(<loop> inner )
G1 X-0.15 Y16.96 Z1.28 F2400.0
M108 R35.0
M101
G1 X1.42 Y19.65 Z1.28 F2400.0
M108 R1.148
G1 X1.17 Y19.86 Z1.28 F1800.0
G1 X0.95 Y20.11 Z1.28 F1800.0
G1 X0.78 Y20.38 Z1.28 F1800.0
G1 X0.66 Y20.69 Z1.28 F1800.0
G1 X0.59 Y21.0 Z1.28 F1800.0
G1 X0.58 Y21.33 Z1.28 F1800.0
G1 X0.62 Y21.66 Z1.28 F1800.0
G1 X0.71 Y21.97 Z1.28 F1800.0
G1 X0.86 Y22.26 Z1.28 F1800.0
G1 X1.05 Y22.52 Z1.28 F1800.0
G1 X1.29 Y22.75 Z1.28 F1800.0
G1 X1.56 Y22.93 Z1.28 F1800.0
G1 X1.86 Y23.07 Z1.28 F1800.0
G1 X2.17 Y23.15 Z1.28 F1800.0
G1 X2.5 Y23.18 Z1.28 F1800.0
G1 X2.83 Y23.15 Z1.28 F1800.0
G1 X3.14 Y23.07 Z1.28 F1800.0
G1 X3.44 Y22.93 Z1.28 F1800.0
G1 X3.71 Y22.75 Z1.28 F1800.0
G1 X3.95 Y22.52 Z1.28 F1800.0
G1 X4.14 Y22.26 Z1.28 F1800.0
G1 X4.29 Y21.97 Z1.28 F1800.0
G1 X4.38 Y21.66 Z1.28 F1800.0
G1 X4.42 Y21.33 Z1.28 F1800.0
G1 X4.41 Y21.0 Z1.28 F1800.0
G1 X4.34 Y20.69 Z1.28 F1800.0
G1 X4.22 Y20.38 Z1.28 F1800.0
G1 X4.05 Y20.11 Z1.28 F1800.0
G1 X3.83 Y19.86 Z1.28 F1800.0
G1 X3.58 Y19.65 Z1.28 F1800.0
G1 X3.29 Y19.5 Z1.28 F1800.0
G1 X2.98 Y19.39 Z1.28 F1800.0
G1 X2.66 Y19.33 Z1.28 F1800.0
G1 X2.34 Y19.33 Z1.28 F1800.0
G1 X2.02 Y19.39 Z1.28 F1800.0
G1 X1.71 Y19.5 Z1.28 F1800.0
G1 X1.42 Y19.65 Z1.28 F1800.0
M103
(</loop>)
(<loop> inner )
G1 X1.17 Y19.28 Z1.28 F2400.0
M101
G1 X0.85 Y19.54 Z1.28 F1800.0
G1 X0.59 Y19.84 Z1.28 F1800.0
G1 X0.38 Y20.18 Z1.28 F1800.0
G1 X0.23 Y20.55 Z1.28 F1800.0
G1 X0.14 Y20.95 Z1.28 F1800.0
G1 X0.13 Y21.35 Z1.28 F1800.0
G1 X0.18 Y21.75 Z1.28 F1800.0
G1 X0.29 Y22.14 Z1.28 F1800.0
G1 X0.48 Y22.5 Z1.28 F1800.0
G1 X0.71 Y22.82 Z1.28 F1800.0
G1 X1.01 Y23.1 Z1.28 F1800.0
G1 X1.34 Y23.32 Z1.28 F1800.0
G1 X1.71 Y23.49 Z1.28 F1800.0
G1 X2.1 Y23.59 Z1.28 F1800.0
G1 X2.5 Y23.63 Z1.28 F1800.0
G1 X2.9 Y23.59 Z1.28 F1800.0
G1 X3.29 Y23.49 Z1.28 F1800.0
G1 X3.66 Y23.32 Z1.28 F1800.0
G1 X3.99 Y23.1 Z1.28 F1800.0
G1 X4.29 Y22.82 Z1.28 F1800.0
G1 X4.52 Y22.5 Z1.28 F1800.0
G1 X4.71 Y22.14 Z1.28 F1800.0
G1 X4.82 Y21.75 Z1.28 F1800.0
G1 X4.87 Y21.35 Z1.28 F1800.0
G1 X4.86 Y20.95 Z1.28 F1800.0
G1 X4.77 Y20.55 Z1.28 F1800.0
G1 X4.62 Y20.18 Z1.28 F1800.0
G1 X4.41 Y19.84 Z1.28 F1800.0
G1 X4.14 Y19.54 Z1.28 F1800.0
G1 X3.83 Y19.28 Z1.28 F1800.0
G1 X3.48 Y19.09 Z1.28 F1800.0
G1 X3.32 Y19.03 Z1.28 F1800.0
M108 R35.0
M102
G1 X3.1 Y18.95 Z1.28 F1800.0
G1 X2.7 Y18.88 Z1.28 F1800.0
G1 X2.3 Y18.88 Z1.28 F1800.0
G1 X1.9 Y18.95 Z1.28 F1800.0
G1 X1.52 Y19.09 Z1.28 F1800.0
G1 X1.17 Y19.28 Z1.28 F1800.0
M108 R1.148
M103
(</loop>)
(<loop> outer )
G1 X1.13 Y19.3 Z1.28 F2400.0
M108 R35.0
M101
G1 X-1.73 Y20.55 Z1.28 F2400.0
M108 R1.148
G1 X-1.88 Y20.18 Z1.28 F1800.0
G1 X-2.09 Y19.84 Z1.28 F1800.0
G1 X-2.35 Y19.54 Z1.28 F1800.0
G1 X-2.67 Y19.28 Z1.28 F1800.0
G1 X-3.02 Y19.09 Z1.28 F1800.0
G1 X-3.4 Y18.95 Z1.28 F1800.0
G1 X-3.8 Y18.88 Z1.28 F1800.0
G1 X-4.2 Y18.88 Z1.28 F1800.0
G1 X-4.6 Y18.95 Z1.28 F1800.0
G1 X-4.98 Y19.09 Z1.28 F1800.0
G1 X-5.42 Y19.36 Z1.28 F1800.0
G1 X-5.88 Y19.2 Z1.28 F1800.0
G1 X-5.88 Y14.63 Z1.28 F1800.0
G1 X-10.12 Y14.63 Z1.28 F1800.0
G1 X-10.12 Y23.13 Z1.28 F1800.0
G1 X-11.88 Y23.13 Z1.28 F1800.0
G1 X-11.88 Y-24.63 Z1.28 F1800.0
G1 X-10.12 Y-24.63 Z1.28 F1800.0
G1 X-10.12 Y-16.13 Z1.28 F1800.0
G1 X11.88 Y-16.13 Z1.28 F1800.0
G1 X11.88 Y20.48 Z1.28 F1800.0
G1 X4.7 Y24.63 Z1.28 F1800.0
G1 X-5.88 Y24.63 Z1.28 F1800.0
G1 X-5.88 Y23.25 Z1.28 F1800.0
G1 X-5.33 Y23.21 Z1.28 F1800.0
G1 X-4.79 Y23.49 Z1.28 F1800.0
G1 X-4.4 Y23.59 Z1.28 F1800.0
G1 X-4.0 Y23.63 Z1.28 F1800.0
G1 X-3.6 Y23.59 Z1.28 F1800.0
G1 X-3.21 Y23.49 Z1.28 F1800.0
G1 X-2.84 Y23.32 Z1.28 F1800.0
G1 X-2.51 Y23.1 Z1.28 F1800.0
G1 X-2.21 Y22.82 Z1.28 F1800.0
G1 X-1.98 Y22.5 Z1.28 F1800.0
G1 X-1.79 Y22.14 Z1.28 F1800.0
G1 X-1.68 Y21.75 Z1.28 F1800.0
G1 X-1.63 Y21.35 Z1.28 F1800.0
G1 X-1.64 Y20.95 Z1.28 F1800.0
G1 X-1.73 Y20.55 Z1.28 F1800.0
M103
(</loop>)
(<loop> inner )
G1 X-2.16 Y20.69 Z1.28 F2400.0
M101
G1 X-2.28 Y20.38 Z1.28 F1800.0
G1 X-2.45 Y20.11 Z1.28 F1800.0
G1 X-2.67 Y19.86 Z1.28 F1800.0
G1 X-2.92 Y19.65 Z1.28 F1800.0
G1 X-3.21 Y19.5 Z1.28 F1800.0
G1 X-3.52 Y19.39 Z1.28 F1800.0
G1 X-3.84 Y19.33 Z1.28 F1800.0
G1 X-4.16 Y19.33 Z1.28 F1800.0
G1 X-4.49 Y19.39 Z1.28 F1800.0
G1 X-4.79 Y19.5 Z1.28 F1800.0
G1 X-5.08 Y19.65 Z1.28 F1800.0
G1 X-5.33 Y19.86 Z1.28 F1800.0
G1 X-5.55 Y20.11 Z1.28 F1800.0
G1 X-5.72 Y20.38 Z1.28 F1800.0
G1 X-5.84 Y20.69 Z1.28 F1800.0
G1 X-5.91 Y21.0 Z1.28 F1800.0
G1 X-5.92 Y21.33 Z1.28 F1800.0
G1 X-5.88 Y21.66 Z1.28 F1800.0
G1 X-5.79 Y21.97 Z1.28 F1800.0
G1 X-5.64 Y22.26 Z1.28 F1800.0
G1 X-5.45 Y22.52 Z1.28 F1800.0
G1 X-5.21 Y22.75 Z1.28 F1800.0
G1 X-4.94 Y22.93 Z1.28 F1800.0
G1 X-4.64 Y23.07 Z1.28 F1800.0
G1 X-4.33 Y23.15 Z1.28 F1800.0
G1 X-4.0 Y23.18 Z1.28 F1800.0
G1 X-3.67 Y23.15 Z1.28 F1800.0
G1 X-3.36 Y23.07 Z1.28 F1800.0
G1 X-3.06 Y22.93 Z1.28 F1800.0
G1 X-2.79 Y22.75 Z1.28 F1800.0
G1 X-2.76 Y22.72 Z1.28 F1800.0
M108 R35.0
M102
G1 X-2.55 Y22.52 Z1.28 F1800.0
G1 X-2.36 Y22.26 Z1.28 F1800.0
G1 X-2.21 Y21.97 Z1.28 F1800.0
G1 X-2.12 Y21.66 Z1.28 F1800.0
G1 X-2.08 Y21.33 Z1.28 F1800.0
G1 X-2.09 Y21.0 Z1.28 F1800.0
G1 X-2.16 Y20.69 Z1.28 F1800.0
M108 R1.148
M103
(</loop>)
(<loop> outer )
G1 X-3.46 Y19.84 Z1.28 F2400.0
M108 R35.0
M101
G1 X-3.61 Y19.74 Z1.28 F2400.0
G1 X-3.87 Y19.69 Z1.28 F2400.0
G1 X-4.13 Y19.69 Z1.28 F2400.0
G1 X-6.33 Y20.69 Z1.28 F2400.0
M108 R1.148
G1 X-6.33 Y15.08 Z1.28 F1800.0
G1 X-9.67 Y15.08 Z1.28 F1800.0
G1 X-9.67 Y23.58 Z1.28 F1800.0
G1 X-12.33 Y23.58 Z1.28 F1800.0
G1 X-12.33 Y-25.08 Z1.28 F1800.0
G1 X-9.67 Y-25.08 Z1.28 F1800.0
G1 X-9.67 Y-16.58 Z1.28 F1800.0
G1 X12.33 Y-16.58 Z1.28 F1800.0
G1 X12.33 Y20.74 Z1.28 F1800.0
G1 X4.82 Y25.08 Z1.28 F1800.0
G1 X-6.33 Y25.08 Z1.28 F1800.0
G1 X-6.33 Y22.94 Z1.28 F1800.0
M108 R35.0
M102
G1 X-6.33 Y20.69 Z1.28 F1800.0
M108 R1.148
M103
(</loop>)
M108 R35.0
M101
G1 X-5.32 Y18.95 Z1.28 F1545.612
M108 R1.148
G1 X-5.59 Y18.95 Z1.28 F1800.0
G1 X-5.59 Y18.45 Z1.28 F1800.0
G1 X3.64 Y18.45 Z1.28 F1800.0
G1 X3.83 Y18.95 Z1.28 F1800.0
G1 X5.34 Y18.45 Z1.28 F1800.0
G1 X11.59 Y18.45 Z1.28 F1800.0
M103
G1 X11.59 Y19.45 Z1.28 F2400.0
M101
G1 X4.46 Y19.45 Z1.28 F1800.0
M103
G1 X4.82 Y19.95 Z1.28 F2400.0
M101
G1 X5.04 Y20.45 Z1.28 F1800.0
G1 X9.11 Y20.45 Z1.28 F1800.0
M108 R35.0
M102
G1 X11.36 Y20.45 Z1.28 F1800.0
M108 R1.148
M103
M108 R35.0
M101
G1 X9.63 Y21.44 Z1.28 F1534.328
M108 R1.148
G1 X6.34 Y21.44 Z1.28 F1800.0
G1 X5.65 Y20.94 Z1.28 F1800.0
G1 X5.16 Y21.44 Z1.28 F1800.0
G1 X5.07 Y21.94 Z1.28 F1800.0
M103
G1 X4.88 Y22.44 Z1.28 F2400.0
M101
G1 X5.66 Y22.44 Z1.28 F1800.0
M108 R35.0
M102
G1 X7.91 Y22.44 Z1.28 F1800.0
M108 R1.148
M103
M108 R35.0
M101
G1 X6.18 Y23.44 Z1.28 F1533.943
M108 R1.148
G1 X5.63 Y23.27 Z1.28 F1800.0
M108 R35.0
M102
G1 X4.56 Y22.94 Z1.28 F1800.0
G1 X4.63 Y23.44 Z1.28 F1800.0
G1 X4.01 Y23.44 Z1.28 F1800.0
M108 R1.148
M103
M108 R35.0
M101
G1 X5.31 Y23.94 Z1.28 F1071.857
M108 R1.148
G1 X-3.34 Y23.94 Z1.28 F1800.0
M108 R35.0
M102
G1 X-5.59 Y23.94 Z1.28 F1800.0
M108 R1.148
M103
G1 X-5.57 Y23.93 Z1.28 F2400.0
M108 R35.0
M101
G1 X-2.49 Y23.44 Z1.28 F2400.0
M108 R1.148
G1 X-2.37 Y23.2 Z1.28 F1800.0
G1 X-1.64 Y23.44 Z1.28 F1800.0
G1 X-1.26 Y23.44 Z1.28 F1800.0
M108 R35.0
M102
G1 X0.99 Y23.44 Z1.28 F1800.0
M108 R1.148
M103
M108 R35.0
M101
G1 X0.12 Y22.44 Z1.28 F1015.336
M108 R1.148
G1 X-1.62 Y22.44 Z1.28 F1800.0
G1 X-0.16 Y21.44 Z1.28 F1800.0
G1 X-1.34 Y21.44 Z1.28 F1800.0
G1 X-0.04 Y20.45 Z1.28 F1800.0
G1 X-1.46 Y20.45 Z1.28 F1800.0
G1 X-1.68 Y19.95 Z1.28 F1800.0
G1 X0.54 Y19.45 Z1.28 F1800.0
G1 X1.17 Y18.95 Z1.28 F1800.0
G1 X0.18 Y19.14 Z1.28 F1800.0
M108 R35.0
M102
G1 X-1.35 Y19.45 Z1.28 F1800.0
G1 X-2.04 Y19.45 Z1.28 F1800.0
M108 R1.148
M103
G1 X8.73 Y14.72 Z1.28 F2400.0
M108 R35.0
M101
G1 X11.59 Y13.46 Z1.28 F2400.0
M108 R1.148
G1 X-11.59 Y13.46 Z1.28 F1800.0
G1 X-10.41 Y14.46 Z1.28 F1800.0
G1 X-11.59 Y14.46 Z1.28 F1800.0
G1 X-11.09 Y14.96 Z1.28 F1800.0
G1 X-10.91 Y14.96 Z1.28 F1800.0
G1 X-10.41 Y15.46 Z1.28 F1800.0
G1 X-11.59 Y15.46 Z1.28 F1800.0
G1 X-11.09 Y15.96 Z1.28 F1800.0
G1 X-10.91 Y15.96 Z1.28 F1800.0
G1 X-10.41 Y16.46 Z1.28 F1800.0
G1 X-11.59 Y16.46 Z1.28 F1800.0
G1 X-11.09 Y16.95 Z1.28 F1800.0
G1 X-10.91 Y16.95 Z1.28 F1800.0
G1 X-10.41 Y17.45 Z1.28 F1800.0
G1 X-11.59 Y17.45 Z1.28 F1800.0
G1 X-11.09 Y17.95 Z1.28 F1800.0
G1 X-10.91 Y17.95 Z1.28 F1800.0
G1 X-10.41 Y18.45 Z1.28 F1800.0
G1 X-11.59 Y18.45 Z1.28 F1800.0
G1 X-11.09 Y18.95 Z1.28 F1800.0
G1 X-10.91 Y18.95 Z1.28 F1800.0
G1 X-10.41 Y19.45 Z1.28 F1800.0
G1 X-11.59 Y19.45 Z1.28 F1800.0
G1 X-11.09 Y19.95 Z1.28 F1800.0
G1 X-10.91 Y19.95 Z1.28 F1800.0
G1 X-10.41 Y20.45 Z1.28 F1800.0
G1 X-11.59 Y20.45 Z1.28 F1800.0
G1 X-11.09 Y20.94 Z1.28 F1800.0
G1 X-10.91 Y20.94 Z1.28 F1800.0
G1 X-10.41 Y21.44 Z1.28 F1800.0
G1 X-11.59 Y21.44 Z1.28 F1800.0
G1 X-11.23 Y21.74 Z1.28 F1800.0
M108 R35.0
M102
G1 X-10.41 Y22.44 Z1.28 F1800.0
G1 X-11.59 Y22.44 Z1.28 F1800.0
M108 R1.148
M103
G1 X-11.59 Y15.59 Z1.28 F2400.0
M108 R35.0
M101
G1 X-11.59 Y12.47 Z1.28 F2400.0
M108 R1.148
G1 X-10.91 Y12.96 Z1.28 F1800.0
G1 X-10.41 Y12.47 Z1.28 F1800.0
G1 X-10.91 Y11.97 Z1.28 F1800.0
G1 X-11.09 Y11.97 Z1.28 F1800.0
G1 X-11.59 Y11.47 Z1.28 F1800.0
G1 X-10.41 Y11.47 Z1.28 F1800.0
G1 X-10.91 Y10.97 Z1.28 F1800.0
G1 X-11.09 Y10.97 Z1.28 F1800.0
G1 X-11.59 Y10.47 Z1.28 F1800.0
G1 X-10.41 Y10.47 Z1.28 F1800.0
G1 X-10.91 Y9.97 Z1.28 F1800.0
G1 X-11.09 Y9.97 Z1.28 F1800.0
G1 X-11.59 Y9.47 Z1.28 F1800.0
G1 X-10.41 Y9.47 Z1.28 F1800.0
G1 X-10.91 Y8.98 Z1.28 F1800.0
G1 X-11.09 Y8.98 Z1.28 F1800.0
G1 X-11.59 Y8.48 Z1.28 F1800.0
G1 X-10.41 Y8.48 Z1.28 F1800.0
G1 X-10.91 Y7.98 Z1.28 F1800.0
G1 X-11.09 Y7.98 Z1.28 F1800.0
G1 X-11.59 Y7.48 Z1.28 F1800.0
G1 X-10.41 Y7.48 Z1.28 F1800.0
G1 X-10.91 Y6.98 Z1.28 F1800.0
G1 X-11.09 Y6.98 Z1.28 F1800.0
G1 X-11.59 Y6.48 Z1.28 F1800.0
G1 X-10.41 Y6.48 Z1.28 F1800.0
G1 X-10.91 Y5.98 Z1.28 F1800.0
G1 X-11.09 Y5.98 Z1.28 F1800.0
G1 X-11.59 Y5.49 Z1.28 F1800.0
G1 X-10.41 Y5.49 Z1.28 F1800.0
G1 X-11.59 Y4.49 Z1.28 F1800.0
G1 X-10.41 Y4.49 Z1.28 F1800.0
G1 X-10.91 Y3.99 Z1.28 F1800.0
G1 X-11.09 Y3.99 Z1.28 F1800.0
G1 X-11.59 Y3.49 Z1.28 F1800.0
G1 X-10.41 Y3.49 Z1.28 F1800.0
G1 X-10.91 Y2.99 Z1.28 F1800.0
G1 X-11.09 Y2.99 Z1.28 F1800.0
G1 X-11.59 Y2.49 Z1.28 F1800.0
G1 X-10.41 Y2.49 Z1.28 F1800.0
G1 X-10.91 Y2.0 Z1.28 F1800.0
G1 X-11.09 Y2.0 Z1.28 F1800.0
G1 X-11.59 Y1.5 Z1.28 F1800.0
G1 X-10.41 Y1.5 Z1.28 F1800.0
G1 X-10.91 Y1.0 Z1.28 F1800.0
G1 X-11.09 Y1.0 Z1.28 F1800.0
G1 X-11.59 Y0.5 Z1.28 F1800.0
G1 X-10.41 Y0.5 Z1.28 F1800.0
G1 X-10.91 Y0.0 Z1.28 F1800.0
G1 X-11.09 Y0.0 Z1.28 F1800.0
G1 X-11.59 Y-0.5 Z1.28 F1800.0
G1 X-10.41 Y-0.5 Z1.28 F1800.0
G1 X-10.91 Y-1.0 Z1.28 F1800.0
G1 X-11.09 Y-1.0 Z1.28 F1800.0
G1 X-11.59 Y-1.5 Z1.28 F1800.0
G1 X-10.41 Y-1.5 Z1.28 F1800.0
G1 X-10.91 Y-2.0 Z1.28 F1800.0
G1 X-11.09 Y-2.0 Z1.28 F1800.0
G1 X-11.59 Y-2.49 Z1.28 F1800.0
G1 X-10.41 Y-2.49 Z1.28 F1800.0
G1 X-10.91 Y-2.99 Z1.28 F1800.0
G1 X-11.09 Y-2.99 Z1.28 F1800.0
G1 X-11.59 Y-3.49 Z1.28 F1800.0
G1 X-10.41 Y-3.49 Z1.28 F1800.0
G1 X-11.59 Y-4.49 Z1.28 F1800.0
G1 X-10.41 Y-4.49 Z1.28 F1800.0
G1 X-11.59 Y-5.49 Z1.28 F1800.0
G1 X-10.41 Y-5.49 Z1.28 F1800.0
G1 X-10.91 Y-5.98 Z1.28 F1800.0
G1 X-11.09 Y-5.98 Z1.28 F1800.0
G1 X-11.59 Y-6.48 Z1.28 F1800.0
G1 X-10.41 Y-6.48 Z1.28 F1800.0
G1 X-10.91 Y-6.98 Z1.28 F1800.0
G1 X-11.09 Y-6.98 Z1.28 F1800.0
G1 X-11.59 Y-7.48 Z1.28 F1800.0
G1 X-10.41 Y-7.48 Z1.28 F1800.0
G1 X-10.91 Y-7.98 Z1.28 F1800.0
G1 X-11.09 Y-7.98 Z1.28 F1800.0
G1 X-11.59 Y-8.48 Z1.28 F1800.0
G1 X-10.41 Y-8.48 Z1.28 F1800.0
G1 X-10.91 Y-8.98 Z1.28 F1800.0
G1 X-11.09 Y-8.98 Z1.28 F1800.0
G1 X-11.59 Y-9.47 Z1.28 F1800.0
G1 X-10.41 Y-9.47 Z1.28 F1800.0
G1 X-10.91 Y-9.97 Z1.28 F1800.0
G1 X-11.09 Y-9.97 Z1.28 F1800.0
G1 X-11.59 Y-10.47 Z1.28 F1800.0
G1 X-10.41 Y-10.47 Z1.28 F1800.0
G1 X-10.91 Y-10.97 Z1.28 F1800.0
G1 X-11.09 Y-10.97 Z1.28 F1800.0
G1 X-11.59 Y-11.47 Z1.28 F1800.0
G1 X-10.41 Y-11.47 Z1.28 F1800.0
G1 X-10.91 Y-11.97 Z1.28 F1800.0
G1 X-11.09 Y-11.97 Z1.28 F1800.0
G1 X-11.59 Y-12.47 Z1.28 F1800.0
G1 X-10.41 Y-12.47 Z1.28 F1800.0
G1 X-11.59 Y-13.46 Z1.28 F1800.0
G1 X-10.41 Y-13.46 Z1.28 F1800.0
G1 X-10.91 Y-13.96 Z1.28 F1800.0
